; generated by Slic3r 0.9.7 on 2014-12-17 at 19:56:52

; layer_height = 0.3
; perimeters = 3
; top_solid_layers = 4
; bottom_solid_layers = 3
; fill_density = 0.2
; perimeter_speed = 30
; infill_speed = 30
; travel_speed = 100
; scale = 1
; nozzle_diameter = .35
; filament_diameter = 1.75
; extrusion_multiplier = 0.8
; perimeters extrusion width = 0.42mm
; infill extrusion width = 0.42mm
; first layer extrusion width = 0.42mm

M107
M190 S95 ; wait for bed temperature to be reached
M104 S195 ; set temperature
G21; set mm units
G28 ;home all axis
G90; set absolute coordinates
G92 E0; reset extruder distance
;M104 S195; set extruder temp and start heating
G1 Z5 F300 ;move platform down 5mm
G1 X145 Y145 F3000 ; move to back right corner
;M109 S195; wait for extruder temp to be reached
G1 Z50% F200 ;move platform close to nozzle
;G1 E7; extruder anchor
G1 F3000; Set Feed rate for first move
G92 E0; reset extrusion distance
G90 ; use absolute coordinates
G21 ; set units to millimeters
G92 E0
M82 ; use absolute distances for extrusion
G1 F4500.000 E-1.00000
G92 E0
G1 Z0.150 F6000.000
G1 X49.900 Y45.155
G1 F4500.000 E1.00000
G1 X55.420 Y39.045 F1350.000 E1.16637
G1 X55.900 Y38.615 E1.17939
G1 X56.430 Y38.225 E1.19268
G1 X56.710 Y38.055 E1.19930
G1 X66.000 Y32.715 E1.41580
G1 X66.550 Y32.465 E1.42801
G1 X67.110 Y32.275 E1.43995
G1 X68.970 Y31.825 E1.47862
G1 X77.020 Y30.155 E1.64473
G1 X77.890 Y30.045 E1.66245
G1 X78.940 Y30.015 E1.68367
G1 X80.690 Y30.135 E1.71911
G1 X88.860 Y31.115 E1.88536
G1 X89.470 Y31.215 E1.89785
G1 X90.140 Y31.365 E1.91172
G1 X91.070 Y31.645 E1.93135
G1 X91.880 Y31.945 E1.94880
G1 X92.390 Y32.165 E1.96002
G1 X99.820 Y35.695 E2.12622
G1 X100.250 Y35.915 E2.13598
G1 X101.000 Y36.345 E2.15345
G1 X101.580 Y36.705 E2.16724
G1 X102.320 Y37.255 E2.18587
G1 X102.870 Y37.735 E2.20062
G1 X109.000 Y43.655 E2.37280
G1 X110.280 Y45.025 E2.41068
G1 X110.470 Y45.275 E2.41702
G1 X110.820 Y45.805 E2.42986
G1 X115.680 Y55.115 E2.64205
G1 X115.970 Y55.745 E2.65606
G1 X116.080 Y56.045 E2.66252
G1 X116.200 Y56.415 E2.67038
G1 X116.390 Y57.255 E2.68778
G1 X117.670 Y65.395 E2.85426
G1 X117.940 Y67.365 E2.89444
G1 X117.990 Y68.285 E2.91305
G1 X117.910 Y69.325 E2.93413
G1 X116.530 Y77.435 E3.10034
G1 X116.190 Y79.355 E3.13974
G1 X116.080 Y79.865 E3.15028
G1 X115.920 Y80.375 E3.16108
G1 X115.670 Y80.975 E3.17421
G1 X110.750 Y90.185 E3.38518
G1 X110.500 Y90.605 E3.39505
G1 X93.520 Y117.125 E4.03129
G1 X93.210 Y117.565 E4.04217
G1 X92.860 Y117.985 E4.05322
G1 X92.480 Y118.365 E4.06407
G1 X92.070 Y118.715 E4.07497
G1 X91.390 Y119.165 E4.09144
G1 X90.910 Y119.415 E4.10237
G1 X90.150 Y119.705 E4.11881
G1 X89.630 Y119.845 E4.12969
G1 X89.100 Y119.935 E4.14055
G1 X88.560 Y119.985 E4.15151
G1 X71.430 Y119.985 E4.49761
G1 X70.620 Y119.895 E4.51408
G1 X69.830 Y119.705 E4.53049
G1 X69.320 Y119.515 E4.54149
G1 X69.080 Y119.405 E4.54682
G1 X68.830 Y119.285 E4.55243
G1 X68.360 Y119.015 E4.56338
G1 X67.920 Y118.705 E4.57425
G1 X67.310 Y118.175 E4.59058
G1 X66.940 Y117.775 E4.60159
G1 X66.610 Y117.345 E4.61254
G1 X49.650 Y90.765 E5.24959
G1 X45.220 Y82.985 E5.43047
G1 X44.800 Y82.215 E5.44819
G1 X44.560 Y81.715 E5.45940
G1 X44.280 Y80.945 E5.47595
G1 X44.130 Y80.335 E5.48865
G1 X42.500 Y72.555 E5.64925
G1 X42.180 Y70.935 E5.68261
G1 X42.090 Y70.405 E5.69347
G1 X42.040 Y69.965 E5.70242
G1 X42.000 Y68.135 E5.73940
G1 X42.050 Y67.185 E5.75862
G1 X43.150 Y58.855 E5.92839
G1 X43.260 Y58.255 E5.94071
G1 X43.440 Y57.615 E5.95415
G1 X43.670 Y57.025 E5.96694
G1 X47.790 Y47.855 E6.17006
G1 X48.110 Y47.295 E6.18309
G1 X48.480 Y46.765 E6.19615
G1 X49.860 Y45.200 E6.23829
G1 X49.900 Y45.155 E6.23952
G1 X50.210 Y45.415 F6000.000
G1 X55.500 Y39.555 F1350.000 E6.39903
G1 X55.710 Y39.335 E6.40517
G1 X56.160 Y38.925 E6.41747
G1 X56.650 Y38.565 E6.42976
G1 X66.240 Y33.055 E6.65322
G1 X66.540 Y32.905 E6.66000
G1 X67.170 Y32.675 E6.67355
G1 X69.050 Y32.225 E6.71260
G1 X77.100 Y30.555 E6.87871
G1 X77.920 Y30.445 E6.89543
G1 X78.240 Y30.425 E6.90191
G1 X78.920 Y30.425 E6.91565
G1 X80.640 Y30.535 E6.95047
G1 X88.810 Y31.515 E7.11672
G1 X89.380 Y31.615 E7.12842
G1 X90.050 Y31.765 E7.14229
G1 X90.930 Y32.025 E7.16083
G1 X91.740 Y32.325 E7.17828
G1 X92.210 Y32.525 E7.18860
G1 X99.640 Y36.055 E7.35480
G1 X100.800 Y36.695 E7.38157
G1 X101.350 Y37.045 E7.39474
G1 X102.080 Y37.575 E7.41296
G1 X102.590 Y38.025 E7.42671
G1 X108.710 Y43.935 E7.59860
G1 X109.570 Y44.845 E7.62390
G1 X109.960 Y45.285 E7.63578
G1 X110.310 Y45.755 E7.64762
G1 X110.470 Y46.015 E7.65379
G1 X115.320 Y55.295 E7.86535
G1 X115.700 Y56.175 E7.88471
G1 X115.810 Y56.525 E7.89213
G1 X115.990 Y57.325 E7.90869
G1 X117.270 Y65.465 E8.07518
G1 X117.540 Y67.415 E8.11495
G1 X117.590 Y68.185 E8.13054
G1 X117.510 Y69.255 E8.15222
G1 X116.130 Y77.365 E8.31844
G1 X115.740 Y79.535 E8.36298
G1 X115.530 Y80.265 E8.37833
G1 X115.230 Y80.965 E8.39372
G1 X110.390 Y89.995 E8.60072
G1 X110.160 Y90.385 E8.60986
G1 X93.180 Y116.905 E9.24611
G1 X92.890 Y117.325 E9.25642
G1 X92.570 Y117.705 E9.26646
G1 X92.020 Y118.235 E9.28189
G1 X91.620 Y118.535 E9.29199
G1 X91.190 Y118.815 E9.30236
G1 X90.970 Y118.935 E9.30742
G1 X90.510 Y119.145 E9.31764
G1 X89.790 Y119.385 E9.33297
G1 X89.300 Y119.495 E9.34312
G1 X88.800 Y119.565 E9.35332
G1 X88.290 Y119.585 E9.36363
G1 X71.700 Y119.585 E9.69882
G1 X71.190 Y119.565 E9.70913
G1 X70.440 Y119.445 E9.72448
G1 X69.710 Y119.235 E9.73983
G1 X69.250 Y119.045 E9.74988
G1 X68.580 Y118.675 E9.76535
G1 X68.170 Y118.385 E9.77549
G1 X67.590 Y117.885 E9.79097
G1 X67.250 Y117.515 E9.80112
G1 X66.800 Y116.905 E9.81643
G1 X50.000 Y90.565 E10.44765
G1 X46.060 Y83.655 E10.60836
G1 X45.040 Y81.785 E10.65140
G1 X44.930 Y81.555 E10.65655
G1 X44.750 Y81.075 E10.66691
G1 X44.650 Y80.765 E10.67349
G1 X44.520 Y80.255 E10.68413
G1 X42.890 Y72.475 E10.84473
G1 X42.520 Y70.555 E10.88424
G1 X42.460 Y70.145 E10.89261
G1 X42.430 Y69.725 E10.90111
G1 X42.400 Y68.125 E10.93345
G1 X42.450 Y67.235 E10.95146
G1 X43.550 Y58.915 E11.12102
G1 X43.650 Y58.345 E11.13271
G1 X43.820 Y57.745 E11.14531
G1 X44.040 Y57.185 E11.15747
G1 X48.150 Y48.035 E11.36013
G1 X48.450 Y47.515 E11.37226
G1 X48.800 Y47.025 E11.38443
G1 X50.170 Y45.460 E11.42644
G1 X50.210 Y45.415 E11.42767
G1 X50.510 Y45.685 F6000.000
G1 X55.990 Y39.615 F1350.000 E11.59290
G1 X56.640 Y39.065 E11.61010
G1 X57.110 Y38.765 E11.62137
G1 X66.420 Y33.415 E11.83832
G1 X66.990 Y33.165 E11.85089
G1 X67.290 Y33.065 E11.85728
G1 X68.980 Y32.655 E11.89242
G1 X77.180 Y30.955 E12.06162
G1 X77.940 Y30.855 E12.07710
G1 X78.900 Y30.825 E12.09651
G1 X80.590 Y30.935 E12.13073
G1 X88.760 Y31.915 E12.29698
G1 X89.290 Y32.005 E12.30784
G1 X90.270 Y32.235 E12.32818
G1 X90.790 Y32.405 E12.33923
G1 X91.600 Y32.705 E12.35669
G1 X92.040 Y32.895 E12.36637
G1 X99.470 Y36.425 E12.53257
G1 X99.840 Y36.615 E12.54097
G1 X100.980 Y37.275 E12.56759
G1 X101.630 Y37.745 E12.58379
G1 X102.310 Y38.315 E12.60172
G1 X108.410 Y44.205 E12.77304
G1 X109.650 Y45.545 E12.80993
G1 X109.820 Y45.755 E12.81539
G1 X110.120 Y46.215 E12.82649
G1 X115.110 Y55.785 E13.04455
G1 X115.220 Y56.045 E13.05025
G1 X115.400 Y56.575 E13.06156
G1 X115.590 Y57.385 E13.07837
G1 X116.870 Y65.525 E13.24486
G1 X117.140 Y67.475 E13.28463
G1 X117.180 Y68.285 E13.30102
G1 X117.110 Y69.195 E13.31946
G1 X115.350 Y79.455 E13.52978
G1 X115.140 Y80.155 E13.54455
G1 X114.830 Y80.845 E13.55983
G1 X110.040 Y89.805 E13.76511
G1 X92.840 Y116.685 E14.40987
G1 X92.560 Y117.095 E14.41990
G1 X92.400 Y117.285 E14.42492
G1 X92.070 Y117.645 E14.43479
G1 X91.510 Y118.115 E14.44956
G1 X91.100 Y118.395 E14.45959
G1 X90.670 Y118.625 E14.46945
G1 X90.210 Y118.825 E14.47958
G1 X89.510 Y119.045 E14.49440
G1 X89.270 Y119.095 E14.49936
G1 X88.540 Y119.175 E14.51420
G1 X71.450 Y119.175 E14.85949
G1 X70.720 Y119.095 E14.87433
G1 X70.480 Y119.045 E14.87928
G1 X70.000 Y118.905 E14.88938
G1 X69.540 Y118.735 E14.89929
G1 X68.890 Y118.395 E14.91411
G1 X68.480 Y118.115 E14.92414
G1 X67.920 Y117.635 E14.93904
G1 X67.580 Y117.275 E14.94905
G1 X67.140 Y116.685 E14.96392
G1 X50.350 Y90.365 E15.59469
G1 X45.930 Y82.595 E15.77530
G1 X45.510 Y81.825 E15.79302
G1 X45.300 Y81.395 E15.80269
G1 X45.130 Y80.945 E15.81241
G1 X44.920 Y80.175 E15.82853
G1 X43.290 Y72.395 E15.98914
G1 X42.920 Y70.485 E16.02845
G1 X42.840 Y69.705 E16.04429
G1 X42.810 Y68.115 E16.07642
G1 X42.850 Y67.285 E16.09321
G1 X43.950 Y58.965 E16.26277
G1 X44.050 Y58.435 E16.27367
G1 X44.210 Y57.865 E16.28563
G1 X44.410 Y57.355 E16.29670
G1 X48.520 Y48.215 E16.49918
G1 X48.790 Y47.725 E16.51048
G1 X49.120 Y47.275 E16.52176
G1 X50.470 Y45.730 E16.56320
G1 X50.510 Y45.685 E16.56443
G1 F4500.000 E15.56443
G92 E0
G1 X76.594 Y39.746 F6000.000
G1 F4500.000 E1.00000
G1 X77.224 Y38.656 F1350.000 E1.02543
G1 X78.188 Y37.847 E1.05086
G1 X79.371 Y37.416 E1.07630
G1 X80.630 Y37.416 E1.10173
G1 X81.813 Y37.846 E1.12716
G1 X82.777 Y38.656 E1.15259
G1 X83.406 Y39.746 E1.17803
G1 X83.625 Y40.985 E1.20346
G1 X83.406 Y42.225 E1.22889
G1 X82.777 Y43.315 E1.25433
G1 X81.813 Y44.124 E1.27976
G1 X80.630 Y44.555 E1.30519
G1 X79.371 Y44.555 E1.33062
G1 X78.188 Y44.124 E1.35606
G1 X77.224 Y43.315 E1.38149
G1 X76.594 Y42.225 E1.40692
G1 X76.376 Y40.985 E1.43235
G1 X76.584 Y39.806 E1.45656
G1 X76.594 Y39.746 E1.45779
G1 X76.981 Y39.886 F6000.000
G1 X77.539 Y38.920 F1350.000 E1.48033
G1 X78.394 Y38.203 E1.50288
G1 X79.442 Y37.821 E1.52543
G1 X80.558 Y37.821 E1.54797
G1 X81.607 Y38.203 E1.57052
G1 X82.462 Y38.920 E1.59307
G1 X83.020 Y39.886 E1.61562
G1 X83.214 Y40.985 E1.63816
G1 X83.020 Y42.084 E1.66071
G1 X82.462 Y43.051 E1.68326
G1 X81.607 Y43.768 E1.70580
G1 X80.558 Y44.150 E1.72835
G1 X79.442 Y44.150 E1.75090
G1 X78.394 Y43.768 E1.77345
G1 X77.539 Y43.051 E1.79599
G1 X76.981 Y42.084 E1.81854
G1 X76.787 Y40.985 E1.84109
G1 X76.970 Y39.946 E1.86241
G1 X76.981 Y39.886 E1.86363
G1 F4500.000 E0.86363
G92 E0
G1 X101.571 Y78.347 F6000.000
G1 F4500.000 E1.00000
G1 X102.754 Y77.916 F1350.000 E1.02543
G1 X104.012 Y77.916 E1.05087
G1 X105.195 Y78.347 E1.07630
G1 X106.159 Y79.156 E1.10173
G1 X106.789 Y80.246 E1.12716
G1 X107.007 Y81.485 E1.15260
G1 X106.789 Y82.725 E1.17803
G1 X106.159 Y83.815 E1.20346
G1 X106.056 Y83.902 E1.20618
G1 X105.195 Y84.624 E1.22889
G1 X104.012 Y85.055 E1.25433
G1 X102.754 Y85.055 E1.27976
G1 X101.571 Y84.624 E1.30519
G1 X100.606 Y83.815 E1.33062
G1 X99.977 Y82.725 E1.35606
G1 X99.759 Y81.485 E1.38149
G1 X99.977 Y80.246 E1.40692
G1 X100.607 Y79.156 E1.43235
G1 X101.524 Y78.386 E1.45656
G1 X101.571 Y78.347 E1.45779
G1 X101.776 Y78.703 F6000.000
G1 X102.825 Y78.321 F1350.000 E1.48033
G1 X103.941 Y78.321 E1.50288
G1 X104.990 Y78.703 E1.52543
G1 X105.844 Y79.420 E1.54797
G1 X106.402 Y80.386 E1.57052
G1 X106.596 Y81.485 E1.59307
G1 X106.402 Y82.584 E1.61562
G1 X105.844 Y83.551 E1.63816
G1 X105.796 Y83.591 E1.63944
G1 X104.990 Y84.268 E1.66071
G1 X103.941 Y84.650 E1.68326
G1 X102.825 Y84.650 E1.70580
G1 X101.776 Y84.268 E1.72835
G1 X100.922 Y83.551 E1.75090
G1 X100.364 Y82.584 E1.77344
G1 X100.170 Y81.485 E1.79599
G1 X100.364 Y80.386 E1.81854
G1 X100.922 Y79.420 E1.84109
G1 X101.730 Y78.742 E1.86241
G1 X101.776 Y78.703 E1.86363
G1 F4500.000 E0.86363
G92 E0
G1 X60.242 Y81.485 F6000.000
G1 F4500.000 E1.00000
G1 X60.023 Y82.725 F1350.000 E1.02543
G1 X59.394 Y83.815 E1.05086
G1 X58.430 Y84.624 E1.07630
G1 X57.247 Y85.055 E1.10173
G1 X55.988 Y85.055 E1.12716
G1 X54.805 Y84.624 E1.15260
G1 X53.841 Y83.815 E1.17803
G1 X53.212 Y82.725 E1.20346
G1 X52.993 Y81.485 E1.22889
G1 X53.212 Y80.246 E1.25433
G1 X53.841 Y79.156 E1.27976
G1 X54.805 Y78.347 E1.30519
G1 X55.988 Y77.916 E1.33062
G1 X57.247 Y77.916 E1.35606
G1 X58.430 Y78.346 E1.38149
G1 X59.394 Y79.156 E1.40692
G1 X60.024 Y80.246 E1.43235
G1 X60.232 Y81.426 E1.45656
G1 X60.242 Y81.485 E1.45779
G1 X59.831 Y81.485 F6000.000
G1 X59.637 Y82.584 F1350.000 E1.48033
G1 X59.079 Y83.551 E1.50288
G1 X58.224 Y84.268 E1.52543
G1 X57.176 Y84.650 E1.54797
G1 X56.060 Y84.650 E1.57052
G1 X55.011 Y84.268 E1.59307
G1 X54.156 Y83.551 E1.61562
G1 X53.598 Y82.584 E1.63816
G1 X53.404 Y81.485 E1.66071
G1 X53.598 Y80.386 E1.68326
G1 X54.156 Y79.420 E1.70580
G1 X55.011 Y78.703 E1.72835
G1 X56.060 Y78.321 E1.75090
G1 X57.176 Y78.321 E1.77344
G1 X58.224 Y78.703 E1.79599
G1 X59.079 Y79.420 E1.81854
G1 X59.637 Y80.386 E1.84109
G1 X59.820 Y81.426 E1.86241
G1 X59.831 Y81.485 E1.86363
G1 F4500.000 E0.86363
G92 E0
G1 X73.480 Y105.450 F6000.000
G1 F4500.000 E1.00000
G1 X86.520 Y105.450 F1350.000 E1.26346
G1 X86.520 Y111.500 E1.38570
G1 X73.480 Y111.500 E1.64917
G1 X73.480 Y105.511 E1.77018
G1 X73.480 Y105.450 E1.77141
G1 X73.885 Y105.855 F6000.000
G1 X86.115 Y105.855 F1350.000 E2.01851
G1 X86.115 Y111.095 E2.12438
G1 X73.885 Y111.095 E2.37148
G1 X73.885 Y105.916 E2.47613
G1 X73.885 Y105.855 E2.47736
G1 X74.290 Y106.260 F6000.000
G1 X85.710 Y106.260 F1350.000 E2.70809
G1 X85.710 Y110.690 E2.79760
G1 X74.290 Y110.690 E3.02834
G1 X74.290 Y106.320 E3.11662
G1 X74.290 Y106.260 E3.11785
G1 F4500.000 E2.11785
G92 E0
G1 X72.520 Y112.965 F6000.000
G1 F4500.000 E1.00000
G1 X72.520 Y98.179 F1350.000 E1.29876
G1 X62.965 Y93.849 E1.51071
G1 X55.828 Y87.346 E1.70580
G1 X54.444 Y84.924 E1.76216
G1 X55.917 Y85.460 E1.79382
G1 X57.318 Y85.460 E1.82214
G1 X58.635 Y84.980 E1.85046
G1 X59.709 Y84.079 E1.87878
G1 X60.410 Y82.866 E1.90709
G1 X60.653 Y81.485 E1.93541
G1 X60.410 Y80.105 E1.96373
G1 X59.709 Y78.891 E1.99205
G1 X58.635 Y77.990 E2.02037
G1 X57.318 Y77.511 E2.04869
G1 X55.917 Y77.511 E2.07700
G1 X54.600 Y77.990 E2.10532
G1 X53.526 Y78.891 E2.13364
G1 X52.825 Y80.105 E2.16196
G1 X52.558 Y81.622 E2.19307
G1 X51.040 Y78.958 E2.25502
G1 X49.083 Y69.587 E2.44844
G1 X49.056 Y69.436 E2.45153
G1 X49.022 Y68.042 E2.47971
G1 X50.102 Y59.907 E2.64553
G1 X54.047 Y51.088 E2.84072
G1 X59.683 Y44.836 E3.01079
G1 X61.797 Y48.496 E3.09619
G1 X72.224 Y42.476 E3.33945
G1 X70.112 Y38.819 E3.42476
G1 X78.466 Y37.085 E3.59714
G1 X76.909 Y38.391 E3.63821
G1 X76.208 Y39.605 E3.66653
G1 X75.965 Y40.985 E3.69484
G1 X76.208 Y42.366 E3.72316
G1 X76.909 Y43.579 E3.75148
G1 X77.982 Y44.480 E3.77980
G1 X79.299 Y44.960 E3.80812
G1 X80.701 Y44.960 E3.83644
G1 X82.018 Y44.480 E3.86476
G1 X83.092 Y43.579 E3.89307
G1 X83.793 Y42.366 E3.92139
G1 X84.036 Y40.985 E3.94971
G1 X83.793 Y39.605 E3.97803
G1 X83.092 Y38.391 E4.00635
G1 X81.945 Y37.429 E4.03659
G1 X88.623 Y38.238 E4.17250
G1 X97.631 Y42.520 E4.37401
G1 X104.796 Y49.427 E4.57510
G1 X109.421 Y58.317 E4.77758
G1 X110.968 Y68.177 E4.97923
G1 X109.297 Y78.020 E5.18094
G1 X107.424 Y81.514 E5.26104
G1 X107.175 Y80.105 E5.28994
G1 X106.475 Y78.891 E5.31826
G1 X105.401 Y77.990 E5.34658
G1 X104.084 Y77.511 E5.37490
G1 X102.682 Y77.511 E5.40322
G1 X101.365 Y77.990 E5.43154
G1 X100.291 Y78.891 E5.45985
G1 X99.591 Y80.105 E5.48817
G1 X99.347 Y81.485 E5.51649
G1 X99.591 Y82.866 E5.54481
G1 X100.291 Y84.079 E5.57312
G1 X101.365 Y84.980 E5.60144
G1 X102.682 Y85.460 E5.62976
G1 X104.084 Y85.460 E5.65808
G1 X105.605 Y84.906 E5.69080
G1 X104.575 Y86.829 E5.73488
G1 X97.310 Y93.665 E5.93643
G1 X87.480 Y98.183 E6.15500
G1 X87.480 Y112.965 E6.45368
G1 X72.581 Y112.965 E6.75471
G1 X72.520 Y112.965 E6.75594
G1 X72.115 Y113.370 F6000.000
G1 X72.115 Y98.440 F1350.000 E7.05760
G1 X62.740 Y94.191 E7.26557
G1 X55.504 Y87.595 E7.46340
G1 X50.655 Y79.097 E7.66109
G1 X48.685 Y69.664 E7.85578
G1 X48.652 Y69.477 E7.85962
G1 X48.616 Y68.020 E7.88907
G1 X49.710 Y59.793 E8.05675
G1 X53.704 Y50.864 E8.25437
G1 X59.756 Y44.151 E8.43700
G1 X61.945 Y47.943 E8.52547
G1 X71.671 Y42.328 E8.75236
G1 X69.482 Y38.537 E8.84081
G1 X78.640 Y36.635 E9.02979
G1 X88.663 Y37.826 E9.23372
