; generated by Slic3r 0.9.7 on 2014-12-30 at 12:11:24

; layer_height = 0.3
; perimeters = 3
; top_solid_layers = 4
; bottom_solid_layers = 3
; fill_density = 0.2
; perimeter_speed = 30
; infill_speed = 30
; travel_speed = 100
; scale = 1
; nozzle_diameter = .35
; filament_diameter = 1.75
; extrusion_multiplier = 0.8
; perimeters extrusion width = 0.42mm
; infill extrusion width = 0.42mm
; first layer extrusion width = 0.42mm

M107
M190 S95 ; wait for bed temperature to be reached
M104 S195 ; set temperature
G21; set mm units
G28 ;home all axis
G90; set absolute coordinates
G92 E0; reset extruder distance
;M104 S195; set extruder temp and start heating
G1 Z5 F300 ;move platform down 5mm
G1 X145 Y145 F3000 ; move to back right corner
;M109 S195; wait for extruder temp to be reached
G1 Z50% F200 ;move platform close to nozzle
;G1 E7; extruder anchor
G1 F3000; Set Feed rate for first move
G92 E0; reset extrusion distance
G90 ; use absolute coordinates
G21 ; set units to millimeters
G92 E0
M82 ; use absolute distances for extrusion
G1 F4500.000 E-1.00000
G92 E0
G1 Z0.150 F6000.000
G1 X55.169 Y46.330
G1 F4500.000 E1.00000
G1 X55.569 Y45.920 F1350.000 E1.01157
G1 X55.999 Y45.540 E1.02317
G1 X56.469 Y45.210 E1.03477
G1 X65.749 Y39.860 E1.25119
G1 X66.279 Y39.590 E1.26321
G1 X66.549 Y39.480 E1.26910
G1 X67.119 Y39.280 E1.28131
G1 X68.989 Y38.830 E1.32017
G1 X77.239 Y37.150 E1.49028
G1 X78.139 Y37.030 E1.50862
G1 X78.499 Y37.010 E1.51591
G1 X79.179 Y37.010 E1.52964
G1 X80.959 Y37.140 E1.56570
G1 X89.309 Y38.240 E1.73587
G1 X89.859 Y38.340 E1.74716
G1 X90.609 Y38.510 E1.76270
G1 X91.269 Y38.700 E1.77658
G1 X92.269 Y39.070 E1.79812
G1 X92.859 Y39.330 E1.81115
G1 X100.719 Y43.260 E1.98870
G1 X101.919 Y43.960 E2.01677
G1 X102.889 Y44.670 E2.04106
G1 X103.479 Y45.200 E2.05708
G1 X109.509 Y51.340 E2.23096
G1 X110.589 Y52.510 E2.26313
G1 X111.149 Y53.210 E2.28124
G1 X111.579 Y53.930 E2.29818
G1 X116.109 Y63.430 E2.51083
G1 X116.339 Y63.960 E2.52250
G1 X116.529 Y64.500 E2.53407
G1 X116.659 Y65.060 E2.54568
G1 X116.749 Y65.650 E2.55774
G1 X116.959 Y67.320 E2.59175
G1 X117.949 Y75.980 E2.76786
G1 X117.949 Y76.860 E2.78564
G1 X117.849 Y77.770 E2.80414
G1 X117.479 Y79.720 E2.84424
G1 X115.649 Y87.940 E3.01438
G1 X115.479 Y88.560 E3.02737
G1 X115.269 Y89.130 E3.03965
G1 X114.789 Y90.110 E3.06169
G1 X113.979 Y91.540 E3.09490
G1 X109.579 Y98.720 E3.26504
G1 X109.159 Y99.320 E3.27984
G1 X108.909 Y99.640 E3.28804
G1 X108.409 Y100.190 E3.30306
G1 X108.039 Y100.560 E3.31363
G1 X107.079 Y101.430 E3.33981
G1 X100.349 Y106.980 E3.51606
G1 X99.769 Y107.410 E3.53065
G1 X99.289 Y107.720 E3.54219
G1 X98.699 Y108.060 E3.55595
G1 X97.979 Y108.380 E3.57187
G1 X88.069 Y112.080 E3.78559
G1 X87.379 Y112.270 E3.80005
G1 X87.079 Y112.320 E3.80620
G1 X86.129 Y112.410 E3.82548
G1 X75.799 Y112.680 E4.03426
G1 X75.309 Y112.680 E4.04416
G1 X74.749 Y112.630 E4.05552
G1 X74.049 Y112.500 E4.06991
G1 X73.619 Y112.380 E4.07893
G1 X63.759 Y109.270 E4.28782
G1 X63.109 Y109.020 E4.30189
G1 X62.479 Y108.710 E4.31607
G1 X61.059 Y107.820 E4.34993
G1 X54.289 Y102.810 E4.52010
G1 X53.179 Y101.870 E4.54949
G1 X52.829 Y101.540 E4.55921
G1 X52.179 Y100.850 E4.57836
G1 X51.489 Y99.970 E4.60095
G1 X46.719 Y93.040 E4.77093
G1 X45.919 Y91.720 E4.80212
G1 X45.459 Y90.830 E4.82236
G1 X45.139 Y90.050 E4.83939
G1 X44.949 Y89.470 E4.85172
G1 X42.699 Y81.360 E5.02177
G1 X42.269 Y79.410 E5.06212
G1 X42.179 Y78.650 E5.07758
G1 X42.149 Y78.190 E5.08689
G1 X42.149 Y77.410 E5.10265
G1 X42.679 Y68.720 E5.27856
G1 X42.899 Y66.740 E5.31881
G1 X42.999 Y66.280 E5.32832
G1 X43.149 Y65.750 E5.33945
G1 X43.379 Y65.100 E5.35338
G1 X46.649 Y57.190 E5.52631
G1 X47.329 Y55.650 E5.56033
G1 X47.849 Y54.710 E5.58203
G1 X48.349 Y54.050 E5.59876
G1 X49.619 Y52.590 E5.63786
G1 X55.128 Y46.375 E5.80566
G1 X55.169 Y46.330 E5.80689
G1 X55.469 Y46.600 F6000.000
G1 X55.909 Y46.150 F1350.000 E5.81960
G1 X56.649 Y45.580 E5.83848
G1 X65.949 Y40.220 E6.05535
G1 X66.249 Y40.060 E6.06222
G1 X66.859 Y39.790 E6.07570
G1 X67.499 Y39.600 E6.08919
G1 X68.879 Y39.270 E6.11785
G1 X77.319 Y37.550 E6.29188
G1 X78.159 Y37.440 E6.30900
G1 X78.519 Y37.420 E6.31629
G1 X79.379 Y37.430 E6.33366
G1 X80.909 Y37.540 E6.36466
G1 X89.259 Y38.640 E6.53482
G1 X90.179 Y38.820 E6.55376
G1 X90.519 Y38.900 E6.56082
G1 X91.129 Y39.080 E6.57367
G1 X92.129 Y39.450 E6.59521
G1 X92.679 Y39.690 E6.60734
G1 X100.219 Y43.450 E6.77757
G1 X101.059 Y43.920 E6.79702
G1 X101.709 Y44.310 E6.81233
G1 X102.469 Y44.850 E6.83117
G1 X103.189 Y45.480 E6.85050
G1 X109.089 Y51.490 E7.02066
G1 X110.349 Y52.850 E7.05812
G1 X110.889 Y53.550 E7.07598
G1 X111.049 Y53.800 E7.08198
G1 X111.319 Y54.320 E7.09382
G1 X115.749 Y63.610 E7.30176
G1 X115.959 Y64.100 E7.31253
G1 X116.139 Y64.610 E7.32346
G1 X116.299 Y65.400 E7.33975
G1 X116.559 Y67.440 E7.38130
G1 X117.539 Y76.010 E7.55558
G1 X117.559 Y76.420 E7.56387
G1 X117.539 Y76.990 E7.57540
G1 X117.449 Y77.690 E7.58965
G1 X117.079 Y79.630 E7.62956
G1 X115.249 Y87.850 E7.79970
G1 X115.089 Y88.430 E7.81186
G1 X114.889 Y88.970 E7.82350
G1 X114.519 Y89.760 E7.84112
G1 X113.739 Y91.150 E7.87332
G1 X109.229 Y98.510 E8.04773
G1 X108.839 Y99.070 E8.06151
G1 X108.589 Y99.390 E8.06972
G1 X108.129 Y99.910 E8.08375
G1 X107.769 Y100.260 E8.09389
G1 X106.609 Y101.300 E8.12537
G1 X100.099 Y106.670 E8.29587
G1 X99.549 Y107.070 E8.30961
G1 X99.069 Y107.380 E8.32116
G1 X98.519 Y107.700 E8.33402
G1 X97.839 Y108.000 E8.34903
G1 X88.159 Y111.620 E8.55784
G1 X87.939 Y111.700 E8.56257
G1 X87.299 Y111.870 E8.57595
G1 X86.959 Y111.930 E8.58292
G1 X86.119 Y112.010 E8.59997
G1 X75.789 Y112.280 E8.80876
G1 X74.979 Y112.250 E8.82513
G1 X74.349 Y112.150 E8.83802
G1 X73.939 Y112.050 E8.84655
G1 X63.879 Y108.880 E9.05966
G1 X63.269 Y108.650 E9.07283
G1 X62.439 Y108.220 E9.09171
G1 X61.709 Y107.770 E9.10904
G1 X61.299 Y107.490 E9.11907
G1 X54.529 Y102.480 E9.28924
G1 X53.439 Y101.560 E9.31806
G1 X52.959 Y101.110 E9.33135
G1 X52.359 Y100.430 E9.34967
G1 X51.819 Y99.740 E9.36738
G1 X47.049 Y92.810 E9.53735
G1 X46.829 Y92.470 E9.54554
G1 X46.119 Y91.250 E9.57406
G1 X45.829 Y90.670 E9.58716
G1 X45.519 Y89.910 E9.60374
G1 X45.339 Y89.360 E9.61543
G1 X43.009 Y80.940 E9.79195
G1 X42.669 Y79.340 E9.82500
G1 X42.579 Y78.630 E9.83946
G1 X42.549 Y78.170 E9.84877
G1 X42.549 Y77.440 E9.86352
G1 X43.059 Y69.040 E10.03355
G1 X43.269 Y67.020 E10.07458
G1 X43.339 Y66.590 E10.08339
G1 X43.539 Y65.860 E10.09868
G1 X43.749 Y65.260 E10.11152
G1 X46.969 Y57.480 E10.28164
G1 X47.709 Y55.810 E10.31855
G1 X48.189 Y54.940 E10.33862
G1 X48.659 Y54.320 E10.35434
G1 X49.959 Y52.820 E10.39445
G1 X55.428 Y46.645 E10.56111
G1 X55.469 Y46.600 E10.56234
G1 X55.769 Y46.870 F6000.000
G1 X55.969 Y46.650 F1350.000 E10.56835
G1 X56.399 Y46.260 E10.58007
G1 X56.629 Y46.080 E10.58598
G1 X57.119 Y45.770 E10.59769
G1 X66.149 Y40.570 E10.80823
G1 X66.429 Y40.420 E10.81464
G1 X66.999 Y40.170 E10.82722
G1 X67.589 Y39.990 E10.83968
G1 X69.149 Y39.620 E10.87207
G1 X77.399 Y37.940 E11.04218
G1 X78.179 Y37.840 E11.05807
G1 X78.539 Y37.820 E11.06536
G1 X79.139 Y37.820 E11.07748
G1 X80.859 Y37.940 E11.11231
G1 X89.209 Y39.040 E11.28248
G1 X90.089 Y39.220 E11.30063
G1 X90.999 Y39.460 E11.31964
G1 X91.989 Y39.830 E11.34100
G1 X92.499 Y40.050 E11.35222
G1 X100.039 Y43.810 E11.52245
G1 X100.859 Y44.270 E11.54145
G1 X101.499 Y44.660 E11.55659
G1 X102.209 Y45.160 E11.57413
G1 X102.899 Y45.760 E11.59261
G1 X108.799 Y51.770 E11.76277
G1 X109.989 Y53.060 E11.79823
G1 X110.399 Y53.550 E11.81114
G1 X110.699 Y54.010 E11.82224
G1 X110.939 Y54.470 E11.83272
G1 X115.419 Y63.860 E12.04292
G1 X115.609 Y64.300 E12.05261
G1 X115.699 Y64.570 E12.05836
G1 X115.779 Y64.830 E12.06385
G1 X115.889 Y65.380 E12.07519
G1 X116.159 Y67.480 E12.11797
G1 X117.139 Y76.040 E12.29204
G1 X117.139 Y76.810 E12.30760
G1 X117.049 Y77.620 E12.32407
G1 X116.719 Y79.400 E12.36065
G1 X114.859 Y87.760 E12.53368
G1 X114.709 Y88.300 E12.54501
G1 X114.519 Y88.820 E12.55619
G1 X114.089 Y89.710 E12.57616
G1 X113.389 Y90.950 E12.60493
G1 X108.889 Y98.290 E12.77889
G1 X108.519 Y98.820 E12.79195
G1 X108.269 Y99.140 E12.80015
G1 X107.839 Y99.620 E12.81317
G1 X107.499 Y99.960 E12.82289
G1 X106.539 Y100.830 E12.84906
G1 X99.839 Y106.360 E13.02459
G1 X99.329 Y106.730 E13.03732
G1 X98.849 Y107.040 E13.04886
G1 X98.339 Y107.330 E13.06072
G1 X97.689 Y107.620 E13.07510
G1 X87.819 Y111.310 E13.28799
G1 X87.419 Y111.430 E13.29643
G1 X87.009 Y111.510 E13.30487
G1 X86.109 Y111.600 E13.32315
G1 X75.779 Y111.870 E13.53193
G1 X75.309 Y111.870 E13.54143
G1 X74.729 Y111.810 E13.55321
G1 X74.049 Y111.660 E13.56728
G1 X63.999 Y108.490 E13.78019
G1 X63.429 Y108.280 E13.79247
G1 X62.879 Y108.000 E13.80494
G1 X61.919 Y107.420 E13.82760
G1 X61.539 Y107.160 E13.83690
G1 X54.769 Y102.150 E14.00706
G1 X53.699 Y101.250 E14.03531
G1 X53.399 Y100.970 E14.04361
G1 X52.789 Y100.320 E14.06162
G1 X52.159 Y99.510 E14.08235
G1 X47.389 Y92.580 E14.25233
G1 X47.179 Y92.260 E14.26006
G1 X46.479 Y91.060 E14.28813
G1 X46.199 Y90.510 E14.30060
G1 X45.899 Y89.760 E14.31692
G1 X45.729 Y89.250 E14.32778
G1 X43.479 Y81.140 E14.49783
G1 X43.069 Y79.260 E14.53671
G1 X42.989 Y78.600 E14.55014
G1 X42.959 Y78.140 E14.55945
G1 X42.949 Y77.460 E14.57319
G1 X43.459 Y69.060 E14.74322
G1 X43.669 Y67.080 E14.78345
G1 X43.739 Y66.680 E14.79166
G1 X43.929 Y65.970 E14.80651
G1 X44.129 Y65.410 E14.81852
G1 X47.349 Y57.630 E14.98864
G1 X48.079 Y55.980 E15.02510
G1 X48.519 Y55.160 E15.04390
G1 X48.959 Y54.580 E15.05861
G1 X50.229 Y53.120 E15.09770
G1 X55.728 Y46.915 E15.26522
G1 X55.769 Y46.870 E15.26645
G1 F4500.000 E14.26645
G92 E0
G1 X77.224 Y45.660 F6000.000
G1 F4500.000 E1.00000
G1 X78.188 Y44.851 F1350.000 E1.02543
G1 X79.371 Y44.421 E1.05087
G1 X80.629 Y44.421 E1.07630
G1 X81.812 Y44.851 E1.10173
G1 X82.777 Y45.660 E1.12716
G1 X83.406 Y46.751 E1.15260
G1 X83.624 Y47.990 E1.17803
G1 X83.406 Y49.230 E1.20346
G1 X83.339 Y49.346 E1.20618
G1 X82.776 Y50.320 E1.22889
G1 X81.812 Y51.129 E1.25433
G1 X80.629 Y51.560 E1.27976
G1 X79.371 Y51.560 E1.30519
G1 X78.188 Y51.129 E1.33062
G1 X77.223 Y50.320 E1.35606
G1 X76.594 Y49.230 E1.38149
G1 X76.376 Y47.990 E1.40692
G1 X76.594 Y46.750 E1.43235
G1 X77.193 Y45.713 E1.45656
G1 X77.224 Y45.660 E1.45779
G1 X77.539 Y45.925 F6000.000
G1 X78.393 Y45.207 F1350.000 E1.48033
G1 X79.442 Y44.826 E1.50288
G1 X80.558 Y44.826 E1.52543
G1 X81.607 Y45.207 E1.54798
G1 X82.461 Y45.925 E1.57052
G1 X83.019 Y46.891 E1.59307
G1 X83.213 Y47.990 E1.61562
G1 X83.019 Y49.089 E1.63816
G1 X82.988 Y49.144 E1.63944
G1 X82.461 Y50.056 E1.66071
G1 X81.607 Y50.773 E1.68326
G1 X80.558 Y51.155 E1.70580
G1 X79.442 Y51.155 E1.72835
G1 X78.393 Y50.773 E1.75090
G1 X77.539 Y50.056 E1.77345
G1 X76.981 Y49.089 E1.79599
G1 X76.787 Y47.990 E1.81854
G1 X76.981 Y46.891 E1.84109
G1 X77.508 Y45.977 E1.86241
G1 X77.539 Y45.925 E1.86363
G1 F4500.000 E0.86363
G92 E0
G1 X101.570 Y85.351 F6000.000
G1 F4500.000 E1.00000
G1 X102.753 Y84.921 F1350.000 E1.02543
G1 X104.012 Y84.921 E1.05087
G1 X105.195 Y85.351 E1.07630
G1 X106.159 Y86.160 E1.10173
G1 X106.789 Y87.251 E1.12716
G1 X107.007 Y88.490 E1.15260
G1 X106.789 Y89.730 E1.17803
G1 X106.159 Y90.820 E1.20346
G1 X105.195 Y91.629 E1.22889
G1 X104.012 Y92.060 E1.25433
G1 X102.753 Y92.060 E1.27976
G1 X101.570 Y91.629 E1.30519
G1 X100.606 Y90.820 E1.33062
G1 X99.977 Y89.730 E1.35606
G1 X99.758 Y88.490 E1.38149
G1 X99.977 Y87.251 E1.40692
G1 X100.606 Y86.160 E1.43235
G1 X101.524 Y85.390 E1.45656
G1 X101.570 Y85.351 E1.45779
G1 X101.776 Y85.707 F6000.000
G1 X102.825 Y85.326 F1350.000 E1.48033
G1 X103.941 Y85.326 E1.50288
G1 X104.989 Y85.707 E1.52543
G1 X105.844 Y86.425 E1.54798
G1 X106.402 Y87.391 E1.57052
G1 X106.596 Y88.490 E1.59307
G1 X106.402 Y89.589 E1.61562
G1 X106.371 Y89.644 E1.61689
G1 X105.844 Y90.556 E1.63816
G1 X104.989 Y91.273 E1.66071
G1 X103.941 Y91.655 E1.68326
G1 X102.825 Y91.655 E1.70580
G1 X101.776 Y91.273 E1.72835
G1 X100.921 Y90.556 E1.75090
G1 X100.363 Y89.589 E1.77345
G1 X100.169 Y88.490 E1.79599
G1 X100.363 Y87.391 E1.81854
G1 X100.921 Y86.425 E1.84109
G1 X101.730 Y85.746 E1.86241
G1 X101.776 Y85.707 E1.86363
G1 F4500.000 E0.86363
G92 E0
G1 X60.242 Y88.490 F6000.000
G1 F4500.000 E1.00000
G1 X60.023 Y89.730 F1350.000 E1.02543
G1 X59.394 Y90.820 E1.05087
G1 X58.430 Y91.629 E1.07630
G1 X57.247 Y92.060 E1.10173
G1 X55.988 Y92.060 E1.12716
G1 X54.805 Y91.629 E1.15260
G1 X53.841 Y90.820 E1.17803
G1 X53.211 Y89.730 E1.20346
G1 X52.993 Y88.490 E1.22889
G1 X53.211 Y87.250 E1.25433
G1 X53.841 Y86.160 E1.27976
G1 X54.805 Y85.351 E1.30519
G1 X55.988 Y84.921 E1.33062
G1 X57.247 Y84.921 E1.35606
G1 X58.430 Y85.351 E1.38149
G1 X59.394 Y86.160 E1.40692
G1 X60.023 Y87.251 E1.43235
G1 X60.231 Y88.430 E1.45656
G1 X60.242 Y88.490 E1.45779
G1 X59.831 Y88.490 F6000.000
G1 X59.637 Y89.589 F1350.000 E1.48033
G1 X59.079 Y90.556 E1.50288
G1 X58.224 Y91.273 E1.52543
G1 X57.175 Y91.655 E1.54797
G1 X56.059 Y91.655 E1.57052
G1 X55.011 Y91.273 E1.59307
G1 X54.156 Y90.556 E1.61562
G1 X53.598 Y89.589 E1.63816
G1 X53.404 Y88.490 E1.66071
G1 X53.598 Y87.391 E1.68326
G1 X54.156 Y86.425 E1.70580
G1 X55.011 Y85.707 E1.72835
G1 X56.059 Y85.326 E1.75090
G1 X57.175 Y85.326 E1.77345
G1 X58.224 Y85.707 E1.79599
G1 X59.079 Y86.425 E1.81854
G1 X59.637 Y87.391 E1.84109
G1 X59.820 Y88.430 E1.86241
G1 X59.831 Y88.490 E1.86363
G1 X60.617 Y88.693 F6000.000
G1 X60.653 Y88.490 F1350.000 E1.86779
G1 X60.410 Y87.110 E1.89611
G1 X59.709 Y85.896 E1.92443
G1 X58.635 Y84.995 E1.95275
G1 X57.318 Y84.516 E1.98107
G1 X55.917 Y84.516 E2.00938
G1 X54.599 Y84.995 E2.03770
G1 X53.526 Y85.896 E2.06602
G1 X52.825 Y87.110 E2.09434
G1 X52.505 Y88.924 E2.13155
G1 X51.919 Y88.055 E2.15273
G1 X49.196 Y78.207 E2.35917
G1 X49.827 Y68.009 E2.56560
G1 X53.734 Y58.582 E2.77178
G1 X59.690 Y51.852 E2.95335
G1 X61.797 Y55.501 E3.03847
G1 X72.223 Y49.481 E3.28173
G1 X70.115 Y45.828 E3.36695
G1 X78.406 Y44.140 E3.53790
G1 X76.908 Y45.396 E3.57738
G1 X76.208 Y46.610 E3.60570
G1 X75.964 Y47.990 E3.63402
G1 X76.208 Y49.370 E3.66234
G1 X76.908 Y50.584 E3.69065
G1 X77.982 Y51.485 E3.71897
G1 X79.299 Y51.965 E3.74729
G1 X80.701 Y51.965 E3.77561
G1 X82.018 Y51.485 E3.80393
G1 X83.092 Y50.584 E3.83225
G1 X83.792 Y49.370 E3.86056
G1 X84.036 Y47.990 E3.88888
G1 X83.792 Y46.610 E3.91720
G1 X83.092 Y45.396 E3.94552
G1 X81.941 Y44.431 E3.97586
G1 X89.073 Y45.376 E4.12122
G1 X98.206 Y49.933 E4.32743
G1 X105.357 Y57.211 E4.53358
G1 X109.768 Y66.456 E4.74055
G1 X110.927 Y76.607 E4.94697
G1 X108.719 Y86.582 E5.15340
G1 X107.449 Y88.664 E5.20267
G1 X107.175 Y87.110 E5.23455
G1 X106.474 Y85.896 E5.26287
G1 X105.401 Y84.995 E5.29119
G1 X104.084 Y84.516 E5.31951
G1 X102.682 Y84.516 E5.34783
G1 X101.365 Y84.995 E5.37614
G1 X100.291 Y85.896 E5.40446
G1 X99.590 Y87.110 E5.43278
G1 X99.347 Y88.490 E5.46110
G1 X99.590 Y89.870 E5.48942
G1 X100.291 Y91.084 E5.51774
G1 X101.365 Y91.985 E5.54605
G1 X102.682 Y92.465 E5.57437
G1 X104.083 Y92.465 E5.60269
G1 X105.418 Y91.979 E5.63138
G1 X103.385 Y95.297 E5.71000
G1 X95.507 Y101.799 E5.91638
G1 X85.908 Y105.388 E6.12344
G1 X75.689 Y105.655 E6.32998
G1 X65.911 Y102.572 E6.53714
G1 X57.752 Y96.534 E6.74220
G1 X57.698 Y96.481 E6.74374
G1 X54.612 Y91.990 E6.85383
G1 X55.916 Y92.465 E6.88188
G1 X57.318 Y92.465 E6.91020
G1 X58.635 Y91.985 E6.93852
G1 X59.709 Y91.084 E6.96683
G1 X60.410 Y89.870 E6.99515
G1 X60.607 Y88.753 E7.01808
G1 X60.617 Y88.693 E7.01931
G1 F4500.000 E6.01931
G92 E0
G1 X57.386 Y96.742 F6000.000
G1 F4500.000 E1.00000
G1 X51.607 Y88.332 F1350.000 E1.20618
G1 X51.540 Y88.205 E1.20908
G1 X48.814 Y78.371 E1.41525
G1 X48.789 Y78.230 E1.41815
G1 X49.432 Y67.903 E1.62721
