; generated by Slic3r 0.9.7 on 2014-12-23 at 20:38:05

; layer_height = 0.3
; perimeters = 3
; top_solid_layers = 4
; bottom_solid_layers = 3
; fill_density = 0.2
; perimeter_speed = 30
; infill_speed = 30
; travel_speed = 100
; scale = 1
; nozzle_diameter = .35
; filament_diameter = 1.75
; extrusion_multiplier = 0.8
; perimeters extrusion width = 0.42mm
; infill extrusion width = 0.42mm
; first layer extrusion width = 0.42mm

M107
M190 S95 ; wait for bed temperature to be reached
M104 S195 ; set temperature
G21; set mm units
G28 ;home all axis
G90; set absolute coordinates
G92 E0; reset extruder distance
;M104 S195; set extruder temp and start heating
G1 Z5 F300 ;move platform down 5mm
G1 X145 Y145 F3000 ; move to back right corner
;M109 S195; wait for extruder temp to be reached
G1 Z50% F200 ;move platform close to nozzle
;G1 E7; extruder anchor
G1 F3000; Set Feed rate for first move
G92 E0; reset extrusion distance
G90 ; use absolute coordinates
G21 ; set units to millimeters
G92 E0
M82 ; use absolute distances for extrusion
G1 F4500.000 E-1.00000
G92 E0
G1 Z0.150 F6000.000
G1 X49.780 Y47.620
G1 F4500.000 E1.00000
G1 X56.240 Y41.890 F1350.000 E1.17447
G1 X56.470 Y41.690 E1.18062
G1 X56.950 Y41.340 E1.19263
G1 X57.470 Y41.040 E1.20476
G1 X65.120 Y37.030 E1.37927
G1 X65.680 Y36.810 E1.39142
G1 X66.260 Y36.630 E1.40369
G1 X74.350 Y34.640 E1.57202
G1 X74.930 Y34.530 E1.58395
G1 X75.530 Y34.470 E1.59613
G1 X84.460 Y34.470 E1.77656
G1 X84.760 Y34.490 E1.78263
G1 X85.640 Y34.640 E1.80067
G1 X93.730 Y36.630 E1.96899
G1 X94.020 Y36.710 E1.97507
G1 X94.590 Y36.910 E1.98728
G1 X95.140 Y37.170 E1.99957
G1 X102.520 Y41.040 E2.16794
G1 X103.040 Y41.340 E2.18006
G1 X103.520 Y41.690 E2.19207
G1 X103.750 Y41.890 E2.19823
G1 X109.990 Y47.420 E2.36669
G1 X110.420 Y47.840 E2.37883
G1 X110.810 Y48.290 E2.39086
G1 X115.890 Y55.650 E2.57155
G1 X116.310 Y56.450 E2.58980
G1 X119.370 Y64.520 E2.76418
G1 X119.470 Y64.800 E2.77019
G1 X119.630 Y65.360 E2.78196
G1 X119.730 Y65.940 E2.79385
G1 X119.880 Y67.130 E2.81808
G1 X120.740 Y74.240 E2.96278
G1 X120.780 Y74.840 E2.97493
G1 X120.770 Y75.440 E2.98706
G1 X120.740 Y75.740 E2.99315
G1 X119.730 Y84.020 E3.16168
G1 X119.630 Y84.610 E3.17377
G1 X119.560 Y84.900 E3.17980
G1 X119.370 Y85.470 E3.19194
G1 X116.420 Y93.260 E3.36024
G1 X116.180 Y93.810 E3.37236
G1 X115.890 Y94.340 E3.38457
G1 X110.810 Y101.700 E3.56525
G1 X110.420 Y102.150 E3.57729
G1 X109.990 Y102.570 E3.58943
G1 X103.750 Y108.100 E3.75789
G1 X103.520 Y108.300 E3.76405
G1 X103.040 Y108.650 E3.77605
G1 X102.520 Y108.950 E3.78818
G1 X94.870 Y112.960 E3.96269
G1 X94.310 Y113.180 E3.97485
G1 X93.730 Y113.360 E3.98712
G1 X85.640 Y115.350 E4.15544
G1 X85.060 Y115.460 E4.16737
G1 X84.460 Y115.520 E4.17956
G1 X75.530 Y115.520 E4.35998
G1 X75.230 Y115.500 E4.36606
G1 X74.350 Y115.350 E4.38409
G1 X66.260 Y113.360 E4.55242
G1 X65.670 Y113.180 E4.56488
G1 X64.840 Y112.820 E4.58316
G1 X57.480 Y108.960 E4.75108
G1 X56.960 Y108.650 E4.76331
G1 X56.470 Y108.300 E4.77547
G1 X56.240 Y108.100 E4.78163
G1 X50.000 Y102.570 E4.95009
G1 X49.570 Y102.150 E4.96224
G1 X49.180 Y101.700 E4.97427
G1 X44.100 Y94.340 E5.15495
G1 X43.680 Y93.540 E5.17321
G1 X40.620 Y85.470 E5.34759
G1 X40.430 Y84.900 E5.35973
G1 X40.300 Y84.320 E5.37174
G1 X40.260 Y84.020 E5.37785
G1 X39.250 Y75.740 E5.54638
G1 X39.210 Y75.140 E5.55853
G1 X39.220 Y74.540 E5.57066
G1 X39.250 Y74.240 E5.57675
G1 X40.260 Y65.970 E5.74508
G1 X40.360 Y65.380 E5.75717
G1 X40.430 Y65.090 E5.76320
G1 X40.620 Y64.520 E5.77534
G1 X43.570 Y56.730 E5.94364
G1 X43.680 Y56.450 E5.94972
G1 X43.950 Y55.910 E5.96192
G1 X44.270 Y55.400 E5.97408
G1 X49.180 Y48.290 E6.14866
G1 X49.738 Y47.664 E6.16560
G1 X49.780 Y47.620 E6.16683
G1 X50.060 Y47.910 F6000.000
G1 X56.510 Y42.190 F1350.000 E6.34101
G1 X56.720 Y42.010 E6.34660
G1 X57.180 Y41.680 E6.35804
G1 X57.660 Y41.390 E6.36937
G1 X65.040 Y37.520 E6.53774
G1 X65.550 Y37.290 E6.54904
G1 X66.080 Y37.100 E6.56042
G1 X74.440 Y35.040 E6.73438
G1 X74.990 Y34.930 E6.74571
G1 X75.830 Y34.870 E6.76272
G1 X84.160 Y34.870 E6.93103
G1 X85.000 Y34.930 E6.94804
G1 X85.550 Y35.040 E6.95937
G1 X93.640 Y37.030 E7.12770
G1 X94.180 Y37.190 E7.13908
G1 X94.950 Y37.520 E7.15601
G1 X102.330 Y41.390 E7.32437
G1 X102.810 Y41.680 E7.33570
G1 X103.270 Y42.010 E7.34714
G1 X103.480 Y42.190 E7.35273
G1 X109.720 Y47.720 E7.52119
G1 X110.120 Y48.110 E7.53248
G1 X110.490 Y48.540 E7.54394
G1 X115.390 Y55.630 E7.71807
G1 X115.690 Y56.110 E7.72951
G1 X115.940 Y56.610 E7.74080
G1 X118.990 Y64.660 E7.91473
G1 X119.230 Y65.450 E7.93141
G1 X119.320 Y65.990 E7.94247
G1 X119.480 Y67.210 E7.96733
G1 X120.340 Y74.290 E8.11143
G1 X120.380 Y74.850 E8.12277
G1 X120.380 Y75.130 E8.12843
G1 X120.340 Y75.690 E8.13978
G1 X119.330 Y83.970 E8.30831
G1 X119.290 Y84.250 E8.31402
G1 X119.170 Y84.800 E8.32540
G1 X118.990 Y85.330 E8.33671
G1 X116.040 Y93.120 E8.50501
G1 X115.940 Y93.380 E8.51063
G1 X115.690 Y93.880 E8.52193
G1 X115.390 Y94.360 E8.53337
G1 X110.490 Y101.450 E8.70750
G1 X110.120 Y101.880 E8.71896
G1 X109.720 Y102.270 E8.73025
G1 X103.480 Y107.800 E8.89871
G1 X103.040 Y108.150 E8.91006
G1 X102.330 Y108.600 E8.92705
G1 X94.950 Y112.470 E9.09541
G1 X94.440 Y112.700 E9.10672
G1 X93.910 Y112.890 E9.11809
G1 X85.550 Y114.950 E9.29206
G1 X85.000 Y115.060 E9.30339
G1 X84.160 Y115.120 E9.32040
G1 X75.830 Y115.120 E9.48871
G1 X74.990 Y115.060 E9.50572
G1 X74.440 Y114.950 E9.51705
G1 X66.350 Y112.960 E9.68538
G1 X66.080 Y112.890 E9.69102
G1 X65.540 Y112.700 E9.70258
G1 X65.030 Y112.460 E9.71397
G1 X57.660 Y108.600 E9.88206
G1 X57.180 Y108.310 E9.89339
G1 X56.720 Y107.980 E9.90483
G1 X56.510 Y107.800 E9.91042
G1 X50.270 Y102.270 E10.07888
G1 X49.870 Y101.880 E10.09017
G1 X49.500 Y101.450 E10.10163
G1 X44.600 Y94.360 E10.27576
G1 X44.300 Y93.880 E10.28720
G1 X44.050 Y93.380 E10.29849
G1 X41.000 Y85.330 E10.47242
G1 X40.820 Y84.800 E10.48373
G1 X40.700 Y84.250 E10.49510
G1 X40.660 Y83.970 E10.50082
G1 X39.650 Y75.690 E10.66935
G1 X39.610 Y75.130 E10.68069
G1 X39.610 Y74.850 E10.68635
G1 X39.650 Y74.290 E10.69769
G1 X40.660 Y66.020 E10.86603
G1 X40.700 Y65.740 E10.87174
G1 X40.820 Y65.190 E10.88311
G1 X41.000 Y64.660 E10.89442
G1 X43.950 Y56.870 E11.06272
G1 X44.050 Y56.610 E11.06835
G1 X44.300 Y56.110 E11.07965
G1 X44.600 Y55.630 E11.09108
G1 X49.500 Y48.540 E11.26521
G1 X50.018 Y47.954 E11.28102
G1 X50.060 Y47.910 E11.28225
G1 X50.340 Y48.200 F6000.000
G1 X56.780 Y42.490 F1350.000 E11.45614
G1 X57.180 Y42.170 E11.46649
G1 X57.850 Y41.750 E11.48247
G1 X65.230 Y37.880 E11.65084
G1 X65.700 Y37.660 E11.66132
G1 X66.450 Y37.420 E11.67723
G1 X74.540 Y35.430 E11.84556
G1 X75.050 Y35.330 E11.85606
G1 X75.570 Y35.280 E11.86661
G1 X84.420 Y35.280 E12.04542
G1 X84.940 Y35.330 E12.05598
G1 X85.450 Y35.430 E12.06648
G1 X93.540 Y37.420 E12.23480
G1 X94.290 Y37.660 E12.25071
G1 X94.760 Y37.880 E12.26120
G1 X102.140 Y41.750 E12.42956
G1 X102.810 Y42.170 E12.44554
G1 X103.210 Y42.490 E12.45589
G1 X109.450 Y48.020 E12.62435
G1 X109.650 Y48.200 E12.62979
G1 X110.000 Y48.580 E12.64023
G1 X110.320 Y49.000 E12.65089
G1 X115.060 Y55.860 E12.81936
G1 X115.330 Y56.300 E12.82979
G1 X115.570 Y56.770 E12.84046
G1 X118.610 Y64.810 E13.01412
G1 X118.770 Y65.290 E13.02435
G1 X118.920 Y66.040 E13.03980
G1 X119.080 Y67.260 E13.06466
G1 X119.940 Y74.340 E13.20876
G1 X119.970 Y74.860 E13.21928
G1 X119.940 Y75.640 E13.23505
G1 X118.930 Y83.920 E13.40359
G1 X118.840 Y84.440 E13.41425
G1 X118.700 Y84.940 E13.42474
G1 X115.570 Y93.220 E13.60359
G1 X115.330 Y93.690 E13.61425
G1 X115.060 Y94.130 E13.62468
G1 X110.320 Y100.990 E13.79315
G1 X110.000 Y101.410 E13.80382
G1 X109.830 Y101.600 E13.80897
G1 X109.450 Y101.970 E13.81969
G1 X103.210 Y107.500 E13.98815
G1 X102.810 Y107.820 E13.99850
G1 X102.140 Y108.240 E14.01447
G1 X94.760 Y112.110 E14.18284
G1 X94.290 Y112.330 E14.19332
G1 X93.540 Y112.570 E14.20923
G1 X85.450 Y114.560 E14.37756
G1 X84.940 Y114.660 E14.38806
G1 X84.420 Y114.710 E14.39862
G1 X75.570 Y114.710 E14.57742
G1 X75.050 Y114.660 E14.58798
G1 X74.540 Y114.560 E14.59848
G1 X66.450 Y112.570 E14.76681
G1 X65.940 Y112.420 E14.77755
G1 X65.450 Y112.220 E14.78824
G1 X57.850 Y108.240 E14.96158
G1 X57.400 Y107.970 E14.97218
G1 X57.180 Y107.820 E14.97756
G1 X56.780 Y107.500 E14.98791
G1 X50.540 Y101.970 E15.15637
G1 X50.340 Y101.790 E15.16180
G1 X49.990 Y101.410 E15.17224
G1 X49.670 Y100.990 E15.18291
G1 X44.930 Y94.130 E15.35138
G1 X44.660 Y93.690 E15.36181
G1 X44.420 Y93.220 E15.37247
G1 X41.380 Y85.180 E15.54614
G1 X41.210 Y84.690 E15.55662
G1 X41.060 Y83.920 E15.57247
G1 X40.050 Y75.640 E15.74100
G1 X40.020 Y75.120 E15.75153
G1 X40.050 Y74.330 E15.76750
G1 X41.060 Y66.060 E15.93583
G1 X41.150 Y65.550 E15.94630
G1 X41.290 Y65.050 E15.95679
G1 X44.420 Y56.770 E16.13563
G1 X44.660 Y56.300 E16.14630
G1 X44.930 Y55.860 E16.15673
G1 X49.670 Y49.000 E16.32520
G1 X49.990 Y48.580 E16.33586
G1 X50.298 Y48.244 E16.34508
G1 X50.340 Y48.200 E16.34630
G1 F4500.000 E15.34630
G92 E0
G1 X55.636 Y53.416 F6000.000
G1 F4500.000 E1.00000
G1 X61.510 Y48.212 F1350.000 E1.15854
G1 X68.458 Y44.565 E1.31708
G1 X76.077 Y42.688 E1.47562
G1 X83.923 Y42.688 E1.63417
G1 X91.542 Y44.565 E1.79271
G1 X98.490 Y48.212 E1.95125
G1 X104.364 Y53.416 E2.10979
G1 X105.665 Y55.301 E2.15607
G1 X108.821 Y59.873 E2.26833
G1 X111.604 Y67.210 E2.42687
G1 X112.550 Y75.000 E2.58541
G1 X111.604 Y82.790 E2.74396
G1 X108.821 Y90.127 E2.90250
G1 X104.364 Y96.584 E3.06104
G1 X98.490 Y101.788 E3.21958
G1 X91.542 Y105.435 E3.37812
G1 X89.215 Y106.008 E3.42655
G1 X83.923 Y107.312 E3.53666
G1 X76.077 Y107.312 E3.69520
G1 X68.458 Y105.435 E3.85375
G1 X61.510 Y101.788 E4.01229
G1 X55.636 Y96.584 E4.17083
G1 X54.275 Y94.612 E4.21925
G1 X51.179 Y90.127 E4.32937
G1 X48.396 Y82.790 E4.48791
G1 X47.450 Y75.000 E4.64645
G1 X48.396 Y67.210 E4.80499
G1 X51.179 Y59.873 E4.96354
G1 X55.602 Y53.466 E5.12085
G1 X55.636 Y53.416 E5.12208
G1 X55.331 Y53.145 F6000.000
G1 X61.278 Y47.876 F1350.000 E5.28261
G1 X68.313 Y44.184 E5.44313
G1 X76.027 Y42.283 E5.60366
G1 X83.973 Y42.283 E5.76419
G1 X91.687 Y44.184 E5.92472
G1 X98.722 Y47.876 E6.08525
G1 X104.669 Y53.145 E6.24578
G1 X106.059 Y55.158 E6.29520
G1 X109.183 Y59.684 E6.40631
G1 X112.000 Y67.113 E6.56683
G1 X112.958 Y75.000 E6.72736
G1 X112.000 Y82.887 E6.88789
G1 X109.183 Y90.316 E7.04842
G1 X104.669 Y96.855 E7.20895
G1 X98.722 Y102.124 E7.36948
G1 X91.687 Y105.816 E7.53001
G1 X89.312 Y106.401 E7.57942
G1 X83.973 Y107.717 E7.69053
G1 X76.027 Y107.717 E7.85106
G1 X68.313 Y105.816 E8.01159
G1 X61.278 Y102.124 E8.17212
G1 X55.331 Y96.855 E8.33265
G1 X53.941 Y94.842 E8.38207
G1 X50.817 Y90.316 E8.49318
G1 X48.000 Y82.887 E8.65370
G1 X47.042 Y75.000 E8.81423
G1 X48.000 Y67.113 E8.97476
G1 X50.817 Y59.684 E9.13529
G1 X55.296 Y53.195 E9.29459
G1 X55.331 Y53.145 E9.29582
G1 X55.025 Y52.875 F6000.000
G1 X61.046 Y47.541 F1350.000 E9.45833
G1 X68.168 Y43.803 E9.62085
G1 X75.978 Y41.878 E9.78337
G1 X84.022 Y41.878 E9.94588
G1 X91.832 Y43.803 E10.10840
G1 X98.954 Y47.541 E10.27091
G1 X104.975 Y52.875 E10.43343
G1 X106.392 Y54.928 E10.48384
G1 X109.544 Y59.494 E10.59594
G1 X112.396 Y67.015 E10.75846
G1 X113.366 Y75.000 E10.92097
G1 X112.396 Y82.985 E11.08349
G1 X109.544 Y90.506 E11.24600
G1 X104.975 Y97.125 E11.40852
G1 X98.954 Y102.459 E11.57104
G1 X91.832 Y106.197 E11.73355
G1 X89.409 Y106.795 E11.78396
G1 X84.022 Y108.122 E11.89607
G1 X75.978 Y108.122 E12.05858
G1 X68.168 Y106.197 E12.22110
G1 X61.046 Y102.459 E12.38361
G1 X55.025 Y97.125 E12.54613
G1 X53.608 Y95.072 E12.59654
G1 X50.456 Y90.506 E12.70864
G1 X47.604 Y82.985 E12.87116
G1 X46.634 Y75.000 E13.03368
G1 X47.604 Y67.015 E13.19619
G1 X50.456 Y59.494 E13.35871
G1 X54.991 Y52.924 E13.51999
G1 X55.025 Y52.875 E13.52122
G1 X55.392 Y52.700 F6000.000
G1 F4500.000 E12.52122
G92 E0
G1 X51.973 Y90.622 F6000.000
G1 F4500.000 E1.00000
G1 X64.104 Y102.754 F1350.000 E1.34761
G1 X65.313 Y103.388 E1.37527
G1 X51.214 Y89.289 E1.77926
G1 X50.863 Y88.364 E1.79930
G1 X66.522 Y104.022 E2.24798
G1 X67.730 Y104.657 E2.27564
G1 X50.512 Y87.439 E2.76900
G1 X50.161 Y86.513 E2.78905
G1 X68.862 Y105.214 E3.32490
G1 X69.624 Y105.402 E3.34080
G1 X49.810 Y85.588 E3.90855
G1 X49.460 Y84.663 E3.92860
G1 X70.387 Y105.590 E4.52823
G1 X71.149 Y105.778 E4.54414
G1 X49.109 Y83.738 E5.17567
G1 X48.758 Y82.813 E5.19572
G1 X71.911 Y105.966 E5.85915
G1 X72.673 Y106.154 E5.87505
G1 X48.605 Y82.086 E6.56469
G1 X48.526 Y81.432 E6.57803
G1 X73.436 Y106.342 E7.29179
G1 X74.198 Y106.529 E7.30769
G1 X48.447 Y80.778 E8.04556
G1 X48.367 Y80.125 E8.05890
G1 X74.960 Y106.717 E8.82088
G1 X75.722 Y106.905 E8.83679
G1 X48.288 Y79.471 E9.62289
G1 X48.208 Y78.817 E9.63623
G1 X76.428 Y107.036 E10.44481
G1 X77.002 Y107.036 E10.45645
G1 X48.129 Y78.163 E11.28377
G1 X48.050 Y77.510 E11.29711
G1 X77.576 Y107.036 E12.14316
G1 X78.151 Y107.036 E12.15480
G1 X47.970 Y76.856 E13.01958
G1 X47.891 Y76.202 E13.03292
G1 X78.725 Y107.036 E13.91643
G1 X79.299 Y107.036 E13.92807
G1 X47.812 Y75.548 E14.83031
G1 X47.732 Y74.895 E14.84365
G1 X79.874 Y107.036 E15.76463
G1 X80.448 Y107.036 E15.77626
G1 X47.789 Y74.378 E16.71206
G1 X47.851 Y73.865 E16.72251
G1 X81.022 Y107.036 E17.67298
G1 X81.597 Y107.036 E17.68462
G1 X47.914 Y73.353 E18.64976
G1 X47.976 Y72.841 E18.66022
G1 X82.171 Y107.036 E19.64004
G1 X82.745 Y107.036 E19.65168
G1 X48.038 Y72.329 E20.64618
G1 X48.100 Y71.817 E20.65663
G1 X83.320 Y107.036 E21.66580
G1 X83.894 Y107.036 E21.67743
G1 X48.162 Y71.305 E22.70128
G1 X48.224 Y70.792 E22.71173
G1 X84.376 Y106.944 E23.74762
G1 X84.837 Y106.831 E23.75723
G1 X48.287 Y70.280 E24.80454
G1 X48.349 Y69.768 E24.81499
G1 X85.298 Y106.717 E25.87372
G1 X85.759 Y106.604 E25.88333
G1 X48.411 Y69.256 E26.95348
G1 X48.473 Y68.744 E26.96393
G1 X86.219 Y106.490 E28.04550
G1 X86.680 Y106.377 E28.05512
G1 X48.535 Y68.232 E29.14811
G1 X48.598 Y67.720 E29.15856
G1 X87.141 Y106.263 E30.26297
G1 X87.602 Y106.149 E30.27259
G1 X48.660 Y67.207 E31.38842
G1 X48.812 Y66.786 E31.39750
G1 X88.063 Y106.036 E32.52217
G1 X88.523 Y105.922 E32.53178
G1 X48.970 Y66.369 E33.66512
G1 X49.128 Y65.953 E33.67414
G1 X88.984 Y105.809 E34.81616
G1 X89.445 Y105.695 E34.82577
G1 X49.286 Y65.536 E35.97647
G1 X49.444 Y65.120 E35.98549
G1 X89.906 Y105.582 E37.14486
G1 X90.366 Y105.468 E37.15448
G1 X49.602 Y64.704 E38.32252
G1 X49.760 Y64.287 E38.33155
G1 X90.827 Y105.354 E39.50827
G1 X91.288 Y105.241 E39.51789
G1 X49.918 Y63.871 E40.70329
G1 X50.076 Y63.454 E40.71232
G1 X91.708 Y105.087 E41.90524
G1 X92.085 Y104.889 E41.91385
G1 X50.234 Y63.038 E43.11304
G1 X50.392 Y62.622 E43.12206
G1 X92.461 Y104.691 E44.32752
G1 X92.838 Y104.494 E44.33614
G1 X50.550 Y62.205 E45.54786
G1 X50.707 Y61.789 E45.55688
G1 X93.215 Y104.296 E46.77487
G1 X93.591 Y104.098 E46.78349
G1 X50.865 Y61.372 E48.00774
G1 X51.023 Y60.956 E48.01677
G1 X93.968 Y103.901 E49.24729
G1 X94.345 Y103.703 E49.25591
G1 X51.181 Y60.540 E50.49270
G1 X51.339 Y60.123 E50.50172
G1 X94.721 Y103.505 E51.74478
G1 X95.098 Y103.308 E51.75340
G1 X51.539 Y59.749 E53.00152
G1 X51.773 Y59.409 E53.00989
G1 X95.475 Y103.110 E54.26210
G1 X95.851 Y102.912 E54.27071
G1 X52.008 Y59.069 E55.52698
G1 X52.243 Y58.729 E55.53535
G1 X96.228 Y102.715 E56.79570
G1 X96.604 Y102.517 E56.80431
G1 X52.477 Y58.389 E58.06872
G1 X52.712 Y58.050 E58.07709
G1 X96.981 Y102.319 E59.34558
G1 X97.358 Y102.121 E59.35419
G1 X52.946 Y57.710 E60.62675
G1 X53.181 Y57.370 E60.63511
G1 X97.735 Y101.924 E61.91174
G1 X98.111 Y101.726 E61.92036
G1 X53.415 Y57.030 E63.20105
G1 X53.650 Y56.690 E63.20942
G1 X98.469 Y101.509 E64.49365
G1 X98.773 Y101.239 E64.50189
