; generated by Slic3r 0.9.7 on 2014-12-13 at 23:29:44

; layer_height = 0.3
; perimeters = 3
; top_solid_layers = 4
; bottom_solid_layers = 3
; fill_density = 0.2
; perimeter_speed = 30
; infill_speed = 30
; travel_speed = 100
; scale = 1
; nozzle_diameter = .35
; filament_diameter = 1.75
; extrusion_multiplier = 0.8
; perimeters extrusion width = 0.42mm
; infill extrusion width = 0.42mm
; first layer extrusion width = 0.42mm

M107
M190 S95 ; wait for bed temperature to be reached
M104 S195 ; set temperature
G21; set mm units
G28 ;home all axis
G90; set absolute coordinates
G92 E0; reset extruder distance
;M104 S195; set extruder temp and start heating
G1 Z5 F300 ;move platform down 5mm
G1 X145 Y145 F3000 ; move to back right corner
;M109 S195; wait for extruder temp to be reached
G1 Z50% F200 ;move platform close to nozzle
;G1 E7; extruder anchor
G1 F3000; Set Feed rate for first move
G92 E0; reset extrusion distance
G90 ; use absolute coordinates
G21 ; set units to millimeters
G92 E0
M82 ; use absolute distances for extrusion
G1 F4500.000 E-1.00000
G92 E0
G1 Z0.150 F6000.000
G1 X53.140 Y45.989
G1 F4500.000 E1.00000
G1 X60.041 Y39.876 F1350.000 E1.18627
G1 X61.009 Y39.208 E1.21003
G1 X69.172 Y34.923 E1.39630
G1 X70.272 Y34.506 E1.42006
G1 X79.223 Y32.300 E1.60633
G1 X80.390 Y32.158 E1.63009
G1 X89.610 Y32.158 E1.81636
G1 X90.777 Y32.300 E1.84012
G1 X99.728 Y34.506 E2.02639
G1 X100.828 Y34.923 E2.05015
G1 X108.991 Y39.208 E2.23642
G1 X109.959 Y39.876 E2.26018
G1 X116.860 Y45.989 E2.44645
G1 X117.640 Y46.869 E2.47021
G1 X122.877 Y54.457 E2.65648
G1 X123.423 Y55.498 E2.68024
G1 X126.692 Y64.118 E2.86651
G1 X126.974 Y65.260 E2.89027
G1 X128.085 Y74.412 E3.07654
G1 X128.085 Y75.588 E3.10030
G1 X126.974 Y84.740 E3.28657
G1 X126.692 Y85.882 E3.31033
G1 X123.423 Y94.502 E3.49660
G1 X122.877 Y95.543 E3.52036
G1 X117.640 Y103.131 E3.70663
G1 X116.860 Y104.011 E3.73039
G1 X109.959 Y110.124 E3.91666
G1 X108.991 Y110.792 E3.94042
G1 X100.828 Y115.077 E4.12669
G1 X99.728 Y115.494 E4.15045
G1 X90.777 Y117.700 E4.33672
G1 X89.610 Y117.842 E4.36048
G1 X80.390 Y117.842 E4.54675
G1 X79.223 Y117.700 E4.57051
G1 X70.272 Y115.494 E4.75678
G1 X69.172 Y115.077 E4.78054
G1 X61.009 Y110.792 E4.96681
G1 X60.041 Y110.124 E4.99057
G1 X53.140 Y104.011 E5.17684
G1 X52.360 Y103.131 E5.20060
G1 X47.123 Y95.543 E5.38687
G1 X46.577 Y94.502 E5.41063
G1 X43.308 Y85.882 E5.59690
G1 X43.026 Y84.740 E5.62066
G1 X41.915 Y75.588 E5.80693
G1 X41.915 Y74.412 E5.83069
G1 X43.026 Y65.260 E6.01696
G1 X43.308 Y64.118 E6.04072
G1 X46.577 Y55.498 E6.22699
G1 X47.123 Y54.457 E6.25075
G1 X52.360 Y46.869 E6.43702
G1 X53.100 Y46.035 E6.45955
G1 X53.140 Y45.989 E6.46078
G1 X53.427 Y46.276 F6000.000
G1 X60.291 Y40.195 F1350.000 E6.64606
G1 X61.219 Y39.555 E6.66883
G1 X69.339 Y35.293 E6.85411
G1 X70.392 Y34.894 E6.87688
G1 X79.296 Y32.699 E7.06216
G1 X80.415 Y32.563 E7.08493
G1 X89.585 Y32.563 E7.27021
G1 X90.704 Y32.699 E7.29298
G1 X99.608 Y34.894 E7.47826
G1 X100.661 Y35.293 E7.50103
G1 X108.781 Y39.555 E7.68631
G1 X109.709 Y40.195 E7.70908
G1 X116.573 Y46.276 E7.89436
G1 X117.320 Y47.120 E7.91713
G1 X122.530 Y54.667 E8.10241
G1 X123.053 Y55.664 E8.12518
G1 X126.305 Y64.239 E8.31046
G1 X126.575 Y65.333 E8.33323
G1 X127.680 Y74.437 E8.51851
G1 X127.680 Y75.563 E8.54128
G1 X126.575 Y84.667 E8.72656
G1 X126.305 Y85.761 E8.74933
G1 X123.053 Y94.336 E8.93461
G1 X122.530 Y95.333 E8.95738
G1 X117.320 Y102.880 E9.14266
G1 X116.573 Y103.724 E9.16543
G1 X109.709 Y109.805 E9.35071
G1 X108.781 Y110.445 E9.37348
G1 X100.661 Y114.707 E9.55876
G1 X99.608 Y115.106 E9.58153
G1 X90.704 Y117.301 E9.76681
G1 X89.585 Y117.437 E9.78958
G1 X80.415 Y117.437 E9.97486
G1 X79.296 Y117.301 E9.99763
G1 X70.392 Y115.106 E10.18291
G1 X69.339 Y114.707 E10.20568
G1 X61.219 Y110.445 E10.39096
G1 X60.291 Y109.805 E10.41373
G1 X53.427 Y103.724 E10.59901
G1 X52.680 Y102.880 E10.62178
G1 X47.470 Y95.333 E10.80706
G1 X46.947 Y94.336 E10.82983
G1 X43.695 Y85.761 E11.01511
G1 X43.425 Y84.667 E11.03788
G1 X42.320 Y75.563 E11.22316
G1 X42.320 Y74.437 E11.24593
G1 X43.425 Y65.333 E11.43121
G1 X43.695 Y64.239 E11.45398
G1 X46.947 Y55.664 E11.63926
G1 X47.470 Y54.667 E11.66203
G1 X52.680 Y47.120 E11.84731
G1 X53.387 Y46.322 E11.86885
G1 X53.427 Y46.276 E11.87008
G1 X53.714 Y46.563 F6000.000
G1 X60.541 Y40.514 F1350.000 E12.05437
G1 X61.429 Y39.902 E12.07615
G1 X69.505 Y35.663 E12.26044
G1 X70.513 Y35.281 E12.28222
G1 X79.369 Y33.098 E12.46651
G1 X80.439 Y32.968 E12.48829
G1 X89.561 Y32.968 E12.67258
G1 X90.631 Y33.098 E12.69436
G1 X99.487 Y35.281 E12.87865
G1 X100.495 Y35.663 E12.90043
G1 X108.571 Y39.902 E13.08472
G1 X109.459 Y40.514 E13.10650
G1 X116.286 Y46.563 E13.29079
G1 X117.001 Y47.370 E13.31257
G1 X122.182 Y54.877 E13.49686
G1 X122.683 Y55.831 E13.51864
G1 X125.918 Y64.360 E13.70293
G1 X126.176 Y65.406 E13.72471
G1 X127.275 Y74.461 E13.90900
G1 X127.275 Y75.539 E13.93078
G1 X126.176 Y84.594 E14.11507
G1 X125.918 Y85.640 E14.13685
G1 X122.683 Y94.169 E14.32114
G1 X122.182 Y95.123 E14.34292
G1 X117.001 Y102.630 E14.52721
G1 X116.286 Y103.437 E14.54899
G1 X109.459 Y109.486 E14.73328
G1 X108.571 Y110.098 E14.75506
G1 X105.577 Y111.669 E14.82338
G1 X100.495 Y114.337 E14.93935
G1 X99.487 Y114.719 E14.96113
G1 X90.631 Y116.902 E15.14543
G1 X89.561 Y117.032 E15.16720
G1 X80.439 Y117.032 E15.35150
G1 X79.369 Y116.902 E15.37327
G1 X70.513 Y114.719 E15.55757
G1 X69.505 Y114.337 E15.57934
G1 X61.429 Y110.098 E15.76364
G1 X60.541 Y109.486 E15.78541
G1 X53.714 Y103.437 E15.96971
G1 X52.999 Y102.630 E15.99148
G1 X47.818 Y95.123 E16.17578
G1 X47.317 Y94.169 E16.19755
G1 X44.082 Y85.640 E16.38185
G1 X43.824 Y84.594 E16.40362
G1 X42.725 Y75.539 E16.58792
G1 X42.725 Y74.461 E16.60969
G1 X43.824 Y65.406 E16.79399
G1 X44.082 Y64.360 E16.81577
G1 X47.317 Y55.831 E17.00006
G1 X47.818 Y54.877 E17.02184
G1 X52.999 Y47.370 E17.20613
G1 X53.674 Y46.608 E17.22668
G1 X53.714 Y46.563 E17.22791
G1 X54.001 Y46.850 F6000.000
G1 X60.792 Y40.834 F1350.000 E17.41121
G1 X61.638 Y40.249 E17.43200
G1 X69.672 Y36.033 E17.61530
G1 X70.634 Y35.668 E17.63609
G1 X79.442 Y33.497 E17.81939
G1 X80.464 Y33.373 E17.84018
G1 X89.536 Y33.373 E18.02348
G1 X90.558 Y33.497 E18.04427
G1 X99.366 Y35.668 E18.22757
G1 X100.328 Y36.033 E18.24836
G1 X108.362 Y40.249 E18.43166
G1 X109.208 Y40.834 E18.45245
G1 X115.999 Y46.850 E18.63575
G1 X116.681 Y47.620 E18.65654
G1 X121.835 Y55.086 E18.83984
G1 X122.313 Y55.997 E18.86063
G1 X125.530 Y64.480 E19.04393
G1 X125.777 Y65.479 E19.06472
G1 X126.870 Y74.486 E19.24802
G1 X126.870 Y75.514 E19.26881
G1 X125.777 Y84.521 E19.45211
G1 X125.530 Y85.520 E19.47290
G1 X122.313 Y94.003 E19.65620
G1 X121.835 Y94.914 E19.67699
G1 X116.681 Y102.380 E19.86030
G1 X115.999 Y103.150 E19.88108
G1 X109.208 Y109.166 E20.06439
G1 X108.362 Y109.751 E20.08517
G1 X100.328 Y113.967 E20.26848
G1 X99.366 Y114.332 E20.28926
G1 X90.558 Y116.503 E20.47257
G1 X89.536 Y116.627 E20.49335
G1 X80.464 Y116.627 E20.67666
G1 X79.442 Y116.503 E20.69744
G1 X70.634 Y114.332 E20.88075
G1 X69.672 Y113.967 E20.90154
G1 X61.638 Y109.751 E21.08484
G1 X60.792 Y109.166 E21.10563
G1 X54.001 Y103.150 E21.28893
G1 X53.319 Y102.380 E21.30972
G1 X48.165 Y94.914 E21.49302
G1 X47.687 Y94.003 E21.51381
G1 X44.470 Y85.520 E21.69711
G1 X44.223 Y84.521 E21.71790
G1 X43.130 Y75.514 E21.90120
G1 X43.130 Y74.486 E21.92199
G1 X44.223 Y65.479 E22.10529
G1 X44.470 Y64.480 E22.12608
G1 X47.687 Y55.997 E22.30938
G1 X48.165 Y55.086 E22.33017
G1 X53.319 Y47.620 E22.51347
G1 X53.961 Y46.895 E22.53303
G1 X54.001 Y46.850 E22.53426
G1 X54.288 Y47.137 F6000.000
G1 X61.042 Y41.153 F1350.000 E22.71657
G1 X61.848 Y40.597 E22.73637
G1 X69.838 Y36.403 E22.91868
G1 X70.754 Y36.056 E22.93848
G1 X79.516 Y33.896 E23.12079
G1 X80.488 Y33.778 E23.14059
G1 X89.512 Y33.778 E23.32291
G1 X90.484 Y33.896 E23.34270
G1 X99.246 Y36.056 E23.52502
G1 X100.162 Y36.403 E23.54481
G1 X108.152 Y40.597 E23.72713
G1 X108.958 Y41.153 E23.74692
G1 X115.712 Y47.137 E23.92924
G1 X116.362 Y47.870 E23.94904
G1 X121.488 Y55.296 E24.13135
G1 X121.943 Y56.164 E24.15115
G1 X125.143 Y64.601 E24.33346
G1 X125.378 Y65.552 E24.35326
G1 X126.465 Y74.510 E24.53557
G1 X126.465 Y75.490 E24.55537
G1 X125.378 Y84.448 E24.73768
G1 X125.143 Y85.399 E24.75748
G1 X121.943 Y93.836 E24.93979
G1 X121.488 Y94.704 E24.95959
G1 X116.362 Y102.130 E25.14190
G1 X115.712 Y102.863 E25.16170
G1 X108.958 Y108.847 E25.34401
G1 X108.152 Y109.403 E25.36381
G1 X105.201 Y110.952 E25.43114
G1 X100.162 Y113.597 E25.54612
G1 X99.246 Y113.944 E25.56592
G1 X90.484 Y116.104 E25.74823
G1 X89.512 Y116.222 E25.76803
G1 X80.488 Y116.222 E25.95035
G1 X79.516 Y116.104 E25.97014
G1 X70.754 Y113.944 E26.15246
G1 X69.838 Y113.597 E26.17225
G1 X61.848 Y109.403 E26.35457
G1 X61.042 Y108.847 E26.37436
G1 X54.288 Y102.863 E26.55668
G1 X53.638 Y102.130 E26.57648
G1 X48.512 Y94.704 E26.75879
G1 X48.057 Y93.836 E26.77859
G1 X44.857 Y85.399 E26.96090
G1 X44.622 Y84.448 E26.98070
G1 X43.535 Y75.490 E27.16301
G1 X43.535 Y74.510 E27.18281
G1 X44.622 Y65.552 E27.36512
G1 X44.857 Y64.601 E27.38492
G1 X48.057 Y56.164 E27.56723
G1 X48.512 Y55.296 E27.58703
G1 X53.638 Y47.870 E27.76934
G1 X54.247 Y47.182 E27.78791
G1 X54.288 Y47.137 E27.78914
G1 X54.575 Y47.424 F6000.000
G1 X61.292 Y41.473 F1350.000 E27.97046
G1 X62.058 Y40.944 E27.98927
G1 X70.005 Y36.773 E28.17059
G1 X70.875 Y36.443 E28.18940
G1 X79.589 Y34.295 E28.37073
G1 X80.513 Y34.183 E28.38953
G1 X89.487 Y34.183 E28.57086
G1 X90.411 Y34.295 E28.58966
G1 X99.125 Y36.443 E28.77099
G1 X99.995 Y36.773 E28.78980
G1 X107.942 Y40.944 E28.97112
G1 X108.708 Y41.473 E28.98993
G1 X115.425 Y47.424 E29.17125
G1 X116.043 Y48.120 E29.19006
G1 X121.141 Y55.506 E29.37138
G1 X121.573 Y56.330 E29.39019
G1 X124.756 Y64.722 E29.57151
G1 X124.978 Y65.626 E29.59032
G1 X126.060 Y74.535 E29.77164
G1 X126.060 Y75.465 E29.79045
G1 X124.978 Y84.374 E29.97177
G1 X124.756 Y85.278 E29.99058
G1 X121.573 Y93.670 E30.17190
G1 X121.141 Y94.494 E30.19071
G1 X116.043 Y101.880 E30.37204
G1 X115.425 Y102.576 E30.39084
G1 X108.708 Y108.527 E30.57217
G1 X107.942 Y109.056 E30.59097
G1 X99.995 Y113.227 E30.77230
G1 X99.125 Y113.557 E30.79111
G1 X90.411 Y115.705 E30.97243
G1 X89.487 Y115.817 E30.99124
G1 X80.513 Y115.817 E31.17256
G1 X79.589 Y115.705 E31.19137
G1 X70.875 Y113.557 E31.37269
G1 X70.005 Y113.227 E31.39150
G1 X62.058 Y109.056 E31.57282
G1 X61.292 Y108.527 E31.59163
G1 X54.575 Y102.576 E31.77295
G1 X53.957 Y101.880 E31.79176
G1 X48.859 Y94.494 E31.97308
G1 X48.427 Y93.669 E31.99189
G1 X45.244 Y85.278 E32.17321
G1 X45.022 Y84.374 E32.19202
G1 X43.940 Y75.465 E32.37335
G1 X43.940 Y74.535 E32.39215
G1 X45.022 Y65.626 E32.57348
G1 X45.244 Y64.722 E32.59228
G1 X48.427 Y56.330 E32.77361
G1 X48.859 Y55.506 E32.79242
G1 X53.957 Y48.120 E32.97374
G1 X54.534 Y47.469 E32.99132
G1 X54.575 Y47.424 E32.99255
G1 X54.862 Y47.711 F6000.000
G1 X61.542 Y41.792 F1350.000 E33.17288
G1 X62.268 Y41.291 E33.19070
G1 X70.171 Y37.143 E33.37103
G1 X70.996 Y36.830 E33.38885
G1 X79.662 Y34.694 E33.56918
G1 X80.537 Y34.588 E33.58700
G1 X89.463 Y34.588 E33.76733
G1 X90.338 Y34.694 E33.78515
G1 X99.004 Y36.830 E33.96549
G1 X99.829 Y37.143 E33.98330
G1 X107.732 Y41.291 E34.16364
G1 X108.458 Y41.792 E34.18145
G1 X115.138 Y47.711 E34.36179
G1 X115.723 Y48.371 E34.37961
G1 X120.793 Y55.716 E34.55994
G1 X121.203 Y56.497 E34.57776
G1 X124.368 Y64.842 E34.75809
G1 X124.579 Y65.699 E34.77591
G1 X125.655 Y74.559 E34.95624
G1 X125.655 Y75.441 E34.97406
G1 X124.579 Y84.301 E35.15439
G1 X124.368 Y85.158 E35.17221
G1 X121.203 Y93.503 E35.35254
G1 X120.793 Y94.284 E35.37036
G1 X115.723 Y101.629 E35.55070
G1 X115.138 Y102.289 E35.56851
G1 X108.458 Y108.208 E35.74885
G1 X107.732 Y108.709 E35.76666
G1 X104.825 Y110.235 E35.83301
G1 X99.829 Y112.857 E35.94700
G1 X99.004 Y113.170 E35.96482
G1 X90.338 Y115.306 E36.14515
G1 X89.463 Y115.412 E36.16297
G1 X80.537 Y115.412 E36.34330
G1 X79.662 Y115.306 E36.36112
G1 X70.996 Y113.170 E36.54145
G1 X70.171 Y112.857 E36.55927
G1 X62.268 Y108.709 E36.73960
G1 X61.542 Y108.208 E36.75742
G1 X54.862 Y102.289 E36.93775
G1 X54.277 Y101.629 E36.95557
G1 X49.207 Y94.284 E37.13591
G1 X48.797 Y93.503 E37.15372
G1 X45.632 Y85.158 E37.33406
G1 X45.421 Y84.301 E37.35187
G1 X44.345 Y75.441 E37.53221
G1 X44.345 Y74.559 E37.55003
G1 X45.421 Y65.699 E37.73036
G1 X45.632 Y64.842 E37.74818
G1 X48.797 Y56.497 E37.92851
G1 X49.207 Y55.716 E37.94633
G1 X54.277 Y48.371 E38.12666
G1 X54.821 Y47.756 E38.14325
G1 X54.862 Y47.711 E38.14448
G1 X55.148 Y47.997 F6000.000
G1 X61.793 Y42.111 F1350.000 E38.32382
G1 X62.478 Y41.638 E38.34065
G1 X70.338 Y37.513 E38.51999
G1 X71.116 Y37.218 E38.53682
G1 X79.735 Y35.093 E38.71617
G1 X80.562 Y34.993 E38.73299
G1 X89.438 Y34.993 E38.91234
G1 X90.265 Y35.093 E38.92917
G1 X98.884 Y37.218 E39.10851
G1 X99.662 Y37.513 E39.12534
G1 X107.522 Y41.638 E39.30468
G1 X108.207 Y42.111 E39.32151
G1 X114.852 Y47.997 E39.50085
G1 X115.404 Y48.621 E39.51768
G1 X120.446 Y55.926 E39.69702
G1 X120.833 Y56.664 E39.71385
G1 X123.981 Y64.963 E39.89319
G1 X124.180 Y65.772 E39.91002
G1 X125.250 Y74.584 E40.08937
G1 X125.250 Y75.416 E40.10619
G1 X124.180 Y84.228 E40.28554
G1 X123.981 Y85.037 E40.30237
G1 X120.833 Y93.336 E40.48171
G1 X120.446 Y94.074 E40.49854
G1 X115.404 Y101.379 E40.67788
G1 X114.852 Y102.003 E40.69471
G1 X108.207 Y107.889 E40.87405
G1 X107.522 Y108.362 E40.89088
G1 X99.662 Y112.487 E41.07022
G1 X98.884 Y112.782 E41.08705
G1 X90.265 Y114.907 E41.26640
G1 X89.438 Y115.007 E41.28322
G1 X80.562 Y115.007 E41.46257
G1 X79.735 Y114.907 E41.47939
G1 X71.116 Y112.782 E41.65874
G1 X70.338 Y112.487 E41.67557
G1 X62.478 Y108.362 E41.85491
G1 X61.793 Y107.889 E41.87174
G1 X55.148 Y102.003 E42.05108
G1 X54.596 Y101.379 E42.06791
G1 X49.554 Y94.074 E42.24725
G1 X49.167 Y93.336 E42.26408
G1 X46.019 Y85.037 E42.44342
G1 X45.820 Y84.228 E42.46025
G1 X44.750 Y75.416 E42.63960
G1 X44.750 Y74.584 E42.65642
G1 X45.820 Y65.772 E42.83577
G1 X46.019 Y64.963 E42.85260
G1 X49.167 Y56.664 E43.03194
G1 X49.554 Y55.926 E43.04877
G1 X54.596 Y48.621 E43.22811
G1 X55.108 Y48.043 E43.24371
G1 X55.148 Y47.997 E43.24494
G1 X55.435 Y48.284 F6000.000
G1 X62.043 Y42.431 F1350.000 E43.42329
G1 X62.688 Y41.985 E43.43913
G1 X70.504 Y37.883 E43.61748
G1 X71.237 Y37.605 E43.63332
G1 X79.808 Y35.493 E43.81168
G1 X80.586 Y35.398 E43.82751
G1 X89.414 Y35.398 E44.00587
G1 X90.192 Y35.493 E44.02171
G1 X98.763 Y37.605 E44.20006
G1 X99.496 Y37.883 E44.21590
G1 X107.312 Y41.985 E44.39425
G1 X107.957 Y42.431 E44.41009
G1 X114.565 Y48.284 E44.58844
G1 X115.085 Y48.871 E44.60428
G1 X120.099 Y56.136 E44.78263
G1 X120.463 Y56.830 E44.79847
G1 X123.594 Y65.084 E44.97683
G1 X123.781 Y65.845 E44.99266
G1 X124.845 Y74.608 E45.17102
G1 X124.845 Y75.392 E45.18686
G1 X123.781 Y84.155 E45.36521
G1 X123.594 Y84.916 E45.38105
G1 X120.463 Y93.170 E45.55940
G1 X120.099 Y93.864 E45.57524
G1 X115.085 Y101.129 E45.75359
G1 X114.565 Y101.716 E45.76943
G1 X107.957 Y107.569 E45.94778
G1 X107.312 Y108.015 E45.96362
G1 X99.496 Y112.117 E46.14198
G1 X98.763 Y112.395 E46.15781
G1 X90.192 Y114.507 E46.33617
G1 X89.414 Y114.602 E46.35201
G1 X80.586 Y114.602 E46.53036
G1 X79.808 Y114.507 E46.54620
G1 X71.237 Y112.395 E46.72455
G1 X70.504 Y112.117 E46.74039
G1 X62.688 Y108.015 E46.91874
G1 X62.043 Y107.569 E46.93458
G1 X55.435 Y101.716 E47.11293
G1 X54.915 Y101.129 E47.12877
G1 X49.901 Y93.864 E47.30713
G1 X49.537 Y93.170 E47.32296
G1 X46.406 Y84.916 E47.50132
G1 X46.219 Y84.155 E47.51716
G1 X45.155 Y75.392 E47.69551
G1 X45.155 Y74.608 E47.71135
G1 X46.219 Y65.845 E47.88970
G1 X46.406 Y65.084 E47.90554
