; generated by Slic3r 0.9.7 on 2014-12-13 at 23:48:02

; layer_height = 0.3
; perimeters = 3
; top_solid_layers = 4
; bottom_solid_layers = 3
; fill_density = 0.2
; perimeter_speed = 30
; infill_speed = 30
; travel_speed = 100
; scale = 1
; nozzle_diameter = .35
; filament_diameter = 1.75
; extrusion_multiplier = 0.8
; perimeters extrusion width = 0.42mm
; infill extrusion width = 0.42mm
; first layer extrusion width = 0.42mm

M107
M190 S95 ; wait for bed temperature to be reached
M104 S195 ; set temperature
G21; set mm units
G28 ;home all axis
G90; set absolute coordinates
G92 E0; reset extruder distance
;M104 S195; set extruder temp and start heating
G1 Z5 F300 ;move platform down 5mm
G1 X145 Y145 F3000 ; move to back right corner
;M109 S195; wait for extruder temp to be reached
G1 Z50% F200 ;move platform close to nozzle
;G1 E7; extruder anchor
G1 F3000; Set Feed rate for first move
G92 E0; reset extrusion distance
G90 ; use absolute coordinates
G21 ; set units to millimeters
G92 E0
M82 ; use absolute distances for extrusion
G1 F4500.000 E-1.00000
G92 E0
G1 Z0.150 F6000.000
G1 X48.583 Y47.810
G1 F4500.000 E1.00000
G1 X58.164 Y39.639 F1350.000 E1.25443
G1 X59.612 Y38.784 E1.28839
G1 X75.124 Y32.925 E1.62342
G1 X80.000 Y36.296 E1.74318
G1 X84.876 Y32.925 E1.86294
G1 X100.389 Y38.784 E2.19797
G1 X101.836 Y39.639 E2.23193
G1 X111.417 Y47.810 E2.48636
G1 X112.490 Y49.104 E2.52032
G1 X118.744 Y60.034 E2.77475
G1 X119.316 Y61.615 E2.80871
G1 X121.504 Y74.016 E3.06314
G1 X121.508 Y75.696 E3.09709
G1 X118.702 Y92.017 E3.43169
G1 X113.316 Y94.542 E3.55187
G1 X113.778 Y100.414 E3.67085
G1 X101.002 Y110.758 E4.00298
G1 X99.556 Y111.568 E4.03648
G1 X87.845 Y115.714 E4.28747
G1 X86.211 Y115.995 E4.32097
G1 X73.789 Y115.995 E4.57196
G1 X72.155 Y115.714 E4.60546
G1 X60.444 Y111.568 E4.85646
G1 X58.998 Y110.758 E4.88995
G1 X46.222 Y100.414 E5.22208
G1 X46.684 Y94.542 E5.34107
G1 X41.305 Y92.024 E5.46107
G1 X38.486 Y75.739 E5.79498
G1 X38.489 Y74.053 E5.82905
G1 X40.684 Y61.615 E6.08425
G1 X41.256 Y60.034 E6.11821
G1 X47.510 Y49.104 E6.37264
G1 X48.544 Y47.857 E6.40537
G1 X48.583 Y47.810 E6.40660
G1 X48.872 Y48.095 F6000.000
G1 X58.401 Y39.970 F1350.000 E6.65961
G1 X59.787 Y39.150 E6.69215
G1 X75.069 Y33.379 E7.02219
G1 X80.000 Y36.788 E7.14331
G1 X84.932 Y33.379 E7.26444
G1 X100.213 Y39.150 E7.59447
G1 X101.599 Y39.970 E7.62702
G1 X111.128 Y48.095 E7.88003
G1 X112.156 Y49.335 E7.91257
G1 X118.375 Y60.205 E8.16559
G1 X118.923 Y61.719 E8.19813
G1 X121.099 Y74.051 E8.45115
G1 X121.103 Y75.662 E8.48369
G1 X118.338 Y91.740 E8.81331
G1 X112.890 Y94.295 E8.93488
G1 X113.357 Y100.233 E9.05522
G1 X100.774 Y110.421 E9.38235
G1 X99.388 Y111.197 E9.41445
G1 X87.743 Y115.321 E9.66405
G1 X86.177 Y115.590 E9.69615
G1 X73.823 Y115.590 E9.94575
G1 X72.257 Y115.321 E9.97785
G1 X60.612 Y111.197 E10.22745
G1 X59.226 Y110.421 E10.25955
G1 X46.643 Y100.233 E10.58667
G1 X47.110 Y94.294 E10.70703
G1 X41.668 Y91.746 E10.82843
G1 X38.891 Y75.705 E11.15736
G1 X38.894 Y74.089 E11.19001
G1 X41.077 Y61.719 E11.44379
G1 X41.625 Y60.205 E11.47633
G1 X47.844 Y49.335 E11.72935
G1 X48.833 Y48.142 E11.76066
G1 X48.872 Y48.095 E11.76189
G1 X49.162 Y48.381 F6000.000
G1 X58.637 Y40.301 F1350.000 E12.01349
G1 X59.963 Y39.517 E12.04462
G1 X75.013 Y33.833 E12.36965
G1 X80.000 Y37.280 E12.49214
G1 X84.987 Y33.833 E12.61464
G1 X100.037 Y39.517 E12.93967
G1 X101.363 Y40.301 E12.97080
G1 X110.838 Y48.381 E13.22240
G1 X111.822 Y49.567 E13.25353
G1 X118.006 Y60.375 E13.50513
G1 X118.530 Y61.824 E13.53626
G1 X120.695 Y74.087 E13.78786
G1 X120.698 Y75.628 E13.81898
G1 X117.975 Y91.463 E14.14362
G1 X112.465 Y94.047 E14.26658
G1 X112.937 Y100.052 E14.38829
G1 X100.546 Y110.085 E14.71041
G1 X99.220 Y110.827 E14.74112
G1 X87.640 Y114.927 E14.98932
G1 X86.142 Y115.185 E15.02002
G1 X73.858 Y115.185 E15.26823
G1 X72.360 Y114.927 E15.29893
G1 X60.780 Y110.827 E15.54714
G1 X59.454 Y110.085 E15.57784
G1 X47.063 Y100.052 E15.89996
G1 X47.535 Y94.046 E16.02168
G1 X42.031 Y91.469 E16.14448
G1 X39.296 Y75.670 E16.46843
G1 X39.299 Y74.125 E16.49966
G1 X41.470 Y61.824 E16.75203
G1 X41.994 Y60.376 E16.78316
G1 X48.178 Y49.567 E17.03476
G1 X49.123 Y48.428 E17.06466
G1 X49.162 Y48.381 E17.06588
G1 X49.451 Y48.666 F6000.000
G1 X58.873 Y40.631 F1350.000 E17.31607
G1 X60.139 Y39.883 E17.34578
G1 X74.957 Y34.287 E17.66582
G1 X80.000 Y37.773 E17.78968
G1 X85.043 Y34.287 E17.91353
G1 X99.861 Y39.883 E18.23357
G1 X101.127 Y40.631 E18.26328
G1 X110.549 Y48.666 E18.51347
G1 X111.488 Y49.798 E18.54318
G1 X117.637 Y60.546 E18.79337
G1 X118.137 Y61.929 E18.82308
G1 X120.290 Y74.123 E19.07326
G1 X120.293 Y75.594 E19.10298
G1 X117.612 Y91.186 E19.42264
G1 X112.039 Y93.799 E19.54699
G1 X112.517 Y99.872 E19.67006
G1 X100.318 Y109.748 E19.98718
G1 X99.053 Y110.457 E20.01648
G1 X87.537 Y114.534 E20.26329
G1 X86.108 Y114.780 E20.29260
G1 X73.892 Y114.780 E20.53941
G1 X72.463 Y114.534 E20.56872
G1 X60.948 Y110.457 E20.81553
G1 X59.682 Y109.748 E20.84484
G1 X47.483 Y99.872 E21.16195
G1 X47.961 Y93.799 E21.28503
G1 X42.394 Y91.192 E21.40923
G1 X39.701 Y75.636 E21.72821
G1 X39.704 Y74.161 E21.75802
G1 X41.863 Y61.929 E22.00896
G1 X42.363 Y60.546 E22.03868
G1 X48.512 Y49.798 E22.28886
G1 X49.412 Y48.713 E22.31735
G1 X49.451 Y48.666 E22.31858
G1 X49.740 Y48.952 F6000.000
G1 X59.109 Y40.962 F1350.000 E22.56735
G1 X60.315 Y40.250 E22.59565
G1 X74.902 Y34.741 E22.91068
G1 X80.000 Y38.265 E23.03591
G1 X85.098 Y34.741 E23.16113
G1 X99.685 Y40.250 E23.47617
G1 X100.891 Y40.962 E23.50446
G1 X110.260 Y48.952 E23.75323
G1 X111.154 Y50.030 E23.78153
G1 X117.268 Y60.717 E24.03030
G1 X117.745 Y62.034 E24.05860
G1 X119.885 Y74.159 E24.30737
G1 X119.888 Y75.560 E24.33567
G1 X117.248 Y90.909 E24.65035
G1 X111.613 Y93.552 E24.77610
G1 X112.096 Y99.691 E24.90052
G1 X100.090 Y109.412 E25.21264
G1 X98.885 Y110.087 E25.24055
G1 X87.435 Y114.141 E25.48596
G1 X86.073 Y114.375 E25.51388
G1 X73.927 Y114.375 E25.75929
G1 X72.565 Y114.141 E25.78720
G1 X61.115 Y110.087 E26.03262
G1 X59.910 Y109.412 E26.06053
G1 X47.904 Y99.691 E26.37264
G1 X48.387 Y93.551 E26.49708
G1 X42.757 Y90.915 E26.62268
G1 X40.106 Y75.601 E26.93668
G1 X40.109 Y74.196 E26.96507
G1 X42.255 Y62.034 E27.21460
G1 X42.732 Y60.717 E27.24290
G1 X48.847 Y50.030 E27.49167
G1 X49.702 Y48.998 E27.51874
G1 X49.740 Y48.952 E27.51997
G1 X50.030 Y49.237 F6000.000
G1 X59.345 Y41.293 F1350.000 E27.76732
G1 X60.491 Y40.616 E27.79421
G1 X74.846 Y35.195 E28.10425
G1 X80.000 Y38.757 E28.23083
G1 X85.154 Y35.195 E28.35742
G1 X99.509 Y40.616 E28.66746
G1 X100.655 Y41.293 E28.69435
G1 X109.970 Y49.237 E28.94170
G1 X110.819 Y50.261 E28.96858
G1 X116.899 Y60.888 E29.21594
G1 X117.352 Y62.139 E29.24282
G1 X119.480 Y74.195 E29.49018
G1 X119.483 Y75.526 E29.51706
G1 X116.885 Y90.633 E29.82677
G1 X111.188 Y93.304 E29.95391
G1 X111.676 Y99.510 E30.07969
G1 X99.862 Y109.075 E30.38680
G1 X98.717 Y109.716 E30.41332
G1 X87.332 Y113.748 E30.65733
G1 X86.039 Y113.970 E30.68385
G1 X73.961 Y113.970 E30.92787
G1 X72.668 Y113.748 E30.95439
G1 X61.283 Y109.716 E31.19840
G1 X60.138 Y109.075 E31.22492
G1 X48.324 Y99.510 E31.53203
G1 X48.813 Y93.303 E31.65783
G1 X43.120 Y90.638 E31.78483
G1 X40.511 Y75.567 E32.09385
G1 X40.514 Y74.232 E32.12082
G1 X42.648 Y62.139 E32.36894
G1 X43.101 Y60.888 E32.39582
G1 X49.181 Y50.261 E32.64318
G1 X49.991 Y49.284 E32.66883
G1 X50.030 Y49.237 E32.67006
G1 X50.319 Y49.523 F6000.000
G1 X59.581 Y41.624 F1350.000 E32.91600
G1 X60.667 Y40.983 E32.94147
G1 X74.791 Y35.649 E33.24651
G1 X80.000 Y39.250 E33.37446
G1 X85.209 Y35.649 E33.50242
G1 X99.333 Y40.983 E33.80746
G1 X100.419 Y41.624 E33.83293
G1 X109.681 Y49.523 E34.07887
G1 X110.485 Y50.493 E34.10433
G1 X116.530 Y61.058 E34.35027
G1 X116.959 Y62.244 E34.37574
G1 X119.075 Y74.231 E34.62168
G1 X119.078 Y75.492 E34.64715
G1 X116.522 Y90.356 E34.95188
G1 X110.762 Y93.056 E35.08041
G1 X111.255 Y99.330 E35.20755
G1 X99.634 Y108.739 E35.50966
G1 X98.549 Y109.346 E35.53478
G1 X87.230 Y113.354 E35.77740
G1 X86.004 Y113.565 E35.80252
G1 X73.996 Y113.565 E36.04515
G1 X72.770 Y113.354 E36.07027
G1 X61.451 Y109.346 E36.31289
G1 X60.366 Y108.739 E36.33801
G1 X48.745 Y99.330 E36.64012
G1 X49.238 Y93.055 E36.76728
G1 X43.483 Y90.360 E36.89568
G1 X40.916 Y75.533 E37.19972
G1 X40.919 Y74.268 E37.22527
G1 X43.041 Y62.244 E37.47197
G1 X43.470 Y61.058 E37.49744
G1 X49.515 Y50.493 E37.74338
G1 X50.281 Y49.569 E37.76762
G1 X50.319 Y49.523 E37.76885
G1 X50.609 Y49.808 F6000.000
G1 X59.817 Y41.955 F1350.000 E38.01337
G1 X60.842 Y41.349 E38.03743
G1 X74.735 Y36.102 E38.33747
G1 X80.000 Y39.742 E38.46679
G1 X85.265 Y36.102 E38.59611
G1 X99.158 Y41.349 E38.89615
G1 X100.183 Y41.955 E38.92020
G1 X109.391 Y49.808 E39.16473
G1 X110.151 Y50.724 E39.18878
G1 X116.161 Y61.229 E39.43331
G1 X116.567 Y62.349 E39.45736
G1 X118.670 Y74.267 E39.70189
G1 X118.673 Y75.457 E39.72594
G1 X116.158 Y90.079 E40.02569
G1 X110.336 Y92.809 E40.15562
G1 X110.835 Y99.149 E40.28411
G1 X99.406 Y108.402 E40.58122
G1 X98.382 Y108.976 E40.60494
G1 X87.127 Y112.961 E40.84617
G1 X85.970 Y113.160 E40.86990
G1 X74.030 Y113.160 E41.11112
G1 X72.873 Y112.961 E41.13485
G1 X61.618 Y108.976 E41.37608
G1 X60.594 Y108.402 E41.39980
G1 X49.165 Y99.149 E41.69691
G1 X49.664 Y92.807 E41.82543
G1 X43.846 Y90.083 E41.95523
G1 X41.322 Y75.498 E42.25429
G1 X41.323 Y74.304 E42.27842
G1 X43.434 Y62.349 E42.52370
G1 X43.839 Y61.229 E42.54776
G1 X49.849 Y50.724 E42.79228
G1 X50.570 Y49.855 E42.81511
G1 X50.609 Y49.808 E42.81634
G1 X50.898 Y50.093 F6000.000
G1 X60.054 Y42.286 F1350.000 E43.05945
G1 X61.018 Y41.716 E43.08209
G1 X74.679 Y36.556 E43.37713
G1 X80.000 Y40.234 E43.50781
G1 X85.321 Y36.556 E43.63850
G1 X98.982 Y41.716 E43.93354
G1 X99.946 Y42.286 E43.95618
G1 X109.102 Y50.093 E44.19929
G1 X109.817 Y50.956 E44.22193
G1 X115.793 Y61.400 E44.46504
G1 X116.174 Y62.453 E44.48768
G1 X118.265 Y74.303 E44.73079
G1 X118.268 Y75.423 E44.75343
G1 X115.795 Y89.802 E45.04820
G1 X109.910 Y92.561 E45.17952
G1 X110.414 Y98.968 E45.30937
G1 X99.178 Y108.066 E45.60148
G1 X98.214 Y108.606 E45.62381
G1 X87.024 Y112.568 E45.86364
G1 X85.935 Y112.755 E45.88597
G1 X74.065 Y112.755 E46.12580
G1 X72.976 Y112.568 E46.14813
G1 X61.786 Y108.606 E46.38796
G1 X60.822 Y108.066 E46.41029
G1 X49.586 Y98.968 E46.70239
G1 X50.090 Y92.559 E46.83228
G1 X44.209 Y89.806 E46.96347
G1 X41.727 Y75.464 E47.25756
G1 X41.728 Y74.340 E47.28027
G1 X43.826 Y62.453 E47.52414
G1 X44.208 Y61.400 E47.54678
G1 X50.183 Y50.956 E47.78989
G1 X50.859 Y50.140 E47.81130
G1 X50.898 Y50.093 E47.81253
G1 X51.188 Y50.379 F6000.000
G1 X60.290 Y42.617 F1350.000 E48.05422
G1 X61.194 Y42.082 E48.07544
G1 X74.624 Y37.010 E48.36549
G1 X79.865 Y40.633 E48.49422
G1 X79.865 Y47.434 E48.63163
G1 X79.958 Y47.963 E48.64247
G1 X79.992 Y47.991 E48.64338
G1 X80.042 Y47.963 E48.64454
G1 X80.135 Y47.434 E48.65538
G1 X80.135 Y40.633 E48.79280
G1 X85.376 Y37.010 E48.92152
G1 X98.806 Y42.082 E49.21157
G1 X99.710 Y42.617 E49.23279
G1 X108.812 Y50.379 E49.47449
G1 X109.483 Y51.187 E49.49571
G1 X115.424 Y61.571 E49.73741
G1 X115.781 Y62.558 E49.75863
G1 X117.860 Y74.339 E50.00032
G1 X117.863 Y75.389 E50.02155
G1 X115.432 Y89.525 E50.31134
G1 X109.691 Y92.217 E50.43946
G1 X104.140 Y89.012 E50.56894
G1 X103.636 Y88.829 E50.57978
G1 X103.594 Y88.844 E50.58069
G1 X103.584 Y88.873 E50.58131
G1 X103.594 Y88.902 E50.58193
G1 X104.005 Y89.247 E50.59277
G1 X109.493 Y92.415 E50.72080
G1 X109.994 Y98.788 E50.84995
G1 X98.950 Y107.729 E51.13705
G1 X98.046 Y108.235 E51.15798
G1 X86.922 Y112.174 E51.39642
G1 X85.901 Y112.350 E51.41735
G1 X74.099 Y112.350 E51.65579
G1 X73.078 Y112.174 E51.67672
G1 X61.954 Y108.235 E51.91516
G1 X61.050 Y107.729 E51.93609
G1 X50.006 Y98.788 E52.22319
G1 X50.507 Y92.415 E52.35235
G1 X55.995 Y89.247 E52.48037
G1 X56.406 Y88.902 E52.49121
G1 X56.414 Y88.858 E52.49212
G1 X56.364 Y88.829 E52.49329
G1 X55.860 Y89.012 E52.50413
G1 X50.311 Y92.216 E52.63358
G1 X44.572 Y89.529 E52.76161
G1 X42.132 Y75.429 E53.05072
G1 X42.133 Y74.375 E53.07201
G1 X44.219 Y62.558 E53.31446
G1 X44.576 Y61.571 E53.33568
G1 X50.517 Y51.187 E53.57737
G1 X51.149 Y50.426 E53.59737
G1 X51.188 Y50.379 E53.59860
G1 X51.477 Y50.664 F6000.000
G1 X60.526 Y42.947 F1350.000 E53.83888
G1 X61.370 Y42.449 E53.85869
G1 X74.568 Y37.464 E54.14374
G1 X79.460 Y40.845 E54.26388
G1 X79.460 Y47.470 E54.39772
G1 X79.571 Y48.103 E54.41072
G1 X79.651 Y48.240 E54.41392
G1 X79.772 Y48.342 E54.41712
G1 X79.921 Y48.396 E54.42032
G1 X80.079 Y48.396 E54.42352
G1 X80.228 Y48.342 E54.42672
G1 X80.349 Y48.240 E54.42992
G1 X80.429 Y48.103 E54.43312
G1 X80.540 Y47.470 E54.44612
G1 X80.540 Y40.845 E54.57996
G1 X85.432 Y37.464 E54.70010
G1 X98.630 Y42.449 E54.98515
G1 X99.474 Y42.947 E55.00496
G1 X108.523 Y50.664 E55.24524
G1 X109.149 Y51.419 E55.26505
G1 X115.055 Y61.741 E55.50533
G1 X115.388 Y62.663 E55.52514
G1 X117.455 Y74.375 E55.76542
G1 X117.458 Y75.355 E55.78523
G1 X115.069 Y89.248 E56.07004
G1 X109.710 Y91.760 E56.18961
G1 X104.312 Y88.644 E56.31555
G1 X103.708 Y88.424 E56.32855
G1 X103.549 Y88.424 E56.33175
G1 X103.400 Y88.478 E56.33495
G1 X103.279 Y88.580 E56.33815
G1 X103.200 Y88.717 E56.34135
G1 X103.172 Y88.873 E56.34455
G1 X103.200 Y89.029 E56.34775
G1 X103.279 Y89.166 E56.35095
G1 X103.772 Y89.580 E56.36395
G1 X109.106 Y92.659 E56.48838
G1 X109.574 Y98.607 E56.60893
G1 X98.722 Y107.393 E56.89102
G1 X97.878 Y107.865 E56.91056
G1 X86.819 Y111.781 E57.14760
G1 X85.866 Y111.945 E57.16714
G1 X74.134 Y111.945 E57.40418
G1 X73.181 Y111.781 E57.42372
G1 X62.122 Y107.865 E57.66076
G1 X61.278 Y107.393 E57.68030
G1 X50.427 Y98.607 E57.96240
G1 X50.894 Y92.659 E58.08294
G1 X56.228 Y89.580 E58.20738
G1 X56.721 Y89.166 E58.22038
G1 X56.800 Y89.029 E58.22358
G1 X56.828 Y88.873 E58.22678
G1 X56.800 Y88.717 E58.22998
G1 X56.721 Y88.580 E58.23318
G1 X56.600 Y88.478 E58.23638
G1 X56.451 Y88.424 E58.23958
G1 X56.292 Y88.424 E58.24278
G1 X55.688 Y88.644 E58.25578
G1 X50.291 Y91.759 E58.38168
G1 X44.935 Y89.252 E58.50117
G1 X42.537 Y75.395 E58.78530
G1 X42.538 Y74.411 E58.80518
G1 X44.612 Y62.663 E59.04621
G1 X44.945 Y61.741 E59.06601
G1 X50.851 Y51.419 E59.30629
G1 X51.438 Y50.711 E59.32488
G1 X51.477 Y50.664 E59.32610
G1 X51.766 Y50.950 F6000.000
G1 X60.762 Y43.278 F1350.000 E59.56497
G1 X61.546 Y42.815 E59.58336
G1 X74.513 Y37.918 E59.86341
G1 X79.055 Y41.058 E59.97497
G1 X79.055 Y47.505 E60.10524
G1 X79.185 Y48.244 E60.12040
G1 X79.336 Y48.505 E60.12648
G1 X79.566 Y48.698 E60.13257
G1 X79.849 Y48.801 E60.13865
G1 X80.151 Y48.801 E60.14474
G1 X80.434 Y48.698 E60.15083
G1 X80.664 Y48.505 E60.15691
G1 X80.815 Y48.244 E60.16300
G1 X80.945 Y47.505 E60.17816
G1 X80.945 Y41.058 E60.30842
G1 X85.487 Y37.918 E60.41998
G1 X98.454 Y42.815 E60.70003
G1 X99.238 Y43.278 E60.71843
G1 X108.234 Y50.950 E60.95729
G1 X108.815 Y51.651 E60.97568
G1 X114.686 Y61.912 E61.21455
G1 X114.996 Y62.768 E61.23294
G1 X117.050 Y74.411 E61.47181
G1 X117.052 Y75.321 E61.49020
G1 X114.705 Y88.971 E61.77004
G1 X109.730 Y91.304 E61.88107
G1 X104.484 Y88.275 E62.00345
G1 X103.779 Y88.019 E62.01861
G1 X103.478 Y88.019 E62.02469
G1 X103.195 Y88.122 E62.03078
G1 X102.964 Y88.315 E62.03687
G1 X102.813 Y88.576 E62.04295
G1 X102.761 Y88.873 E62.04904
G1 X102.813 Y89.170 E62.05512
G1 X102.964 Y89.430 E62.06121
G1 X103.539 Y89.913 E62.07637
G1 X108.719 Y92.903 E62.19721
G1 X109.153 Y98.426 E62.30915
G1 X98.494 Y107.056 E62.58624
G1 X97.711 Y107.495 E62.60438
G1 X86.717 Y111.388 E62.84003
G1 X85.832 Y111.540 E62.85817
G1 X74.169 Y111.540 E63.09382
G1 X73.284 Y111.388 E63.11196
G1 X62.289 Y107.495 E63.34760
G1 X61.506 Y107.056 E63.36575
