; generated by Slic3r 0.9.7 on 2014-12-30 at 18:58:13

; layer_height = 0.3
; perimeters = 3
; top_solid_layers = 4
; bottom_solid_layers = 3
; fill_density = 0.2
; perimeter_speed = 30
; infill_speed = 30
; travel_speed = 100
; scale = 1
; nozzle_diameter = .35
; filament_diameter = 1.75
; extrusion_multiplier = 0.8
; perimeters extrusion width = 0.42mm
; infill extrusion width = 0.42mm
; first layer extrusion width = 0.42mm

M107
M190 S95 ; wait for bed temperature to be reached
M104 S195 ; set temperature
G21; set mm units
G28 ;home all axis
G90; set absolute coordinates
G92 E0; reset extruder distance
;M104 S195; set extruder temp and start heating
G1 Z5 F300 ;move platform down 5mm
G1 X145 Y145 F3000 ; move to back right corner
;M109 S195; wait for extruder temp to be reached
G1 Z50% F200 ;move platform close to nozzle
;G1 E7; extruder anchor
G1 F3000; Set Feed rate for first move
G92 E0; reset extrusion distance
G90 ; use absolute coordinates
G21 ; set units to millimeters
G92 E0
M82 ; use absolute distances for extrusion
G1 F4500.000 E-1.00000
G92 E0
G1 Z0.150 F6000.000
G1 X26.576 Y28.356
G1 F4500.000 E1.00000
G1 X33.546 Y21.396 F1350.000 E1.19901
G1 X33.936 Y21.066 E1.20934
G1 X34.356 Y20.766 E1.21976
G1 X35.026 Y20.386 E1.23533
G1 X35.496 Y20.186 E1.24565
G1 X35.976 Y20.016 E1.25594
G1 X36.226 Y19.946 E1.26118
G1 X36.726 Y19.846 E1.27148
G1 X36.986 Y19.806 E1.27680
G1 X37.496 Y19.766 E1.28713
G1 X38.006 Y19.766 E1.29744
G1 X38.516 Y19.806 E1.30777
G1 X39.026 Y19.896 E1.31824
G1 X39.526 Y20.016 E1.32863
G1 X40.246 Y20.286 E1.34416
G1 X40.706 Y20.506 E1.35447
G1 X40.926 Y20.636 E1.35963
G1 X41.356 Y20.916 E1.37000
G1 X41.766 Y21.236 E1.38050
G1 X41.956 Y21.406 E1.38565
G1 X133.946 Y113.386 E4.01398
G1 X134.436 Y113.986 E4.02963
G1 X134.716 Y114.416 E4.04000
G1 X134.846 Y114.636 E4.04516
G1 X135.166 Y115.336 E4.06071
G1 X135.336 Y115.826 E4.07119
G1 X135.456 Y116.316 E4.08138
G1 X135.546 Y116.826 E4.09184
G1 X135.586 Y117.336 E4.10218
G1 X135.586 Y117.856 E4.11269
G1 X135.546 Y118.366 E4.12302
G1 X135.456 Y118.876 E4.13349
G1 X135.256 Y119.616 E4.14897
G1 X135.066 Y120.096 E4.15940
G1 X134.846 Y120.556 E4.16971
G1 X134.716 Y120.776 E4.17487
G1 X134.436 Y121.206 E4.18524
G1 X133.946 Y121.806 E4.20089
G1 X126.806 Y128.946 E4.40490
G1 X126.416 Y129.276 E4.41522
G1 X125.996 Y129.576 E4.42565
G1 X125.556 Y129.846 E4.43608
G1 X125.096 Y130.066 E4.44639
G1 X124.366 Y130.336 E4.46211
G1 X123.876 Y130.456 E4.47230
G1 X123.366 Y130.546 E4.48277
G1 X122.856 Y130.586 E4.49310
G1 X122.336 Y130.586 E4.50361
G1 X121.826 Y130.546 E4.51395
G1 X121.316 Y130.456 E4.52441
G1 X120.826 Y130.336 E4.53460
G1 X120.096 Y130.066 E4.55033
G1 X119.636 Y129.846 E4.56063
G1 X119.416 Y129.716 E4.56579
G1 X118.986 Y129.436 E4.57616
G1 X118.576 Y129.116 E4.58667
G1 X118.386 Y128.946 E4.59182
G1 X26.406 Y36.956 E7.22014
G1 X25.916 Y36.356 E7.23579
G1 X25.636 Y35.926 E7.24616
G1 X25.506 Y35.706 E7.25132
G1 X25.286 Y35.246 E7.26163
G1 X25.096 Y34.766 E7.27206
G1 X25.016 Y34.526 E7.27717
G1 X24.896 Y34.026 E7.28756
G1 X24.806 Y33.516 E7.29802
G1 X24.766 Y33.006 E7.30836
G1 X24.766 Y32.496 E7.31866
G1 X24.806 Y31.986 E7.32900
G1 X24.946 Y31.226 E7.34461
G1 X25.096 Y30.736 E7.35496
G1 X25.286 Y30.256 E7.36539
G1 X25.506 Y29.796 E7.37570
G1 X25.766 Y29.356 E7.38602
G1 X26.226 Y28.736 E7.40162
G1 X26.534 Y28.400 E7.41083
G1 X26.576 Y28.356 E7.41206
G1 X26.866 Y28.646 F6000.000
G1 X30.916 Y24.576 F1350.000 E7.52807
G1 X33.826 Y21.686 E7.61093
G1 X34.216 Y21.356 E7.62125
G1 X34.846 Y20.936 E7.63655
G1 X35.296 Y20.706 E7.64676
G1 X35.766 Y20.516 E7.65700
G1 X36.246 Y20.366 E7.66716
G1 X36.996 Y20.216 E7.68262
G1 X37.246 Y20.186 E7.68770
G1 X37.756 Y20.166 E7.69802
G1 X38.256 Y20.186 E7.70813
G1 X38.506 Y20.216 E7.71321
G1 X39.256 Y20.366 E7.72867
G1 X39.976 Y20.606 E7.74400
G1 X40.656 Y20.946 E7.75936
G1 X40.866 Y21.076 E7.76435
G1 X41.286 Y21.366 E7.77467
G1 X41.676 Y21.696 E7.78499
G1 X133.656 Y113.666 E10.41302
G1 X133.986 Y114.056 E10.42335
G1 X134.406 Y114.686 E10.43864
G1 X134.646 Y115.136 E10.44895
G1 X134.836 Y115.606 E10.45919
G1 X134.986 Y116.096 E10.46954
G1 X135.096 Y116.586 E10.47969
G1 X135.166 Y117.086 E10.48989
G1 X135.186 Y117.596 E10.50020
G1 X135.166 Y118.106 E10.51052
G1 X135.096 Y118.606 E10.52072
G1 X134.916 Y119.346 E10.53610
G1 X134.746 Y119.816 E10.54620
G1 X134.646 Y120.056 E10.55146
G1 X134.276 Y120.716 E10.56674
G1 X133.986 Y121.136 E10.57705
G1 X133.486 Y121.706 E10.59237
G1 X126.526 Y128.656 E10.79110
G1 X126.136 Y128.986 E10.80142
G1 X125.926 Y129.136 E10.80664
G1 X125.496 Y129.406 E10.81690
G1 X125.056 Y129.646 E10.82702
G1 X124.346 Y129.916 E10.84237
G1 X123.856 Y130.046 E10.85261
G1 X123.356 Y130.136 E10.86288
G1 X123.106 Y130.166 E10.86797
G1 X122.596 Y130.186 E10.87828
G1 X122.086 Y130.166 E10.88859
G1 X121.836 Y130.136 E10.89368
G1 X121.336 Y130.046 E10.90394
G1 X120.846 Y129.916 E10.91418
G1 X120.136 Y129.646 E10.92953
G1 X119.686 Y129.406 E10.93984
G1 X119.266 Y129.136 E10.94992
G1 X119.056 Y128.986 E10.95514
G1 X118.666 Y128.656 E10.96546
G1 X26.696 Y36.676 E13.59350
G1 X26.366 Y36.286 E13.60382
G1 X25.946 Y35.656 E13.61912
G1 X25.706 Y35.206 E13.62942
G1 X25.516 Y34.736 E13.63966
G1 X25.366 Y34.256 E13.64982
G1 X25.256 Y33.756 E13.66017
G1 X25.186 Y33.256 E13.67037
G1 X25.166 Y32.746 E13.68068
G1 X25.186 Y32.246 E13.69079
G1 X25.256 Y31.746 E13.70099
G1 X25.366 Y31.246 E13.71134
G1 X25.606 Y30.526 E13.72667
G1 X25.816 Y30.066 E13.73689
G1 X26.076 Y29.626 E13.74721
G1 X26.516 Y29.016 E13.76241
G1 X26.823 Y28.689 E13.77147
G1 X26.866 Y28.646 E13.77270
G1 X27.146 Y28.926 F6000.000
G1 X34.106 Y21.976 F1350.000 E13.97143
G1 X34.286 Y21.816 E13.97629
G1 X34.676 Y21.526 E13.98611
G1 X35.296 Y21.156 E14.00070
G1 X35.736 Y20.956 E14.01047
G1 X36.196 Y20.796 E14.02031
G1 X36.666 Y20.676 E14.03011
G1 X36.906 Y20.636 E14.03502
G1 X37.626 Y20.576 E14.04962
G1 X38.116 Y20.586 E14.05952
G1 X38.596 Y20.636 E14.06927
G1 X39.306 Y20.796 E14.08398
G1 X39.756 Y20.956 E14.09363
G1 X40.206 Y21.156 E14.10358
G1 X40.626 Y21.396 E14.11335
G1 X41.016 Y21.676 E14.12305
G1 X41.396 Y21.986 E14.13296
G1 X133.366 Y113.946 E16.76071
G1 X133.676 Y114.326 E16.77062
G1 X133.956 Y114.716 E16.78032
G1 X134.196 Y115.146 E16.79027
G1 X134.396 Y115.586 E16.80003
G1 X134.556 Y116.046 E16.80987
G1 X134.676 Y116.516 E16.81967
G1 X134.746 Y116.986 E16.82928
G1 X134.776 Y117.476 E16.83919
G1 X134.746 Y118.206 E16.85396
G1 X134.676 Y118.676 E16.86356
G1 X134.556 Y119.146 E16.87336
G1 X134.396 Y119.606 E16.88320
G1 X134.196 Y120.046 E16.89296
G1 X133.956 Y120.476 E16.90291
G1 X133.676 Y120.866 E16.91261
G1 X133.366 Y121.246 E16.92252
G1 X126.246 Y128.366 E17.12596
G1 X125.866 Y128.676 E17.13587
G1 X125.476 Y128.956 E17.14557
G1 X125.046 Y129.196 E17.15552
G1 X124.606 Y129.396 E17.16529
G1 X124.146 Y129.556 E17.17513
G1 X123.446 Y129.716 E17.18963
G1 X122.716 Y129.776 E17.20443
G1 X122.236 Y129.766 E17.21413
G1 X121.746 Y129.716 E17.22409
G1 X121.046 Y129.556 E17.23859
G1 X120.586 Y129.396 E17.24843
G1 X120.146 Y129.196 E17.25820
G1 X119.716 Y128.956 E17.26815
G1 X119.326 Y128.676 E17.27785
G1 X118.946 Y128.366 E17.28776
G1 X26.986 Y36.396 E19.91551
G1 X26.676 Y36.016 E19.92542
G1 X26.396 Y35.626 E19.93512
G1 X26.156 Y35.196 E19.94507
G1 X25.956 Y34.756 E19.95483
G1 X25.796 Y34.306 E19.96448
G1 X25.636 Y33.596 E19.97919
G1 X25.586 Y33.116 E19.98894
G1 X25.576 Y32.626 E19.99884
G1 X25.606 Y32.146 E20.00856
G1 X25.676 Y31.666 E20.01836
G1 X25.796 Y31.196 E20.02816
G1 X25.956 Y30.736 E20.03800
G1 X26.156 Y30.296 E20.04776
G1 X26.526 Y29.676 E20.06235
G1 X26.826 Y29.286 E20.07229
G1 X27.105 Y28.971 E20.08080
G1 X27.146 Y28.926 E20.08202
G1 F4500.000 E19.08202
G92 E0
G1 X32.122 Y32.750 F6000.000
G1 F4500.000 E1.00000
G1 X37.750 Y27.122 F1350.000 E1.16083
G1 X128.232 Y117.603 E3.74619
G1 X122.603 Y123.232 E3.90702
G1 X32.165 Y32.793 E6.49115
G1 X32.122 Y32.750 E6.49238
G1 X31.549 Y32.750 F6000.000
G1 X37.750 Y26.549 F1350.000 E6.66957
G1 X128.805 Y117.603 E9.27130
G1 X122.603 Y123.805 E9.44849
G1 X31.592 Y32.793 E12.04899
G1 X31.549 Y32.750 E12.05022
G1 X31.258 Y32.469 F6000.000
G1 X37.750 Y25.976 F1350.000 E12.23573
G1 X129.377 Y117.603 E14.85382
G1 X122.603 Y124.377 E15.04738
G1 X30.976 Y32.750 E17.66547
G1 X31.215 Y32.512 E17.67228
G1 X31.258 Y32.469 E17.67351
G1 X31.664 Y32.360 F6000.000
G1 F4500.000 E16.67351
G92 E0
G1 X122.732 Y122.788 F6000.000
G1 F4500.000 E1.00000
G1 X32.566 Y32.621 F1350.000 E3.67574
G1 X32.863 Y32.324 E3.68457
G1 X123.030 Y122.491 E6.36031
G1 X123.327 Y122.193 E6.36913
G1 X33.160 Y32.027 E9.04487
G1 X33.458 Y31.729 E9.05370
G1 X123.625 Y121.896 E11.72944
G1 X123.922 Y121.599 E11.73827
G1 X33.755 Y31.432 E14.41401
G1 X34.053 Y31.134 E14.42283
G1 X124.219 Y121.301 E17.09858
G1 X124.517 Y121.004 E17.10740
G1 X34.350 Y30.837 E19.78314
G1 X34.647 Y30.540 E19.79197
G1 X124.814 Y120.706 E22.46771
G1 X125.112 Y120.409 E22.47654
G1 X34.945 Y30.242 E25.15228
G1 X35.242 Y29.945 E25.16110
G1 X125.409 Y120.112 E27.83684
G1 X125.706 Y119.814 E27.84567
G1 X35.540 Y29.647 E30.52141
G1 X35.837 Y29.350 E30.53024
G1 X126.004 Y119.517 E33.20598
G1 X126.301 Y119.219 E33.21480
G1 X36.134 Y29.053 E35.89054
G1 X36.432 Y28.755 E35.89937
G1 X126.599 Y118.922 E38.57511
G1 X126.896 Y118.625 E38.58393
G1 X36.729 Y28.458 E41.25968
G1 X37.027 Y28.160 E41.26850
G1 X127.193 Y118.327 E43.94424
G1 X127.491 Y118.030 E43.95307
G1 X37.324 Y27.863 E46.62881
G1 X37.621 Y27.566 E46.63764
G1 X127.788 Y117.732 E49.31338
M106 S89
G1 F4500.000 E48.31338
G92 E0
G1 Z0.450 F6000.000
G1 X133.766 Y113.206
G1 F4500.000 E1.00000
G1 X134.116 Y113.576 F1800.000 E1.02058
G1 X134.436 Y113.986 E1.04160
G1 X134.846 Y114.636 E1.07265
G1 X135.066 Y115.096 E1.09326
G1 X135.336 Y115.826 E1.12471
G1 X135.456 Y116.316 E1.14509
G1 X135.546 Y116.826 E1.16602
G1 X135.586 Y117.336 E1.18669
G1 X135.586 Y117.856 E1.20770
G1 X135.546 Y118.366 E1.22838
G1 X135.456 Y118.876 E1.24930
G1 X135.256 Y119.616 E1.28028
G1 X135.066 Y120.096 E1.30114
G1 X134.846 Y120.556 E1.32174
G1 X134.716 Y120.776 E1.33207
G1 X134.436 Y121.206 E1.35280
G1 X133.946 Y121.806 E1.38411
G1 X126.806 Y128.946 E1.79214
G1 X126.416 Y129.276 E1.81278
G1 X125.996 Y129.576 E1.83364
G1 X125.556 Y129.846 E1.85450
G1 X125.096 Y130.066 E1.87510
G1 X124.366 Y130.336 E1.90655
G1 X123.876 Y130.456 E1.92694
G1 X123.366 Y130.546 E1.94787
G1 X122.856 Y130.586 E1.96854
G1 X122.336 Y130.586 E1.98955
G1 X121.826 Y130.546 E2.01022
G1 X121.576 Y130.506 E2.02045
G1 X121.066 Y130.396 E2.04153
G1 X120.576 Y130.256 E2.06213
G1 X120.096 Y130.066 E2.08299
G1 X119.636 Y129.846 E2.10359
G1 X118.986 Y129.436 E2.13465
G1 X118.386 Y128.946 E2.16595
G1 X26.406 Y36.956 E7.42259
G1 X25.916 Y36.356 E7.45390
G1 X25.636 Y35.926 E7.47463
G1 X25.506 Y35.706 E7.48496
G1 X25.286 Y35.246 E7.50556
G1 X25.096 Y34.766 E7.52642
G1 X25.016 Y34.526 E7.53665
G1 X24.896 Y34.026 E7.55742
G1 X24.806 Y33.516 E7.57835
G1 X24.766 Y33.006 E7.59902
G1 X24.766 Y32.496 E7.61963
G1 X24.806 Y31.986 E7.64030
G1 X24.946 Y31.226 E7.67153
G1 X25.096 Y30.736 E7.69224
G1 X25.386 Y30.026 E7.72323
G1 X25.636 Y29.566 E7.74438
G1 X25.916 Y29.136 E7.76512
G1 X26.226 Y28.736 E7.78557
G1 X26.576 Y28.356 E7.80645
G1 X33.546 Y21.396 E8.20447
G1 X33.936 Y21.066 E8.22512
G1 X34.356 Y20.766 E8.24597
G1 X35.026 Y20.386 E8.27710
G1 X35.496 Y20.186 E8.29774
G1 X35.976 Y20.016 E8.31832
G1 X36.226 Y19.946 E8.32881
G1 X36.726 Y19.846 E8.34941
G1 X36.986 Y19.806 E8.36004
G1 X37.496 Y19.766 E8.38071
G1 X38.006 Y19.766 E8.40132
G1 X38.516 Y19.806 E8.42199
G1 X39.026 Y19.896 E8.44292
G1 X39.526 Y20.016 E8.46370
G1 X40.006 Y20.186 E8.48427
G1 X40.706 Y20.506 E8.51538
G1 X41.146 Y20.776 E8.53624
G1 X41.566 Y21.076 E8.55709
G1 X41.956 Y21.406 E8.57774
G1 X133.723 Y113.163 E13.82164
G1 X133.766 Y113.206 E13.82410
G1 X133.486 Y113.486 F6000.000
G1 X133.986 Y114.056 F1800.000 E13.85473
G1 X134.136 Y114.266 E13.86516
G1 X134.406 Y114.686 E13.88534
G1 X134.646 Y115.136 E13.90595
G1 X134.746 Y115.376 E13.91645
G1 X134.916 Y115.846 E13.93665
G1 X135.096 Y116.586 E13.96742
G1 X135.166 Y117.086 E13.98783
G1 X135.186 Y117.596 E14.00845
G1 X135.166 Y118.106 E14.02907
G1 X135.096 Y118.606 E14.04948
G1 X134.916 Y119.346 E14.08025
G1 X134.746 Y119.816 E14.10045
G1 X134.646 Y120.056 E14.11095
G1 X134.276 Y120.716 E14.14153
G1 X133.986 Y121.136 E14.16215
G1 X133.486 Y121.706 E14.19279
G1 X126.526 Y128.656 E14.59025
G1 X126.136 Y128.986 E14.61089
G1 X125.926 Y129.136 E14.62132
G1 X125.496 Y129.406 E14.64184
G1 X125.056 Y129.646 E14.66209
G1 X124.346 Y129.916 E14.69278
G1 X123.856 Y130.046 E14.71327
G1 X123.356 Y130.136 E14.73380
G1 X123.106 Y130.166 E14.74397
G1 X122.596 Y130.186 E14.76460
G1 X122.086 Y130.166 E14.78522
G1 X121.586 Y130.096 E14.80562
G1 X120.846 Y129.916 E14.83640
G1 X120.136 Y129.646 E14.86709
G1 X119.686 Y129.406 E14.88770
G1 X119.266 Y129.136 E14.90788
G1 X119.056 Y128.986 E14.91831
G1 X118.486 Y128.486 E14.94894
G1 X26.696 Y36.676 E20.19502
G1 X26.366 Y36.286 E20.21566
G1 X25.946 Y35.656 E20.24626
G1 X25.706 Y35.206 E20.26687
G1 X25.516 Y34.736 E20.28735
G1 X25.366 Y34.256 E20.30767
G1 X25.256 Y33.756 E20.32836
G1 X25.186 Y33.256 E20.34876
G1 X25.166 Y32.746 E20.36939
G1 X25.186 Y32.246 E20.38961
G1 X25.256 Y31.746 E20.41001
G1 X25.366 Y31.246 E20.43069
G1 X25.606 Y30.526 E20.46136
G1 X25.816 Y30.066 E20.48180
G1 X26.076 Y29.626 E20.50245
G1 X26.516 Y29.016 E20.53284
G1 X26.686 Y28.826 E20.54314
G1 X33.646 Y21.856 E20.94117
G1 X34.216 Y21.356 E20.97181
G1 X34.846 Y20.936 E21.00241
G1 X35.066 Y20.816 E21.01253
G1 X35.766 Y20.516 E21.04331
G1 X36.246 Y20.366 E21.06363
G1 X36.746 Y20.256 E21.08432
G1 X37.246 Y20.186 E21.10472
G1 X37.756 Y20.166 E21.12534
G1 X38.256 Y20.186 E21.14556
G1 X38.756 Y20.256 E21.16596
G1 X39.256 Y20.366 E21.18665
G1 X39.976 Y20.606 E21.21732
G1 X40.656 Y20.946 E21.24804
G1 X41.286 Y21.366 E21.27864
G1 X41.856 Y21.866 E21.30928
G1 X133.443 Y113.443 E26.54289
G1 X133.486 Y113.486 E26.54535
G1 X133.196 Y113.776 F6000.000
G1 X133.526 Y114.136 F1800.000 E26.56508
G1 X133.956 Y114.716 E26.59426
G1 X134.196 Y115.146 E26.61416
G1 X134.396 Y115.586 E26.63369
G1 X134.556 Y116.046 E26.65337
G1 X134.676 Y116.516 E26.67297
G1 X134.746 Y116.986 E26.69217
G1 X134.776 Y117.476 E26.71201
G1 X134.746 Y118.206 E26.74153
G1 X134.676 Y118.676 E26.76073
G1 X134.556 Y119.146 E26.78033
G1 X134.396 Y119.606 E26.80001
G1 X134.196 Y120.046 E26.81954
G1 X133.956 Y120.476 E26.83944
G1 X133.676 Y120.866 E26.85884
G1 X133.366 Y121.246 E26.87866
G1 X126.246 Y128.366 E27.28555
G1 X125.866 Y128.676 E27.30536
G1 X125.476 Y128.956 E27.32476
G1 X125.046 Y129.196 E27.34466
G1 X124.606 Y129.396 E27.36419
G1 X124.146 Y129.556 E27.38387
G1 X123.446 Y129.716 E27.41289
G1 X122.716 Y129.776 E27.44249
G1 X122.236 Y129.766 E27.46189
G1 X121.746 Y129.716 E27.48179
G1 X121.046 Y129.556 E27.51081
G1 X120.586 Y129.396 E27.53049
G1 X120.146 Y129.196 E27.55002
G1 X119.716 Y128.956 E27.56992
G1 X119.326 Y128.676 E27.58932
G1 X118.946 Y128.366 E27.60913
G1 X26.986 Y36.396 E32.86463
G1 X26.676 Y36.016 E32.88445
G1 X26.396 Y35.626 E32.90385
G1 X26.156 Y35.196 E32.92375
G1 X25.956 Y34.756 E32.94328
G1 X25.796 Y34.306 E32.96258
G1 X25.636 Y33.596 E32.99199
G1 X25.586 Y33.116 E33.01149
G1 X25.576 Y32.626 E33.03130
G1 X25.606 Y32.146 E33.05073
G1 X25.676 Y31.666 E33.07033
G1 X25.796 Y31.196 E33.08993
G1 X25.956 Y30.736 E33.10961
G1 X26.156 Y30.296 E33.12914
G1 X26.526 Y29.676 E33.15832
G1 X26.826 Y29.286 E33.17820
G1 X27.146 Y28.926 E33.19766
G1 X34.106 Y21.976 E33.59512
G1 X34.286 Y21.816 E33.60485
