; generated by Slic3r 0.9.7 on 2014-12-30 at 18:55:22

; layer_height = 0.3
; perimeters = 3
; top_solid_layers = 4
; bottom_solid_layers = 3
; fill_density = 0.2
; perimeter_speed = 30
; infill_speed = 30
; travel_speed = 100
; scale = 1
; nozzle_diameter = .35
; filament_diameter = 1.75
; extrusion_multiplier = 0.8
; perimeters extrusion width = 0.42mm
; infill extrusion width = 0.42mm
; first layer extrusion width = 0.42mm

M107
M190 S95 ; wait for bed temperature to be reached
M104 S195 ; set temperature
G21; set mm units
G28 ;home all axis
G90; set absolute coordinates
G92 E0; reset extruder distance
;M104 S195; set extruder temp and start heating
G1 Z5 F300 ;move platform down 5mm
G1 X145 Y145 F3000 ; move to back right corner
;M109 S195; wait for extruder temp to be reached
G1 Z50% F200 ;move platform close to nozzle
;G1 E7; extruder anchor
G1 F3000; Set Feed rate for first move
G92 E0; reset extrusion distance
G90 ; use absolute coordinates
G21 ; set units to millimeters
G92 E0
M82 ; use absolute distances for extrusion
G1 F4500.000 E-1.00000
G92 E0
G1 Z0.150 F6000.000
G1 X24.440 Y64.410
G1 F4500.000 E1.00000
G1 X24.930 Y64.240 F1350.000 E1.01048
G1 X25.420 Y64.120 E1.02067
G1 X25.930 Y64.030 E1.03114
G1 X26.440 Y63.990 E1.04147
G1 X136.550 Y63.990 E3.26618
G1 X137.060 Y64.030 E3.27652
G1 X137.310 Y64.070 E3.28163
G1 X137.820 Y64.180 E3.29217
G1 X138.310 Y64.320 E3.30247
G1 X138.790 Y64.510 E3.31290
G1 X139.250 Y64.730 E3.32320
G1 X139.900 Y65.140 E3.33873
G1 X140.310 Y65.460 E3.34924
G1 X140.500 Y65.630 E3.35439
G1 X141.030 Y66.180 E3.36982
G1 X141.350 Y66.590 E3.38033
G1 X141.630 Y67.020 E3.39070
G1 X141.760 Y67.240 E3.39586
G1 X142.080 Y67.940 E3.41141
G1 X142.250 Y68.430 E3.42189
G1 X142.370 Y68.920 E3.43208
G1 X142.460 Y69.430 E3.44255
G1 X142.500 Y69.940 E3.45288
G1 X142.500 Y80.050 E3.65715
G1 X142.460 Y80.560 E3.66748
G1 X142.370 Y81.070 E3.67795
G1 X142.170 Y81.810 E3.69344
G1 X141.980 Y82.290 E3.70387
G1 X141.760 Y82.750 E3.71417
G1 X141.350 Y83.400 E3.72970
G1 X141.030 Y83.810 E3.74020
G1 X140.500 Y84.360 E3.75564
G1 X139.900 Y84.850 E3.77129
G1 X139.250 Y85.260 E3.78681
G1 X138.790 Y85.480 E3.79712
G1 X138.060 Y85.750 E3.81284
G1 X137.570 Y85.870 E3.82304
G1 X137.060 Y85.960 E3.83350
G1 X136.550 Y86.000 E3.84383
G1 X26.440 Y86.000 E6.06854
G1 X25.930 Y85.960 E6.07888
G1 X25.680 Y85.920 E6.08400
G1 X25.170 Y85.810 E6.09454
G1 X24.680 Y85.670 E6.10483
G1 X24.200 Y85.480 E6.11526
G1 X23.740 Y85.260 E6.12557
G1 X23.090 Y84.850 E6.14109
G1 X22.680 Y84.530 E6.15160
G1 X22.490 Y84.360 E6.15675
G1 X21.960 Y83.810 E6.17218
G1 X21.640 Y83.400 E6.18269
G1 X21.360 Y82.970 E6.19306
G1 X21.230 Y82.750 E6.19822
G1 X20.910 Y82.050 E6.21377
G1 X20.740 Y81.560 E6.22425
G1 X20.620 Y81.070 E6.23445
G1 X20.530 Y80.560 E6.24491
G1 X20.490 Y80.050 E6.25525
G1 X20.490 Y69.940 E6.45951
G1 X20.530 Y69.430 E6.46985
G1 X20.680 Y68.670 E6.48550
G1 X20.740 Y68.430 E6.49050
G1 X20.910 Y67.940 E6.50098
G1 X21.230 Y67.240 E6.51653
G1 X21.640 Y66.590 E6.53205
G1 X21.960 Y66.180 E6.54256
G1 X22.490 Y65.630 E6.55800
G1 X23.090 Y65.140 E6.57365
G1 X23.740 Y64.730 E6.58917
G1 X24.384 Y64.433 E6.60350
G1 X24.440 Y64.410 E6.60473
G1 X24.480 Y64.830 F6000.000
G1 X24.950 Y64.660 F1350.000 E6.61482
G1 X25.690 Y64.480 E6.63021
G1 X26.190 Y64.410 E6.64041
G1 X26.700 Y64.390 E6.65072
G1 X136.290 Y64.390 E8.86493
G1 X136.800 Y64.410 E8.87524
G1 X137.300 Y64.480 E8.88544
G1 X137.790 Y64.590 E8.89559
G1 X138.280 Y64.740 E8.90594
G1 X138.750 Y64.930 E8.91618
G1 X139.190 Y65.170 E8.92631
G1 X139.830 Y65.590 E8.94178
G1 X140.220 Y65.920 E8.95210
G1 X140.570 Y66.270 E8.96210
G1 X140.900 Y66.660 E8.97242
G1 X141.050 Y66.870 E8.97763
G1 X141.320 Y67.300 E8.98789
G1 X141.560 Y67.740 E8.99802
G1 X141.750 Y68.210 E9.00826
G1 X141.900 Y68.700 E9.01862
G1 X142.010 Y69.190 E9.02876
G1 X142.080 Y69.690 E9.03896
G1 X142.100 Y70.200 E9.04928
G1 X142.100 Y79.790 E9.24304
G1 X142.080 Y80.300 E9.25335
G1 X141.960 Y81.050 E9.26869
G1 X141.830 Y81.540 E9.27894
G1 X141.560 Y82.250 E9.29428
G1 X141.190 Y82.910 E9.30957
G1 X140.900 Y83.330 E9.31988
G1 X140.400 Y83.900 E9.33520
G1 X139.830 Y84.400 E9.35052
G1 X139.190 Y84.820 E9.36599
G1 X138.750 Y85.060 E9.37612
G1 X138.510 Y85.160 E9.38137
G1 X138.040 Y85.330 E9.39147
G1 X137.300 Y85.510 E9.40685
G1 X136.800 Y85.580 E9.41706
G1 X136.290 Y85.600 E9.42737
G1 X26.700 Y85.600 E11.64157
G1 X26.190 Y85.580 E11.65188
G1 X25.690 Y85.510 E11.66208
G1 X25.200 Y85.400 E11.67223
G1 X24.710 Y85.250 E11.68258
G1 X24.240 Y85.060 E11.69283
G1 X23.800 Y84.820 E11.70295
G1 X23.160 Y84.400 E11.71842
G1 X22.770 Y84.070 E11.72874
G1 X22.420 Y83.720 E11.73874
G1 X22.090 Y83.330 E11.74906
G1 X21.940 Y83.120 E11.75428
G1 X21.670 Y82.690 E11.76454
G1 X21.430 Y82.250 E11.77466
G1 X21.240 Y81.780 E11.78491
G1 X21.090 Y81.290 E11.79526
G1 X20.980 Y80.800 E11.80541
G1 X20.910 Y80.300 E11.81561
G1 X20.890 Y79.790 E11.82592
G1 X20.890 Y70.200 E12.01968
G1 X20.910 Y69.690 E12.02999
G1 X21.030 Y68.940 E12.04534
G1 X21.160 Y68.450 E12.05558
G1 X21.430 Y67.740 E12.07093
G1 X21.800 Y67.080 E12.08622
G1 X22.090 Y66.660 E12.09653
G1 X22.590 Y66.090 E12.11185
G1 X23.160 Y65.590 E12.12717
G1 X23.800 Y65.170 E12.14263
G1 X24.240 Y64.930 E12.15276
G1 X24.424 Y64.853 E12.15679
G1 X24.480 Y64.830 E12.15801
G1 X24.580 Y65.230 F6000.000
G1 X25.030 Y65.060 F1350.000 E12.16773
G1 X25.500 Y64.930 E12.17758
G1 X25.970 Y64.840 E12.18725
G1 X26.460 Y64.800 E12.19719
G1 X136.530 Y64.800 E14.42109
G1 X137.020 Y64.840 E14.43102
G1 X137.260 Y64.880 E14.43594
G1 X137.730 Y64.990 E14.44569
G1 X138.190 Y65.140 E14.45547
G1 X138.640 Y65.330 E14.46533
G1 X138.850 Y65.440 E14.47012
G1 X139.270 Y65.690 E14.48000
G1 X139.660 Y65.970 E14.48970
G1 X140.030 Y66.290 E14.49958
G1 X140.360 Y66.640 E14.50930
G1 X140.660 Y67.020 E14.51908
G1 X140.930 Y67.430 E14.52900
G1 X141.160 Y67.850 E14.53868
G1 X141.350 Y68.300 E14.54855
G1 X141.500 Y68.760 E14.55832
G1 X141.610 Y69.230 E14.56808
G1 X141.650 Y69.470 E14.57299
G1 X141.690 Y69.960 E14.58292
G1 X141.690 Y80.030 E14.78638
G1 X141.650 Y80.520 E14.79632
G1 X141.610 Y80.760 E14.80123
G1 X141.430 Y81.460 E14.81584
G1 X141.160 Y82.140 E14.83062
G1 X140.800 Y82.770 E14.84528
G1 X140.520 Y83.160 E14.85498
G1 X140.200 Y83.530 E14.86486
G1 X139.660 Y84.020 E14.87959
G1 X139.270 Y84.300 E14.88930
G1 X138.640 Y84.660 E14.90396
G1 X138.190 Y84.850 E14.91382
G1 X137.730 Y85.000 E14.92360
G1 X137.020 Y85.150 E14.93826
G1 X136.530 Y85.190 E14.94820
G1 X26.460 Y85.190 E17.17210
G1 X25.970 Y85.150 E17.18203
G1 X25.730 Y85.110 E17.18695
G1 X25.260 Y85.000 E17.19670
G1 X24.800 Y84.850 E17.20647
G1 X24.350 Y84.660 E17.21634
G1 X24.140 Y84.550 E17.22113
G1 X23.720 Y84.300 E17.23101
G1 X23.330 Y84.020 E17.24071
G1 X22.960 Y83.700 E17.25059
G1 X22.630 Y83.350 E17.26031
G1 X22.330 Y82.970 E17.27009
G1 X22.060 Y82.560 E17.28001
G1 X21.830 Y82.140 E17.28969
G1 X21.640 Y81.690 E17.29956
G1 X21.490 Y81.230 E17.30933
G1 X21.380 Y80.760 E17.31908
G1 X21.340 Y80.520 E17.32400
G1 X21.300 Y80.030 E17.33393
G1 X21.300 Y69.960 E17.53739
G1 X21.340 Y69.470 E17.54733
G1 X21.430 Y69.000 E17.55699
G1 X21.560 Y68.530 E17.56685
G1 X21.830 Y67.850 E17.58163
G1 X22.190 Y67.220 E17.59629
G1 X22.470 Y66.830 E17.60599
G1 X22.790 Y66.460 E17.61587
G1 X23.330 Y65.970 E17.63061
G1 X23.930 Y65.560 E17.64529
G1 X24.524 Y65.254 E17.65879
G1 X24.580 Y65.230 E17.66002
G1 F4500.000 E16.66002
G92 E0
G1 X27.520 Y71.020 F6000.000
G1 F4500.000 E1.00000
G1 X135.480 Y71.020 F1350.000 E3.18127
G1 X135.480 Y78.980 E3.34210
G1 X27.520 Y78.980 E5.52337
G1 X27.520 Y71.081 E5.68297
G1 X27.520 Y71.020 E5.68420
G1 X27.115 Y70.615 F6000.000
G1 X135.885 Y70.615 F1350.000 E7.88184
G1 X135.885 Y79.385 E8.05903
G1 X27.115 Y79.385 E10.25667
G1 X27.115 Y70.676 E10.43263
G1 X27.115 Y70.615 E10.43386
G1 X26.710 Y70.210 F6000.000
G1 X136.290 Y70.210 F1350.000 E12.64786
G1 X136.290 Y79.790 E12.84142
G1 X26.710 Y79.790 E15.05542
G1 X26.710 Y70.271 E15.24775
G1 X26.710 Y70.210 E15.24898
G1 X26.913 Y69.858 F6000.000
G1 F4500.000 E14.24898
G92 E0
G1 X28.054 Y78.704 F6000.000
G1 F4500.000 E1.00000
G1 X27.796 Y78.446 F1350.000 E1.00739
G1 X27.796 Y77.872 E1.01903
G1 X28.628 Y78.704 E1.04288
G1 X29.203 Y78.704 E1.05452
G1 X27.796 Y77.297 E1.09483
G1 X27.796 Y76.723 E1.10646
G1 X29.777 Y78.704 E1.16323
G1 X30.351 Y78.704 E1.17487
G1 X27.796 Y76.149 E1.24810
G1 X27.796 Y75.574 E1.25974
G1 X30.926 Y78.704 E1.34942
G1 X31.500 Y78.704 E1.36106
G1 X27.796 Y75.000 E1.46721
G1 X27.796 Y74.425 E1.47885
G1 X32.074 Y78.704 E1.60145
G1 X32.649 Y78.704 E1.61309
G1 X27.796 Y73.851 E1.75216
G1 X27.796 Y73.277 E1.76379
G1 X33.223 Y78.704 E1.91932
G1 X33.798 Y78.704 E1.93096
G1 X27.796 Y72.702 E2.10294
G1 X27.796 Y72.128 E2.11458
G1 X34.372 Y78.704 E2.30302
G1 X34.946 Y78.704 E2.31466
G1 X27.796 Y71.554 E2.51956
G1 X28.113 Y71.296 E2.52783
G1 X35.521 Y78.704 E2.74011
G1 X36.095 Y78.704 E2.75175
G1 X28.687 Y71.296 E2.96403
G1 X29.261 Y71.296 E2.97567
G1 X36.670 Y78.704 E3.18796
G1 X37.244 Y78.704 E3.19959
G1 X29.836 Y71.296 E3.41188
G1 X30.410 Y71.296 E3.42352
G1 X37.818 Y78.704 E3.63580
G1 X38.393 Y78.704 E3.64744
G1 X30.985 Y71.296 E3.85972
G1 X31.559 Y71.296 E3.87136
G1 X38.967 Y78.704 E4.08364
G1 X39.541 Y78.704 E4.09528
G1 X32.133 Y71.296 E4.30756
G1 X32.708 Y71.296 E4.31920
G1 X40.116 Y78.704 E4.53148
G1 X40.690 Y78.704 E4.54312
G1 X33.282 Y71.296 E4.75541
G1 X33.856 Y71.296 E4.76704
G1 X41.264 Y78.704 E4.97933
G1 X41.839 Y78.704 E4.99097
G1 X34.431 Y71.296 E5.20325
G1 X35.005 Y71.296 E5.21489
G1 X42.413 Y78.704 E5.42717
G1 X42.988 Y78.704 E5.43881
G1 X35.580 Y71.296 E5.65110
G1 X36.154 Y71.296 E5.66274
G1 X43.562 Y78.704 E5.87502
G1 X44.136 Y78.704 E5.88666
G1 X36.728 Y71.296 E6.09894
G1 X37.303 Y71.296 E6.11058
G1 X44.711 Y78.704 E6.32287
G1 X45.285 Y78.704 E6.33450
G1 X37.877 Y71.296 E6.54679
G1 X38.451 Y71.296 E6.55843
G1 X45.860 Y78.704 E6.77071
G1 X46.434 Y78.704 E6.78235
G1 X39.026 Y71.296 E6.99463
G1 X39.600 Y71.296 E7.00627
G1 X47.008 Y78.704 E7.21855
G1 X47.583 Y78.704 E7.23019
G1 X40.175 Y71.296 E7.44247
G1 X40.749 Y71.296 E7.45411
G1 X48.157 Y78.704 E7.66639
G1 X48.731 Y78.704 E7.67803
G1 X41.323 Y71.296 E7.89032
G1 X41.898 Y71.296 E7.90195
G1 X49.306 Y78.704 E8.11424
G1 X49.880 Y78.704 E8.12588
G1 X42.472 Y71.296 E8.33816
G1 X43.046 Y71.296 E8.34980
G1 X50.454 Y78.704 E8.56208
G1 X51.029 Y78.704 E8.57372
G1 X43.621 Y71.296 E8.78600
G1 X44.195 Y71.296 E8.79764
G1 X51.603 Y78.704 E9.00992
G1 X52.178 Y78.704 E9.02156
G1 X44.770 Y71.296 E9.23385
G1 X45.344 Y71.296 E9.24548
G1 X52.752 Y78.704 E9.45777
G1 X53.326 Y78.704 E9.46941
G1 X45.918 Y71.296 E9.68169
G1 X46.493 Y71.296 E9.69333
G1 X53.901 Y78.704 E9.90561
G1 X54.475 Y78.704 E9.91725
G1 X47.067 Y71.296 E10.12953
G1 X47.641 Y71.296 E10.14117
G1 X55.049 Y78.704 E10.35346
G1 X55.624 Y78.704 E10.36509
G1 X48.216 Y71.296 E10.57738
G1 X48.790 Y71.296 E10.58902
G1 X56.198 Y78.704 E10.80130
G1 X56.773 Y78.704 E10.81294
G1 X49.365 Y71.296 E11.02522
G1 X49.939 Y71.296 E11.03686
G1 X57.347 Y78.704 E11.24915
G1 X57.921 Y78.704 E11.26078
G1 X50.513 Y71.296 E11.47307
G1 X51.088 Y71.296 E11.48470
G1 X58.496 Y78.704 E11.69699
G1 X59.070 Y78.704 E11.70863
G1 X51.662 Y71.296 E11.92091
G1 X52.236 Y71.296 E11.93255
G1 X59.644 Y78.704 E12.14483
G1 X60.219 Y78.704 E12.15647
G1 X52.811 Y71.296 E12.36875
G1 X53.385 Y71.296 E12.38039
G1 X60.793 Y78.704 E12.59267
G1 X61.368 Y78.704 E12.60431
G1 X53.960 Y71.296 E12.81660
G1 X54.534 Y71.296 E12.82823
G1 X61.942 Y78.704 E13.04052
G1 X62.516 Y78.704 E13.05216
G1 X55.108 Y71.296 E13.26444
G1 X55.683 Y71.296 E13.27608
G1 X63.091 Y78.704 E13.48836
G1 X63.665 Y78.704 E13.50000
G1 X56.257 Y71.296 E13.71228
G1 X56.831 Y71.296 E13.72392
G1 X64.239 Y78.704 E13.93620
G1 X64.814 Y78.704 E13.94784
G1 X57.406 Y71.296 E14.16013
G1 X57.980 Y71.296 E14.17176
G1 X65.388 Y78.704 E14.38405
G1 X65.963 Y78.704 E14.39569
G1 X58.555 Y71.296 E14.60797
G1 X59.129 Y71.296 E14.61961
G1 X66.537 Y78.704 E14.83189
G1 X67.111 Y78.704 E14.84353
G1 X59.703 Y71.296 E15.05581
G1 X60.278 Y71.296 E15.06745
G1 X67.686 Y78.704 E15.27974
G1 X68.260 Y78.704 E15.29137
G1 X60.852 Y71.296 E15.50366
G1 X61.426 Y71.296 E15.51530
G1 X68.835 Y78.704 E15.72758
G1 X69.409 Y78.704 E15.73922
G1 X62.001 Y71.296 E15.95150
G1 X62.575 Y71.296 E15.96314
G1 X69.983 Y78.704 E16.17542
G1 X70.558 Y78.704 E16.18706
G1 X63.150 Y71.296 E16.39935
G1 X63.724 Y71.296 E16.41098
G1 X71.132 Y78.704 E16.62327
G1 X71.706 Y78.704 E16.63491
G1 X64.298 Y71.296 E16.84719
G1 X64.872 Y71.296 E16.85882
G1 X72.281 Y78.704 E17.07111
G1 X72.855 Y78.704 E17.08274
G1 X65.447 Y71.296 E17.29503
G1 X66.022 Y71.296 E17.30668
G1 X73.430 Y78.704 E17.51896
G1 X74.004 Y78.704 E17.53060
G1 X66.596 Y71.296 E17.74288
G1 X67.170 Y71.296 E17.75452
G1 X74.578 Y78.704 E17.96680
G1 X75.153 Y78.704 E17.97844
G1 X67.744 Y71.296 E18.19072
G1 X68.319 Y71.296 E18.20236
G1 X75.727 Y78.704 E18.41464
G1 X76.301 Y78.704 E18.42627
G1 X68.893 Y71.296 E18.63856
G1 X69.467 Y71.296 E18.65019
G1 X76.875 Y78.704 E18.86248
G1 X77.450 Y78.704 E18.87413
G1 X70.042 Y71.296 E19.08641
G1 X70.617 Y71.296 E19.09805
G1 X78.025 Y78.704 E19.31033
G1 X78.599 Y78.704 E19.32197
G1 X71.191 Y71.296 E19.53425
G1 X71.765 Y71.296 E19.54589
G1 X79.173 Y78.704 E19.75817
G1 X79.747 Y78.704 E19.76981
G1 X72.339 Y71.296 E19.98209
G1 X72.914 Y71.296 E19.99373
G1 X80.322 Y78.704 E20.20601
G1 X80.896 Y78.704 E20.21765
G1 X73.488 Y71.296 E20.42993
G1 X74.063 Y71.296 E20.44158
G1 X81.471 Y78.704 E20.65386
G1 X82.045 Y78.704 E20.66550
G1 X74.637 Y71.296 E20.87779
G1 X75.211 Y71.296 E20.88942
G1 X82.620 Y78.704 E21.10170
G1 X83.194 Y78.704 E21.11334
G1 X75.786 Y71.296 E21.32563
G1 X76.360 Y71.296 E21.33726
G1 X83.768 Y78.704 E21.54955
G1 X84.342 Y78.704 E21.56118
G1 X76.934 Y71.296 E21.77347
G1 X77.509 Y71.296 E21.78510
G1 X84.917 Y78.704 E21.99739
G1 X85.492 Y78.704 E22.00904
G1 X78.084 Y71.296 E22.22132
G1 X78.658 Y71.296 E22.23296
G1 X86.066 Y78.704 E22.44524
G1 X86.640 Y78.704 E22.45688
G1 X79.232 Y71.296 E22.66916
G1 X79.806 Y71.296 E22.68079
G1 X87.214 Y78.704 E22.89308
G1 X87.789 Y78.704 E22.90471
G1 X80.381 Y71.296 E23.11700
G1 X80.955 Y71.296 E23.12863
G1 X88.363 Y78.704 E23.34092
G1 X88.938 Y78.704 E23.35257
G1 X81.530 Y71.296 E23.56485
G1 X82.104 Y71.296 E23.57649
G1 X89.512 Y78.704 E23.78877
G1 X90.086 Y78.704 E23.80041
G1 X82.678 Y71.296 E24.01269
G1 X83.253 Y71.296 E24.02433
G1 X90.661 Y78.704 E24.23661
G1 X91.235 Y78.704 E24.24825
G1 X83.827 Y71.296 E24.46053
G1 X84.401 Y71.296 E24.47217
G1 X91.809 Y78.704 E24.68445
G1 X92.384 Y78.704 E24.69609
G1 X84.975 Y71.296 E24.90837
G1 X85.550 Y71.296 E24.92002
G1 X92.959 Y78.704 E25.13231
G1 X93.533 Y78.704 E25.14394
G1 X86.125 Y71.296 E25.35623
G1 X86.699 Y71.296 E25.36786
G1 X94.107 Y78.704 E25.58015
G1 X94.681 Y78.704 E25.59178
G1 X87.273 Y71.296 E25.80407
G1 X87.848 Y71.296 E25.81570
G1 X95.256 Y78.704 E26.02799
G1 X95.830 Y78.704 E26.03962
G1 X88.422 Y71.296 E26.25190
G1 X88.996 Y71.296 E26.26354
G1 X96.404 Y78.704 E26.47582
G1 X96.979 Y78.704 E26.48747
G1 X89.571 Y71.296 E26.69976
G1 X90.145 Y71.296 E26.71139
G1 X97.553 Y78.704 E26.92368
G1 X98.128 Y78.704 E26.93531
G1 X90.720 Y71.296 E27.14760
G1 X91.294 Y71.296 E27.15923
G1 X98.702 Y78.704 E27.37152
G1 X99.276 Y78.704 E27.38315
G1 X91.868 Y71.296 E27.59544
G1 X92.442 Y71.296 E27.60707
G1 X99.851 Y78.704 E27.81935
G1 X100.425 Y78.704 E27.83099
G1 X93.017 Y71.296 E28.04327
G1 X93.592 Y71.296 E28.05492
G1 X101.000 Y78.704 E28.26721
G1 X101.574 Y78.704 E28.27884
G1 X94.166 Y71.296 E28.49113
G1 X94.740 Y71.296 E28.50277
