; generated by Slic3r 0.9.7 on 2014-12-30 at 18:52:18

; layer_height = 0.3
; perimeters = 3
; top_solid_layers = 4
; bottom_solid_layers = 3
; fill_density = 0.2
; perimeter_speed = 30
; infill_speed = 30
; travel_speed = 100
; scale = 1
; nozzle_diameter = .35
; filament_diameter = 1.75
; extrusion_multiplier = 0.8
; perimeters extrusion width = 0.42mm
; infill extrusion width = 0.42mm
; first layer extrusion width = 0.42mm

M107
M190 S95 ; wait for bed temperature to be reached
M104 S195 ; set temperature
G21; set mm units
G28 ;home all axis
G90; set absolute coordinates
G92 E0; reset extruder distance
;M104 S195; set extruder temp and start heating
G1 Z5 F300 ;move platform down 5mm
G1 X145 Y145 F3000 ; move to back right corner
;M109 S195; wait for extruder temp to be reached
G1 Z50% F200 ;move platform close to nozzle
;G1 E7; extruder anchor
G1 F3000; Set Feed rate for first move
G92 E0; reset extrusion distance
G90 ; use absolute coordinates
G21 ; set units to millimeters
G92 E0
M82 ; use absolute distances for extrusion
G1 F4500.000 E-1.00000
G92 E0
G1 Z0.150 F6000.000
G1 X33.740 Y64.730
G1 F4500.000 E1.00000
G1 X34.440 Y64.410 F1350.000 E1.01555
G1 X34.930 Y64.240 E1.02603
G1 X35.680 Y64.070 E1.04157
G1 X35.930 Y64.030 E1.04668
G1 X36.440 Y63.990 E1.05702
G1 X126.550 Y63.990 E2.87764
G1 X127.060 Y64.030 E2.88798
G1 X127.570 Y64.120 E2.89844
G1 X128.310 Y64.320 E2.91393
G1 X128.790 Y64.510 E2.92436
G1 X129.250 Y64.730 E2.93466
G1 X129.690 Y65.000 E2.94509
G1 X130.110 Y65.300 E2.95552
G1 X130.500 Y65.630 E2.96584
G1 X130.860 Y65.990 E2.97613
G1 X131.190 Y66.380 E2.98645
G1 X131.490 Y66.800 E2.99688
G1 X131.760 Y67.240 E3.00731
G1 X131.980 Y67.700 E3.01761
G1 X132.250 Y68.430 E3.03334
G1 X132.370 Y68.920 E3.04353
G1 X132.460 Y69.430 E3.05399
G1 X132.500 Y69.940 E3.06433
G1 X132.500 Y80.050 E3.26859
G1 X132.460 Y80.560 E3.27893
G1 X132.420 Y80.810 E3.28405
G1 X132.250 Y81.560 E3.29958
G1 X132.080 Y82.050 E3.31006
G1 X131.760 Y82.750 E3.32561
G1 X131.350 Y83.400 E3.34114
G1 X131.030 Y83.810 E3.35165
G1 X130.500 Y84.360 E3.36708
G1 X129.900 Y84.850 E3.38273
G1 X129.470 Y85.130 E3.39310
G1 X129.250 Y85.260 E3.39826
G1 X128.790 Y85.480 E3.40856
G1 X128.060 Y85.750 E3.42429
G1 X127.310 Y85.920 E3.43983
G1 X127.060 Y85.960 E3.44494
G1 X126.550 Y86.000 E3.45528
G1 X36.440 Y86.000 E5.27590
G1 X35.930 Y85.960 E5.28624
G1 X35.420 Y85.870 E5.29670
G1 X34.680 Y85.670 E5.31219
G1 X34.200 Y85.480 E5.32262
G1 X33.740 Y85.260 E5.33292
G1 X33.300 Y84.990 E5.34335
G1 X32.880 Y84.690 E5.35378
G1 X32.490 Y84.360 E5.36410
G1 X32.130 Y84.000 E5.37439
G1 X31.800 Y83.610 E5.38471
G1 X31.500 Y83.190 E5.39514
G1 X31.230 Y82.750 E5.40557
G1 X31.010 Y82.290 E5.41587
G1 X30.740 Y81.560 E5.43160
G1 X30.620 Y81.070 E5.44179
G1 X30.530 Y80.560 E5.45225
G1 X30.490 Y80.050 E5.46259
G1 X30.490 Y69.940 E5.66685
G1 X30.530 Y69.430 E5.67719
G1 X30.620 Y68.920 E5.68765
G1 X30.740 Y68.430 E5.69785
G1 X31.010 Y67.700 E5.71357
G1 X31.230 Y67.240 E5.72387
G1 X31.640 Y66.590 E5.73940
G1 X32.130 Y65.990 E5.75505
G1 X32.680 Y65.460 E5.77049
G1 X33.090 Y65.140 E5.78099
G1 X33.688 Y64.761 E5.79529
G1 X33.740 Y64.730 E5.79652
G1 X33.800 Y65.170 F6000.000
G1 X34.240 Y64.930 F1350.000 E5.80665
G1 X34.480 Y64.830 E5.81190
G1 X34.710 Y64.740 E5.81689
G1 X35.200 Y64.590 E5.82725
G1 X35.940 Y64.440 E5.84250
G1 X36.190 Y64.410 E5.84759
G1 X36.700 Y64.390 E5.85790
G1 X126.290 Y64.390 E7.66801
G1 X126.800 Y64.410 E7.67833
G1 X127.550 Y64.530 E7.69367
G1 X128.280 Y64.740 E7.70902
G1 X128.750 Y64.930 E7.71926
G1 X129.190 Y65.170 E7.72939
G1 X129.830 Y65.590 E7.74486
G1 X130.220 Y65.920 E7.75518
G1 X130.570 Y66.270 E7.76518
G1 X130.900 Y66.660 E7.77550
G1 X131.050 Y66.870 E7.78072
G1 X131.320 Y67.300 E7.79097
G1 X131.560 Y67.740 E7.80110
G1 X131.750 Y68.210 E7.81134
G1 X131.900 Y68.700 E7.82170
G1 X132.010 Y69.190 E7.83184
G1 X132.080 Y69.690 E7.84204
G1 X132.100 Y70.200 E7.85236
G1 X132.100 Y79.790 E8.04612
G1 X132.080 Y80.300 E8.05643
G1 X132.010 Y80.800 E8.06663
G1 X131.830 Y81.540 E8.08202
G1 X131.660 Y82.010 E8.09211
G1 X131.560 Y82.250 E8.09737
G1 X131.320 Y82.690 E8.10749
G1 X131.050 Y83.120 E8.11775
G1 X130.900 Y83.330 E8.12297
G1 X130.400 Y83.900 E8.13829
G1 X129.830 Y84.400 E8.15361
G1 X129.410 Y84.690 E8.16392
G1 X128.750 Y85.060 E8.17921
G1 X128.040 Y85.330 E8.19455
G1 X127.550 Y85.460 E8.20480
G1 X127.050 Y85.550 E8.21506
G1 X126.800 Y85.580 E8.22015
G1 X126.290 Y85.600 E8.23046
G1 X36.700 Y85.600 E10.04057
G1 X36.190 Y85.580 E10.05089
G1 X35.440 Y85.460 E10.06623
G1 X34.710 Y85.250 E10.08158
G1 X34.240 Y85.060 E10.09182
G1 X33.800 Y84.820 E10.10195
G1 X33.160 Y84.400 E10.11742
G1 X32.770 Y84.070 E10.12774
G1 X32.420 Y83.720 E10.13774
G1 X32.090 Y83.330 E10.14806
G1 X31.940 Y83.120 E10.15327
G1 X31.670 Y82.690 E10.16353
G1 X31.430 Y82.250 E10.17366
G1 X31.240 Y81.780 E10.18390
G1 X31.090 Y81.290 E10.19426
G1 X30.980 Y80.800 E10.20440
G1 X30.910 Y80.300 E10.21460
G1 X30.890 Y79.790 E10.22492
G1 X30.890 Y70.200 E10.41868
G1 X30.910 Y69.690 E10.42899
G1 X30.980 Y69.190 E10.43919
G1 X31.160 Y68.450 E10.45458
G1 X31.330 Y67.980 E10.46467
G1 X31.430 Y67.740 E10.46993
G1 X31.670 Y67.300 E10.48005
G1 X31.940 Y66.870 E10.49031
G1 X32.090 Y66.660 E10.49553
G1 X32.420 Y66.270 E10.50585
G1 X32.770 Y65.920 E10.51585
G1 X33.160 Y65.590 E10.52617
G1 X33.748 Y65.201 E10.54041
G1 X33.800 Y65.170 E10.54164
G1 X33.930 Y65.560 F6000.000
G1 X34.350 Y65.330 F1350.000 E10.55131
G1 X34.580 Y65.230 E10.55638
G1 X35.260 Y64.990 E10.57095
G1 X35.970 Y64.840 E10.58561
G1 X36.460 Y64.800 E10.59555
G1 X126.530 Y64.800 E12.41536
G1 X127.020 Y64.840 E12.42529
G1 X127.260 Y64.880 E12.43021
G1 X127.730 Y64.990 E12.43996
G1 X128.190 Y65.140 E12.44974
G1 X128.640 Y65.330 E12.45961
G1 X128.850 Y65.440 E12.46440
G1 X129.270 Y65.690 E12.47427
G1 X129.660 Y65.970 E12.48397
G1 X130.200 Y66.460 E12.49870
G1 X130.520 Y66.830 E12.50859
G1 X130.800 Y67.220 E12.51829
G1 X131.160 Y67.850 E12.53295
G1 X131.350 Y68.300 E12.54282
G1 X131.500 Y68.760 E12.55259
G1 X131.650 Y69.470 E12.56725
G1 X131.690 Y69.960 E12.57719
G1 X131.690 Y80.030 E12.78065
G1 X131.650 Y80.520 E12.79058
G1 X131.500 Y81.230 E12.80524
G1 X131.350 Y81.690 E12.81502
G1 X131.160 Y82.140 E12.82489
G1 X130.800 Y82.770 E12.83955
G1 X130.520 Y83.160 E12.84925
G1 X130.200 Y83.530 E12.85913
G1 X129.660 Y84.020 E12.87386
G1 X129.270 Y84.300 E12.88356
G1 X128.640 Y84.660 E12.89822
G1 X127.960 Y84.930 E12.91301
G1 X127.260 Y85.110 E12.92761
G1 X127.020 Y85.150 E12.93253
G1 X126.530 Y85.190 E12.94246
G1 X36.460 Y85.190 E14.76227
G1 X35.970 Y85.150 E14.77220
G1 X35.730 Y85.110 E14.77712
G1 X35.260 Y85.000 E14.78687
G1 X34.800 Y84.850 E14.79665
G1 X34.350 Y84.660 E14.80652
G1 X34.140 Y84.550 E14.81131
G1 X33.720 Y84.300 E14.82118
G1 X33.330 Y84.020 E14.83088
G1 X32.790 Y83.530 E14.84562
G1 X32.470 Y83.160 E14.85550
G1 X32.190 Y82.770 E14.86520
G1 X31.830 Y82.140 E14.87986
G1 X31.640 Y81.690 E14.88973
G1 X31.490 Y81.230 E14.89950
G1 X31.340 Y80.520 E14.91417
G1 X31.300 Y80.030 E14.92410
G1 X31.300 Y69.960 E15.12756
G1 X31.340 Y69.470 E15.13749
G1 X31.380 Y69.230 E15.14241
G1 X31.490 Y68.760 E15.15216
G1 X31.640 Y68.300 E15.16194
G1 X31.830 Y67.850 E15.17181
G1 X32.190 Y67.220 E15.18647
G1 X32.470 Y66.830 E15.19617
G1 X32.960 Y66.290 E15.21090
G1 X33.330 Y65.970 E15.22078
G1 X33.878 Y65.592 E15.23424
G1 X33.930 Y65.560 E15.23547
G1 F4500.000 E14.23547
G92 E0
G1 X37.520 Y71.020 F6000.000
G1 F4500.000 E1.00000
G1 X125.480 Y71.020 F1350.000 E2.77718
G1 X125.480 Y78.980 E2.93801
G1 X37.520 Y78.980 E4.71520
G1 X37.520 Y71.081 E4.87480
G1 X37.520 Y71.020 E4.87602
G1 X37.115 Y70.615 F6000.000
G1 X125.885 Y70.615 F1350.000 E6.66957
G1 X125.885 Y79.385 E6.84677
G1 X37.115 Y79.385 E8.64031
G1 X37.115 Y70.676 E8.81628
G1 X37.115 Y70.615 E8.81751
G1 X36.710 Y70.210 F6000.000
G1 X126.290 Y70.210 F1350.000 E10.62742
G1 X126.290 Y79.790 E10.82098
G1 X36.710 Y79.790 E12.63089
G1 X36.710 Y70.271 E12.82322
G1 X36.710 Y70.210 E12.82445
G1 X36.913 Y69.858 F6000.000
G1 F4500.000 E11.82445
G92 E0
G1 X38.054 Y78.704 F6000.000
G1 F4500.000 E1.00000
G1 X37.796 Y78.446 F1350.000 E1.00740
G1 X37.796 Y77.871 E1.01906
G1 X38.629 Y78.704 E1.04296
G1 X39.204 Y78.704 E1.05462
G1 X37.796 Y77.296 E1.09501
G1 X37.796 Y76.721 E1.10668
G1 X39.779 Y78.704 E1.16356
G1 X40.354 Y78.704 E1.17523
G1 X37.796 Y76.146 E1.24861
G1 X37.796 Y75.571 E1.26027
G1 X40.929 Y78.704 E1.35014
G1 X41.504 Y78.704 E1.36181
G1 X37.796 Y74.996 E1.46817
G1 X37.796 Y74.421 E1.47984
G1 X42.079 Y78.704 E1.60270
G1 X42.654 Y78.704 E1.61437
G1 X37.796 Y73.846 E1.75373
G1 X37.796 Y73.271 E1.76539
G1 X43.229 Y78.704 E1.92125
G1 X43.804 Y78.704 E1.93291
G1 X37.796 Y72.696 E2.10526
G1 X37.796 Y72.121 E2.11693
G1 X44.379 Y78.704 E2.30577
G1 X44.954 Y78.704 E2.31744
G1 X37.796 Y71.546 E2.52278
G1 X38.121 Y71.296 E2.53110
G1 X45.529 Y78.704 E2.74361
G1 X46.104 Y78.704 E2.75528
G1 X38.696 Y71.296 E2.96779
G1 X39.271 Y71.296 E2.97945
G1 X46.679 Y78.704 E3.19197
G1 X47.254 Y78.704 E3.20363
G1 X39.846 Y71.296 E3.41615
G1 X40.421 Y71.296 E3.42781
G1 X47.829 Y78.704 E3.64033
G1 X48.404 Y78.704 E3.65199
G1 X40.996 Y71.296 E3.86451
G1 X41.571 Y71.296 E3.87617
G1 X48.979 Y78.704 E4.08869
G1 X49.554 Y78.704 E4.10035
G1 X42.146 Y71.296 E4.31287
G1 X42.721 Y71.296 E4.32453
G1 X50.129 Y78.704 E4.53705
G1 X50.704 Y78.704 E4.54871
G1 X43.296 Y71.296 E4.76123
G1 X43.871 Y71.296 E4.77289
G1 X51.279 Y78.704 E4.98541
G1 X51.854 Y78.704 E4.99707
G1 X44.446 Y71.296 E5.20959
G1 X45.021 Y71.296 E5.22125
G1 X52.429 Y78.704 E5.43376
G1 X53.004 Y78.704 E5.44543
G1 X45.596 Y71.296 E5.65794
G1 X46.171 Y71.296 E5.66961
G1 X53.579 Y78.704 E5.88212
G1 X54.154 Y78.704 E5.89379
G1 X46.746 Y71.296 E6.10630
G1 X47.321 Y71.296 E6.11797
G1 X54.729 Y78.704 E6.33048
G1 X55.304 Y78.704 E6.34215
G1 X47.896 Y71.296 E6.55466
G1 X48.471 Y71.296 E6.56633
G1 X55.879 Y78.704 E6.77884
G1 X56.454 Y78.704 E6.79051
G1 X49.046 Y71.296 E7.00302
G1 X49.621 Y71.296 E7.01469
G1 X57.029 Y78.704 E7.22720
G1 X57.604 Y78.704 E7.23887
G1 X50.196 Y71.296 E7.45138
G1 X50.771 Y71.296 E7.46305
G1 X58.179 Y78.704 E7.67556
G1 X58.754 Y78.704 E7.68723
G1 X51.346 Y71.296 E7.89974
G1 X51.921 Y71.296 E7.91141
G1 X59.329 Y78.704 E8.12392
G1 X59.904 Y78.704 E8.13559
G1 X52.496 Y71.296 E8.34810
G1 X53.071 Y71.296 E8.35977
G1 X60.479 Y78.704 E8.57228
G1 X61.054 Y78.704 E8.58395
G1 X53.646 Y71.296 E8.79646
G1 X54.221 Y71.296 E8.80813
G1 X61.629 Y78.704 E9.02064
G1 X62.204 Y78.704 E9.03231
G1 X54.796 Y71.296 E9.24482
G1 X55.371 Y71.296 E9.25648
G1 X62.779 Y78.704 E9.46900
G1 X63.354 Y78.704 E9.48066
G1 X55.946 Y71.296 E9.69318
G1 X56.521 Y71.296 E9.70484
G1 X63.929 Y78.704 E9.91736
G1 X64.504 Y78.704 E9.92902
G1 X57.096 Y71.296 E10.14154
G1 X57.671 Y71.296 E10.15320
G1 X65.079 Y78.704 E10.36572
G1 X65.654 Y78.704 E10.37738
G1 X58.246 Y71.296 E10.58990
G1 X58.821 Y71.296 E10.60156
G1 X66.229 Y78.704 E10.81408
G1 X66.804 Y78.704 E10.82574
G1 X59.396 Y71.296 E11.03826
G1 X59.971 Y71.296 E11.04992
G1 X67.379 Y78.704 E11.26244
G1 X67.954 Y78.704 E11.27410
G1 X60.546 Y71.296 E11.48662
G1 X61.121 Y71.296 E11.49828
G1 X68.529 Y78.704 E11.71080
G1 X69.104 Y78.704 E11.72246
G1 X61.696 Y71.296 E11.93498
G1 X62.271 Y71.296 E11.94664
G1 X69.679 Y78.704 E12.15916
G1 X70.254 Y78.704 E12.17082
G1 X62.846 Y71.296 E12.38333
G1 X63.421 Y71.296 E12.39500
G1 X70.829 Y78.704 E12.60751
G1 X71.404 Y78.704 E12.61918
G1 X63.996 Y71.296 E12.83169
G1 X64.571 Y71.296 E12.84336
G1 X71.979 Y78.704 E13.05587
G1 X72.554 Y78.704 E13.06754
G1 X65.146 Y71.296 E13.28005
G1 X65.721 Y71.296 E13.29172
G1 X73.129 Y78.704 E13.50423
G1 X73.704 Y78.704 E13.51590
G1 X66.296 Y71.296 E13.72841
G1 X66.871 Y71.296 E13.74008
G1 X74.279 Y78.704 E13.95259
G1 X74.854 Y78.704 E13.96426
G1 X67.446 Y71.296 E14.17677
G1 X68.021 Y71.296 E14.18844
G1 X75.429 Y78.704 E14.40095
G1 X76.004 Y78.704 E14.41262
G1 X68.596 Y71.296 E14.62513
G1 X69.171 Y71.296 E14.63680
G1 X76.579 Y78.704 E14.84931
G1 X77.154 Y78.704 E14.86097
G1 X69.746 Y71.296 E15.07349
G1 X70.321 Y71.296 E15.08515
G1 X77.729 Y78.704 E15.29767
G1 X78.304 Y78.704 E15.30933
G1 X70.896 Y71.296 E15.52185
G1 X71.471 Y71.296 E15.53351
G1 X78.879 Y78.704 E15.74603
G1 X79.454 Y78.704 E15.75769
G1 X72.046 Y71.296 E15.97021
G1 X72.621 Y71.296 E15.98188
G1 X80.029 Y78.704 E16.19439
G1 X80.604 Y78.704 E16.20605
G1 X73.196 Y71.296 E16.41857
G1 X73.771 Y71.296 E16.43023
G1 X81.179 Y78.704 E16.64275
G1 X81.754 Y78.704 E16.65441
G1 X74.346 Y71.296 E16.86693
G1 X74.921 Y71.296 E16.87859
G1 X82.329 Y78.704 E17.09111
G1 X82.904 Y78.704 E17.10277
G1 X75.496 Y71.296 E17.31529
G1 X76.071 Y71.296 E17.32695
G1 X83.479 Y78.704 E17.53947
G1 X84.054 Y78.704 E17.55113
G1 X76.646 Y71.296 E17.76365
G1 X77.221 Y71.296 E17.77531
G1 X84.629 Y78.704 E17.98783
G1 X85.204 Y78.704 E17.99949
G1 X77.796 Y71.296 E18.21201
G1 X78.371 Y71.296 E18.22367
G1 X85.779 Y78.704 E18.43619
G1 X86.354 Y78.704 E18.44785
G1 X78.946 Y71.296 E18.66037
G1 X79.521 Y71.296 E18.67203
G1 X86.929 Y78.704 E18.88454
G1 X87.504 Y78.704 E18.89621
G1 X80.096 Y71.296 E19.10872
G1 X80.671 Y71.296 E19.12039
G1 X88.079 Y78.704 E19.33290
G1 X88.654 Y78.704 E19.34457
G1 X81.246 Y71.296 E19.55708
G1 X81.821 Y71.296 E19.56875
G1 X89.229 Y78.704 E19.78127
G1 X89.804 Y78.704 E19.79293
G1 X82.396 Y71.296 E20.00545
G1 X82.971 Y71.296 E20.01711
G1 X90.379 Y78.704 E20.22963
G1 X90.954 Y78.704 E20.24129
G1 X83.546 Y71.296 E20.45380
G1 X84.121 Y71.296 E20.46547
G1 X91.529 Y78.704 E20.67798
G1 X92.104 Y78.704 E20.68965
G1 X84.696 Y71.296 E20.90216
G1 X85.271 Y71.296 E20.91383
G1 X92.679 Y78.704 E21.12634
G1 X93.254 Y78.704 E21.13801
G1 X85.846 Y71.296 E21.35052
G1 X86.421 Y71.296 E21.36218
G1 X93.829 Y78.704 E21.57470
G1 X94.404 Y78.704 E21.58636
G1 X86.996 Y71.296 E21.79888
G1 X87.571 Y71.296 E21.81055
G1 X94.979 Y78.704 E22.02306
G1 X95.554 Y78.704 E22.03472
G1 X88.146 Y71.296 E22.24724
G1 X88.721 Y71.296 E22.25890
G1 X96.129 Y78.704 E22.47142
G1 X96.704 Y78.704 E22.48308
G1 X89.296 Y71.296 E22.69560
G1 X89.871 Y71.296 E22.70726
G1 X97.279 Y78.704 E22.91978
G1 X97.854 Y78.704 E22.93144
G1 X90.446 Y71.296 E23.14396
G1 X91.021 Y71.296 E23.15562
G1 X98.429 Y78.704 E23.36814
G1 X99.004 Y78.704 E23.37980
G1 X91.596 Y71.296 E23.59232
G1 X92.171 Y71.296 E23.60398
G1 X99.579 Y78.704 E23.81650
G1 X100.154 Y78.704 E23.82816
G1 X92.746 Y71.296 E24.04068
G1 X93.321 Y71.296 E24.05234
G1 X100.729 Y78.704 E24.26485
G1 X101.304 Y78.704 E24.27652
G1 X93.896 Y71.296 E24.48904
G1 X94.471 Y71.296 E24.50071
G1 X101.879 Y78.704 E24.71322
G1 X102.454 Y78.704 E24.72488
G1 X95.046 Y71.296 E24.93739
G1 X95.621 Y71.296 E24.94906
G1 X103.029 Y78.704 E25.16158
G1 X103.604 Y78.704 E25.17323
G1 X96.196 Y71.296 E25.38575
G1 X96.771 Y71.296 E25.39742
G1 X104.179 Y78.704 E25.60993
G1 X104.755 Y78.704 E25.62160
G1 X97.346 Y71.296 E25.83412
G1 X97.921 Y71.296 E25.84578
G1 X105.329 Y78.704 E26.05829
G1 X105.904 Y78.704 E26.06996
G1 X98.496 Y71.296 E26.28248
G1 X99.071 Y71.296 E26.29413
G1 X106.479 Y78.704 E26.50665
G1 X107.054 Y78.704 E26.51832
G1 X99.646 Y71.296 E26.73083
G1 X100.222 Y71.296 E26.74250
G1 X107.630 Y78.704 E26.95502
G1 X108.204 Y78.704 E26.96668
G1 X100.796 Y71.296 E27.17919
G1 X101.371 Y71.296 E27.19086
G1 X108.780 Y78.704 E27.40338
G1 X109.354 Y78.704 E27.41503
G1 X101.946 Y71.296 E27.62755
G1 X102.521 Y71.296 E27.63922
G1 X109.929 Y78.704 E27.85174
G1 X110.504 Y78.704 E27.86339
G1 X103.096 Y71.296 E28.07591
G1 X103.671 Y71.296 E28.08758
G1 X111.079 Y78.704 E28.30009
G1 X111.655 Y78.704 E28.31176
G1 X104.246 Y71.296 E28.52428
