; generated by Slic3r 0.9.7 on 2014-12-13 at 23:36:30

; layer_height = 0.3
; perimeters = 3
; top_solid_layers = 4
; bottom_solid_layers = 3
; fill_density = 0.2
; perimeter_speed = 30
; infill_speed = 30
; travel_speed = 100
; scale = 1
; nozzle_diameter = .35
; filament_diameter = 1.75
; extrusion_multiplier = 0.8
; perimeters extrusion width = 0.42mm
; infill extrusion width = 0.42mm
; first layer extrusion width = 0.42mm

M107
M190 S95 ; wait for bed temperature to be reached
M104 S195 ; set temperature
G21; set mm units
G28 ;home all axis
G90; set absolute coordinates
G92 E0; reset extruder distance
;M104 S195; set extruder temp and start heating
G1 Z5 F300 ;move platform down 5mm
G1 X145 Y145 F3000 ; move to back right corner
;M109 S195; wait for extruder temp to be reached
G1 Z50% F200 ;move platform close to nozzle
;G1 E7; extruder anchor
G1 F3000; Set Feed rate for first move
G92 E0; reset extrusion distance
G90 ; use absolute coordinates
G21 ; set units to millimeters
G92 E0
M82 ; use absolute distances for extrusion
G1 F4500.000 E-1.00000
G92 E0
G1 Z0.150 F6000.000
G1 X21.184 Y60.491
G1 F4500.000 E1.00000
G1 X138.816 Y60.491 F1350.000 E3.37668
G1 X144.509 Y66.184 E3.53937
G1 X144.509 Y83.816 E3.89561
G1 X138.816 Y89.509 E4.05829
G1 X21.184 Y89.509 E6.43498
G1 X15.491 Y83.816 E6.59766
G1 X15.491 Y66.184 E6.95390
G1 X21.141 Y60.533 E7.11536
G1 X21.184 Y60.491 E7.11659
G1 X21.352 Y60.896 F6000.000
G1 X138.648 Y60.896 F1350.000 E9.48649
G1 X144.104 Y66.352 E9.64240
G1 X144.104 Y83.648 E9.99186
G1 X138.648 Y89.104 E10.14777
G1 X21.352 Y89.104 E12.51767
G1 X15.896 Y83.648 E12.67358
G1 X15.896 Y66.352 E13.02304
G1 X21.309 Y60.938 E13.17772
G1 X21.352 Y60.896 E13.17895
G1 X21.520 Y61.300 F6000.000
G1 X138.480 Y61.300 F1350.000 E15.54207
G1 X143.700 Y66.520 E15.69120
G1 X143.700 Y83.480 E16.03388
G1 X138.480 Y88.700 E16.18301
G1 X21.520 Y88.700 E18.54614
G1 X16.300 Y83.480 E18.69527
G1 X16.300 Y66.520 E19.03795
G1 X21.477 Y61.343 E19.18585
G1 X21.520 Y61.300 E19.18708
G1 X21.687 Y61.705 F6000.000
G1 X138.313 Y61.705 F1350.000 E21.54343
G1 X143.295 Y66.687 E21.68577
G1 X143.295 Y83.313 E22.02168
G1 X138.313 Y88.295 E22.16403
G1 X21.687 Y88.295 E24.52038
G1 X16.705 Y83.313 E24.66273
G1 X16.705 Y66.687 E24.99863
G1 X21.644 Y61.748 E25.13975
G1 X21.687 Y61.705 E25.14098
G1 X21.855 Y62.110 F6000.000
G1 X138.145 Y62.110 F1350.000 E27.49055
G1 X142.890 Y66.855 E27.62612
G1 X142.890 Y83.145 E27.95525
G1 X138.145 Y87.890 E28.09082
G1 X21.855 Y87.890 E30.44039
G1 X17.110 Y83.145 E30.57596
G1 X17.110 Y66.855 E30.90509
G1 X21.812 Y62.153 E31.03943
G1 X21.855 Y62.110 E31.04066
G1 X22.023 Y62.515 F6000.000
G1 X137.977 Y62.515 F1350.000 E33.38345
G1 X142.485 Y67.023 E33.51224
G1 X142.485 Y82.977 E33.83459
G1 X137.977 Y87.485 E33.96338
G1 X22.023 Y87.485 E36.30617
G1 X17.515 Y82.977 E36.43496
G1 X17.515 Y67.023 E36.75731
G1 X21.980 Y62.558 E36.88488
G1 X22.023 Y62.515 E36.88610
G1 X22.191 Y62.920 F6000.000
G1 X137.809 Y62.920 F1350.000 E39.22212
G1 X142.080 Y67.191 E39.34413
G1 X142.080 Y82.809 E39.65970
G1 X137.809 Y87.080 E39.78171
G1 X22.191 Y87.080 E42.11773
G1 X17.920 Y82.809 E42.23974
G1 X17.920 Y67.191 E42.55531
G1 X22.148 Y62.963 E42.67610
G1 X22.191 Y62.920 E42.67732
G1 X22.358 Y63.325 F6000.000
G1 X137.642 Y63.325 F1350.000 E45.00656
G1 X141.675 Y67.358 E45.12179
G1 X141.675 Y82.642 E45.43059
G1 X137.642 Y86.675 E45.54582
G1 X22.358 Y86.675 E47.87505
G1 X18.325 Y82.642 E47.99029
G1 X18.325 Y67.358 E48.29908
G1 X22.315 Y63.368 E48.41309
G1 X22.358 Y63.325 E48.41432
G1 X22.526 Y63.730 F6000.000
G1 X137.474 Y63.730 F1350.000 E50.73677
G1 X141.270 Y67.526 E50.84523
G1 X141.270 Y82.474 E51.14724
G1 X137.474 Y86.270 E51.25570
G1 X22.526 Y86.270 E53.57815
G1 X18.730 Y82.474 E53.68661
G1 X18.730 Y67.526 E53.98862
G1 X22.483 Y63.773 E54.09585
G1 X22.526 Y63.730 E54.09708
G1 X22.694 Y64.135 F6000.000
G1 X137.306 Y64.135 F1350.000 E56.41276
G1 X140.865 Y67.694 E56.51444
G1 X140.865 Y82.306 E56.80967
G1 X137.306 Y85.865 E56.91135
G1 X22.694 Y85.865 E59.22703
G1 X19.135 Y82.306 E59.32870
G1 X19.135 Y67.694 E59.62394
G1 X22.651 Y64.178 E59.72439
G1 X22.694 Y64.135 E59.72562
G1 X22.862 Y64.540 F6000.000
G1 X137.138 Y64.540 F1350.000 E62.03452
G1 X140.460 Y67.862 E62.12941
G1 X140.460 Y82.138 E62.41787
G1 X137.138 Y85.460 E62.51277
G1 X22.862 Y85.460 E64.82167
G1 X19.540 Y82.138 E64.91657
G1 X19.540 Y67.862 E65.20503
G1 X22.819 Y64.583 E65.29870
G1 X22.862 Y64.540 E65.29992
G1 X23.029 Y64.945 F6000.000
G1 X136.971 Y64.945 F1350.000 E67.60205
G1 X140.055 Y68.029 E67.69017
G1 X140.055 Y81.971 E67.97184
G1 X136.971 Y85.055 E68.05997
G1 X23.029 Y85.055 E70.36209
G1 X19.945 Y81.971 E70.45021
G1 X19.945 Y68.029 E70.73189
G1 X22.986 Y64.988 E70.81878
G1 X23.029 Y64.945 E70.82001
G1 X23.197 Y65.350 F6000.000
G1 X136.803 Y65.350 F1350.000 E73.11535
G1 X139.650 Y68.197 E73.19669
G1 X139.650 Y81.803 E73.47159
G1 X136.803 Y84.650 E73.55293
G1 X23.197 Y84.650 E75.84827
G1 X20.350 Y81.803 E75.92962
G1 X20.350 Y68.197 E76.20452
G1 X23.154 Y65.393 E76.28463
G1 X23.197 Y65.350 E76.28586
G1 X23.365 Y65.755 F6000.000
G1 X136.635 Y65.755 F1350.000 E78.57442
G1 X139.245 Y68.365 E78.64899
G1 X139.245 Y81.635 E78.91711
G1 X136.635 Y84.245 E78.99167
G1 X23.365 Y84.245 E81.28024
G1 X20.755 Y81.635 E81.35480
G1 X20.755 Y68.365 E81.62292
G1 X23.322 Y65.798 E81.69626
G1 X23.365 Y65.755 E81.69748
G1 X23.533 Y66.160 F6000.000
G1 X136.467 Y66.160 F1350.000 E83.97927
G1 X138.840 Y68.533 E84.04705
G1 X138.840 Y81.467 E84.30840
G1 X136.467 Y83.840 E84.37618
G1 X23.533 Y83.840 E86.65797
G1 X21.160 Y81.467 E86.72575
G1 X21.160 Y68.533 E86.98710
G1 X23.490 Y66.203 E87.05365
G1 X23.533 Y66.160 E87.05488
G1 X23.700 Y66.565 F6000.000
G1 X136.300 Y66.565 F1350.000 E89.32989
G1 X138.435 Y68.700 E89.39089
G1 X138.435 Y81.300 E89.64546
G1 X136.300 Y83.435 E89.70647
G1 X23.700 Y83.435 E91.98147
G1 X21.565 Y81.300 E92.04248
G1 X21.565 Y68.700 E92.29704
G1 X23.657 Y66.608 E92.35682
G1 X23.700 Y66.565 E92.35805
G1 X23.868 Y66.970 F6000.000
G1 X136.132 Y66.970 F1350.000 E94.62628
G1 X138.030 Y68.868 E94.68051
G1 X138.030 Y81.132 E94.92829
G1 X136.132 Y83.030 E94.98252
G1 X23.868 Y83.030 E97.25075
G1 X21.970 Y81.132 E97.30498
G1 X21.970 Y68.868 E97.55276
G1 X23.825 Y67.013 E97.60576
G1 X23.868 Y66.970 E97.60699
G1 X24.036 Y67.375 F6000.000
G1 X135.964 Y67.375 F1350.000 E99.86844
G1 X137.625 Y69.036 E99.91589
G1 X137.625 Y80.964 E100.15690
G1 X135.964 Y82.625 E100.20435
G1 X24.036 Y82.625 E102.46580
G1 X22.375 Y80.964 E102.51325
G1 X22.375 Y69.036 E102.75426
G1 X23.993 Y67.418 E102.80048
G1 X24.036 Y67.375 E102.80171
G1 X24.204 Y67.780 F6000.000
G1 X135.796 Y67.780 F1350.000 E105.05638
G1 X137.220 Y69.204 E105.09705
G1 X137.220 Y80.796 E105.33128
G1 X135.796 Y82.220 E105.37195
G1 X24.204 Y82.220 E107.62662
G1 X22.780 Y80.796 E107.66729
G1 X22.780 Y69.204 E107.90152
G1 X24.161 Y67.823 E107.94096
G1 X24.204 Y67.780 E107.94219
G1 X24.371 Y68.185 F6000.000
G1 X135.629 Y68.185 F1350.000 E110.19009
G1 X136.815 Y69.371 E110.22398
G1 X136.815 Y80.629 E110.45143
G1 X135.629 Y81.815 E110.48532
G1 X24.371 Y81.815 E112.73321
G1 X23.185 Y80.629 E112.76711
G1 X23.185 Y69.371 E112.99456
G1 X24.328 Y68.228 E113.02722
G1 X24.371 Y68.185 E113.02845
G1 X24.539 Y68.590 F6000.000
G1 X135.461 Y68.590 F1350.000 E115.26957
G1 X136.410 Y69.539 E115.29668
G1 X136.410 Y80.461 E115.51735
G1 X135.461 Y81.410 E115.54447
G1 X24.539 Y81.410 E117.78558
G1 X23.590 Y80.461 E117.81269
G1 X23.590 Y69.539 E118.03337
G1 X24.496 Y68.633 E118.05925
G1 X24.539 Y68.590 E118.06048
G1 X24.707 Y68.995 F6000.000
G1 X135.293 Y68.995 F1350.000 E120.29482
G1 X136.005 Y69.707 E120.31515
G1 X136.005 Y80.293 E120.52905
G1 X135.293 Y81.005 E120.54938
G1 X24.707 Y81.005 E122.78372
G1 X23.995 Y80.293 E122.80405
G1 X23.995 Y69.707 E123.01795
G1 X24.664 Y69.038 E123.03706
G1 X24.707 Y68.995 E123.03828
G1 X24.875 Y69.400 F6000.000
G1 X135.125 Y69.400 F1350.000 E125.26584
G1 X135.600 Y69.875 E125.27940
G1 X135.600 Y80.125 E125.48651
G1 X135.125 Y80.600 E125.50007
G1 X24.875 Y80.600 E127.72763
G1 X24.400 Y80.125 E127.74119
G1 X24.400 Y69.875 E127.94830
G1 X24.832 Y69.443 E127.96063
G1 X24.875 Y69.400 E127.96186
G1 X25.042 Y69.805 F6000.000
G1 X134.958 Y69.805 F1350.000 E130.18264
G1 X135.195 Y70.042 E130.18942
G1 X135.195 Y79.958 E130.38975
G1 X134.958 Y80.195 E130.39653
G1 X25.042 Y80.195 E132.61731
G1 X24.805 Y79.958 E132.62409
G1 X24.805 Y70.042 E132.82443
G1 X24.999 Y69.848 E132.82998
G1 X25.042 Y69.805 E132.83120
G1 F4500.000 E131.83120
G92 E0
G1 X25.210 Y70.210 F6000.000
G1 F4500.000 E1.00000
G1 X134.790 Y70.210 F1350.000 E3.21400
G1 X134.790 Y79.790 E3.40756
G1 X25.210 Y79.790 E5.62156
G1 X25.210 Y70.271 E5.81389
G1 X25.210 Y70.210 E5.81512
G1 X25.615 Y70.615 F6000.000
G1 X134.385 Y70.615 F1350.000 E8.01276
G1 X134.385 Y79.385 E8.18995
G1 X25.615 Y79.385 E10.38759
G1 X25.615 Y70.676 E10.56355
G1 X25.615 Y70.615 E10.56478
G1 X26.020 Y71.020 F6000.000
G1 X133.980 Y71.020 F1350.000 E12.74605
G1 X133.980 Y78.980 E12.90688
G1 X26.020 Y78.980 E15.08815
G1 X26.020 Y71.081 E15.24775
G1 X26.020 Y71.020 E15.24898
G1 F4500.000 E14.24898
G92 E0
G1 X26.554 Y78.704 F6000.000
G1 F4500.000 E1.00000
G1 X26.296 Y78.446 F1350.000 E1.00739
G1 X26.296 Y77.872 E1.01903
G1 X27.128 Y78.704 E1.04288
G1 X27.703 Y78.704 E1.05452
G1 X26.296 Y77.297 E1.09483
G1 X26.296 Y76.723 E1.10646
G1 X28.277 Y78.704 E1.16323
G1 X28.851 Y78.704 E1.17487
G1 X26.296 Y76.149 E1.24810
G1 X26.296 Y75.574 E1.25974
G1 X29.426 Y78.704 E1.34942
G1 X30.000 Y78.704 E1.36106
G1 X26.296 Y75.000 E1.46721
G1 X26.296 Y74.425 E1.47885
G1 X30.574 Y78.704 E1.60145
G1 X31.149 Y78.704 E1.61309
G1 X26.296 Y73.851 E1.75215
G1 X26.296 Y73.277 E1.76379
G1 X31.723 Y78.704 E1.91932
G1 X32.298 Y78.704 E1.93096
G1 X26.296 Y72.702 E2.10294
G1 X26.296 Y72.128 E2.11458
G1 X32.872 Y78.704 E2.30302
G1 X33.446 Y78.704 E2.31465
G1 X26.296 Y71.554 E2.51955
G1 X26.613 Y71.296 E2.52783
G1 X34.021 Y78.704 E2.74011
G1 X34.595 Y78.704 E2.75175
G1 X27.187 Y71.296 E2.96403
G1 X27.761 Y71.296 E2.97567
G1 X35.170 Y78.704 E3.18796
G1 X35.744 Y78.704 E3.19959
G1 X28.336 Y71.296 E3.41188
G1 X28.910 Y71.296 E3.42351
G1 X36.318 Y78.704 E3.63580
G1 X36.893 Y78.704 E3.64744
G1 X29.485 Y71.296 E3.85972
G1 X30.059 Y71.296 E3.87136
G1 X37.467 Y78.704 E4.08364
G1 X38.041 Y78.704 E4.09528
G1 X30.633 Y71.296 E4.30756
G1 X31.208 Y71.296 E4.31920
G1 X38.616 Y78.704 E4.53148
G1 X39.190 Y78.704 E4.54312
G1 X31.782 Y71.296 E4.75541
G1 X32.356 Y71.296 E4.76705
G1 X39.764 Y78.704 E4.97933
G1 X40.339 Y78.704 E4.99097
G1 X32.931 Y71.296 E5.20325
G1 X33.505 Y71.296 E5.21489
G1 X40.913 Y78.704 E5.42718
G1 X41.488 Y78.704 E5.43881
G1 X34.079 Y71.296 E5.65110
G1 X34.654 Y71.296 E5.66274
G1 X42.062 Y78.704 E5.87502
G1 X42.636 Y78.704 E5.88666
G1 X35.228 Y71.296 E6.09894
G1 X35.803 Y71.296 E6.11058
G1 X43.211 Y78.704 E6.32286
G1 X43.785 Y78.704 E6.33450
G1 X36.377 Y71.296 E6.54678
G1 X36.951 Y71.296 E6.55842
G1 X44.360 Y78.704 E6.77070
G1 X44.934 Y78.704 E6.78234
G1 X37.526 Y71.296 E6.99462
G1 X38.100 Y71.296 E7.00626
G1 X45.508 Y78.704 E7.21855
G1 X46.083 Y78.704 E7.23018
G1 X38.675 Y71.296 E7.44247
G1 X39.249 Y71.296 E7.45410
G1 X46.657 Y78.704 E7.66639
G1 X47.231 Y78.704 E7.67803
G1 X39.823 Y71.296 E7.89031
G1 X40.398 Y71.296 E7.90195
G1 X47.806 Y78.704 E8.11423
G1 X48.380 Y78.704 E8.12587
G1 X40.972 Y71.296 E8.33816
G1 X41.546 Y71.296 E8.34979
G1 X48.954 Y78.704 E8.56208
G1 X49.529 Y78.704 E8.57372
G1 X42.121 Y71.296 E8.78600
G1 X42.695 Y71.296 E8.79764
G1 X50.103 Y78.704 E9.00992
G1 X50.678 Y78.704 E9.02156
G1 X43.270 Y71.296 E9.23385
G1 X43.844 Y71.296 E9.24548
G1 X51.252 Y78.704 E9.45777
G1 X51.826 Y78.704 E9.46940
G1 X44.418 Y71.296 E9.68169
G1 X44.993 Y71.296 E9.69333
G1 X52.401 Y78.704 E9.90561
G1 X52.975 Y78.704 E9.91725
G1 X45.567 Y71.296 E10.12953
G1 X46.141 Y71.296 E10.14117
G1 X53.550 Y78.704 E10.35346
G1 X54.124 Y78.704 E10.36509
G1 X46.716 Y71.296 E10.57738
G1 X47.290 Y71.296 E10.58901
G1 X54.698 Y78.704 E10.80130
G1 X55.273 Y78.704 E10.81294
G1 X47.865 Y71.296 E11.02522
G1 X48.439 Y71.296 E11.03686
G1 X55.847 Y78.704 E11.24914
G1 X56.421 Y78.704 E11.26078
G1 X49.013 Y71.296 E11.47306
G1 X49.588 Y71.296 E11.48470
G1 X56.996 Y78.704 E11.69698
G1 X57.570 Y78.704 E11.70862
G1 X50.162 Y71.296 E11.92091
G1 X50.736 Y71.296 E11.93254
G1 X58.144 Y78.704 E12.14483
G1 X58.719 Y78.704 E12.15647
G1 X51.311 Y71.296 E12.36875
G1 X51.885 Y71.296 E12.38039
G1 X59.293 Y78.704 E12.59267
G1 X59.868 Y78.704 E12.60431
G1 X52.460 Y71.296 E12.81660
G1 X53.034 Y71.296 E12.82823
G1 X60.442 Y78.704 E13.04052
G1 X61.016 Y78.704 E13.05215
G1 X53.608 Y71.296 E13.26444
G1 X54.183 Y71.296 E13.27608
G1 X61.591 Y78.704 E13.48836
G1 X62.165 Y78.704 E13.50000
G1 X54.757 Y71.296 E13.71228
G1 X55.331 Y71.296 E13.72392
G1 X62.740 Y78.704 E13.93621
G1 X63.314 Y78.704 E13.94784
G1 X55.906 Y71.296 E14.16013
G1 X56.480 Y71.296 E14.17177
G1 X63.888 Y78.704 E14.38405
G1 X64.463 Y78.704 E14.39569
G1 X57.055 Y71.296 E14.60797
G1 X57.629 Y71.296 E14.61961
G1 X65.037 Y78.704 E14.83189
G1 X65.611 Y78.704 E14.84353
G1 X58.203 Y71.296 E15.05581
G1 X58.778 Y71.296 E15.06745
G1 X66.186 Y78.704 E15.27974
G1 X66.760 Y78.704 E15.29137
G1 X59.352 Y71.296 E15.50366
G1 X59.926 Y71.296 E15.51530
G1 X67.334 Y78.704 E15.72758
G1 X67.909 Y78.704 E15.73922
G1 X60.501 Y71.296 E15.95150
G1 X61.075 Y71.296 E15.96314
G1 X68.483 Y78.704 E16.17542
G1 X69.058 Y78.704 E16.18706
G1 X61.650 Y71.296 E16.39935
G1 X62.224 Y71.296 E16.41098
G1 X69.632 Y78.704 E16.62327
G1 X70.206 Y78.704 E16.63491
G1 X62.798 Y71.296 E16.84719
G1 X63.373 Y71.296 E16.85883
G1 X70.781 Y78.704 E17.07111
G1 X71.355 Y78.704 E17.08275
G1 X63.947 Y71.296 E17.29503
G1 X64.521 Y71.296 E17.30667
G1 X71.929 Y78.704 E17.51895
G1 X72.504 Y78.704 E17.53059
G1 X65.096 Y71.296 E17.74288
G1 X65.670 Y71.296 E17.75452
G1 X73.078 Y78.704 E17.96680
G1 X73.653 Y78.704 E17.97844
G1 X66.245 Y71.296 E18.19072
G1 X66.819 Y71.296 E18.20236
G1 X74.227 Y78.704 E18.41464
G1 X74.801 Y78.704 E18.42628
G1 X67.393 Y71.296 E18.63856
G1 X67.968 Y71.296 E18.65020
G1 X75.376 Y78.704 E18.86248
G1 X75.950 Y78.704 E18.87412
G1 X68.542 Y71.296 E19.08640
G1 X69.116 Y71.296 E19.09804
G1 X76.524 Y78.704 E19.31032
G1 X77.099 Y78.704 E19.32197
G1 X69.691 Y71.296 E19.53426
G1 X70.265 Y71.296 E19.54589
G1 X77.673 Y78.704 E19.75818
G1 X78.248 Y78.704 E19.76981
G1 X70.840 Y71.296 E19.98210
G1 X71.414 Y71.296 E19.99373
G1 X78.822 Y78.704 E20.20602
G1 X79.396 Y78.704 E20.21765
G1 X71.988 Y71.296 E20.42994
G1 X72.562 Y71.296 E20.44157
G1 X79.971 Y78.704 E20.65386
G1 X80.545 Y78.704 E20.66550
G1 X73.137 Y71.296 E20.87778
G1 X73.712 Y71.296 E20.88943
G1 X81.120 Y78.704 E21.10171
G1 X81.694 Y78.704 E21.11335
G1 X74.286 Y71.296 E21.32563
G1 X74.860 Y71.296 E21.33727
G1 X82.268 Y78.704 E21.54955
G1 X82.843 Y78.704 E21.56119
G1 X75.434 Y71.296 E21.77347
G1 X76.009 Y71.296 E21.78511
G1 X83.417 Y78.704 E21.99739
G1 X83.991 Y78.704 E22.00903
G1 X76.583 Y71.296 E22.22131
G1 X77.157 Y71.296 E22.23295
G1 X84.565 Y78.704 E22.44523
G1 X85.140 Y78.704 E22.45688
G1 X77.732 Y71.296 E22.66916
G1 X78.307 Y71.296 E22.68080
G1 X85.715 Y78.704 E22.89308
G1 X86.289 Y78.704 E22.90472
G1 X78.881 Y71.296 E23.11700
G1 X79.455 Y71.296 E23.12864
G1 X86.863 Y78.704 E23.34092
G1 X87.437 Y78.704 E23.35256
G1 X80.029 Y71.296 E23.56484
G1 X80.604 Y71.296 E23.57648
G1 X88.012 Y78.704 E23.78876
G1 X88.586 Y78.704 E23.80040
G1 X81.178 Y71.296 E24.01268
G1 X81.753 Y71.296 E24.02433
G1 X89.161 Y78.704 E24.23662
G1 X89.735 Y78.704 E24.24826
G1 X82.327 Y71.296 E24.46054
