; generated by Slic3r 0.9.7 on 2014-12-30 at 23:44:35

; layer_height = 0.3
; perimeters = 3
; top_solid_layers = 4
; bottom_solid_layers = 3
; fill_density = 0.2
; perimeter_speed = 30
; infill_speed = 30
; travel_speed = 100
; scale = 1
; nozzle_diameter = .35
; filament_diameter = 1.75
; extrusion_multiplier = 0.8
; perimeters extrusion width = 0.42mm
; infill extrusion width = 0.42mm
; first layer extrusion width = 0.42mm

M107
M190 S95 ; wait for bed temperature to be reached
M104 S195 ; set temperature
G21; set mm units
G28 ;home all axis
G90; set absolute coordinates
G92 E0; reset extruder distance
;M104 S195; set extruder temp and start heating
G1 Z5 F300 ;move platform down 5mm
G1 X145 Y145 F3000 ; move to back right corner
;M109 S195; wait for extruder temp to be reached
G1 Z50% F200 ;move platform close to nozzle
;G1 E7; extruder anchor
G1 F3000; Set Feed rate for first move
G92 E0; reset extrusion distance
G90 ; use absolute coordinates
G21 ; set units to millimeters
G92 E0
M82 ; use absolute distances for extrusion
G1 F4500.000 E-1.00000
G92 E0
G1 Z0.150 F6000.000
G1 X26.223 Y28.363
G1 F4500.000 E1.00000
G1 X33.363 Y21.223 F1350.000 E1.20401
G1 X33.753 Y20.893 E1.21434
G1 X34.173 Y20.593 E1.22476
G1 X34.613 Y20.323 E1.23519
G1 X35.073 Y20.103 E1.24550
G1 X35.803 Y19.833 E1.26122
G1 X36.293 Y19.713 E1.27142
G1 X36.803 Y19.623 E1.28188
G1 X37.313 Y19.583 E1.29221
G1 X37.833 Y19.583 E1.30272
G1 X38.343 Y19.623 E1.31306
G1 X38.853 Y19.713 E1.32352
G1 X39.343 Y19.833 E1.33371
G1 X40.073 Y20.103 E1.34944
G1 X40.533 Y20.323 E1.35974
G1 X40.753 Y20.453 E1.36490
G1 X41.183 Y20.733 E1.37527
G1 X41.593 Y21.053 E1.38578
G1 X41.783 Y21.223 E1.39093
G1 X133.763 Y113.213 E4.01925
G1 X134.253 Y113.813 E4.03490
G1 X134.533 Y114.243 E4.04527
G1 X134.663 Y114.463 E4.05043
G1 X134.983 Y115.163 E4.06599
G1 X135.153 Y115.653 E4.07646
G1 X135.273 Y116.143 E4.08666
G1 X135.363 Y116.653 E4.09712
G1 X135.403 Y117.163 E4.10746
G1 X135.403 Y117.683 E4.11796
G1 X135.363 Y118.193 E4.12830
G1 X135.273 Y118.703 E4.13876
G1 X135.073 Y119.443 E4.15425
G1 X134.883 Y119.923 E4.16468
G1 X134.663 Y120.383 E4.17498
G1 X134.253 Y121.033 E4.19051
G1 X133.933 Y121.443 E4.20102
G1 X133.763 Y121.633 E4.20617
G1 X126.633 Y128.763 E4.40990
G1 X126.033 Y129.253 E4.42555
G1 X125.383 Y129.663 E4.44108
G1 X124.923 Y129.883 E4.45138
G1 X124.443 Y130.073 E4.46181
G1 X124.193 Y130.153 E4.46711
G1 X123.443 Y130.323 E4.48265
G1 X123.193 Y130.363 E4.48777
G1 X122.683 Y130.403 E4.49810
G1 X122.163 Y130.403 E4.50861
G1 X121.653 Y130.363 E4.51894
G1 X121.143 Y130.273 E4.52941
G1 X120.653 Y130.153 E4.53960
G1 X119.923 Y129.883 E4.55533
G1 X119.463 Y129.663 E4.56563
G1 X119.243 Y129.533 E4.57079
G1 X118.813 Y129.253 E4.58116
G1 X118.403 Y128.933 E4.59167
G1 X118.213 Y128.763 E4.59682
G1 X26.223 Y36.783 E7.22514
G1 X25.733 Y36.183 E7.24079
G1 X25.453 Y35.753 E7.25116
G1 X25.323 Y35.533 E7.25632
G1 X25.003 Y34.833 E7.27187
G1 X24.833 Y34.343 E7.28235
G1 X24.713 Y33.853 E7.29254
G1 X24.623 Y33.343 E7.30301
G1 X24.583 Y32.833 E7.31334
G1 X24.583 Y32.313 E7.32385
G1 X24.623 Y31.803 E7.33419
G1 X24.713 Y31.293 E7.34465
G1 X24.913 Y30.553 E7.36014
G1 X25.103 Y30.073 E7.37057
G1 X25.323 Y29.613 E7.38087
G1 X25.453 Y29.393 E7.38603
G1 X25.733 Y28.963 E7.39640
G1 X26.182 Y28.408 E7.41083
G1 X26.223 Y28.363 E7.41205
G1 X26.513 Y28.643 F6000.000
G1 X33.643 Y21.513 F1350.000 E7.61578
G1 X34.033 Y21.183 E7.62610
G1 X34.243 Y21.033 E7.63132
G1 X34.673 Y20.763 E7.64158
G1 X35.113 Y20.523 E7.65170
G1 X35.823 Y20.253 E7.66705
G1 X36.313 Y20.123 E7.67729
G1 X36.813 Y20.033 E7.68756
G1 X37.063 Y20.003 E7.69264
G1 X37.573 Y19.983 E7.70296
G1 X38.083 Y20.003 E7.71327
G1 X38.333 Y20.033 E7.71836
G1 X38.833 Y20.123 E7.72862
G1 X39.323 Y20.253 E7.73886
G1 X40.033 Y20.523 E7.75421
G1 X40.483 Y20.763 E7.76451
G1 X40.903 Y21.033 E7.77460
G1 X41.113 Y21.183 E7.77982
G1 X41.503 Y21.513 E7.79014
G1 X133.303 Y113.313 E10.41318
G1 X133.803 Y113.883 E10.42849
G1 X133.953 Y114.093 E10.43371
G1 X134.223 Y114.523 E10.44397
G1 X134.463 Y114.963 E10.45409
G1 X134.653 Y115.433 E10.46434
G1 X134.803 Y115.923 E10.47469
G1 X134.913 Y116.413 E10.48484
G1 X134.983 Y116.913 E10.49504
G1 X135.003 Y117.423 E10.50535
G1 X134.983 Y117.933 E10.51566
G1 X134.863 Y118.683 E10.53101
G1 X134.733 Y119.173 E10.54125
G1 X134.463 Y119.883 E10.55660
G1 X134.223 Y120.333 E10.56690
G1 X133.953 Y120.753 E10.57699
G1 X133.643 Y121.153 E10.58721
G1 X133.303 Y121.533 E10.59752
G1 X126.533 Y128.303 E10.79096
G1 X125.963 Y128.803 E10.80628
G1 X125.753 Y128.953 E10.81149
G1 X125.333 Y129.223 E10.82158
G1 X124.883 Y129.463 E10.83188
G1 X124.173 Y129.733 E10.84723
G1 X123.683 Y129.863 E10.85747
G1 X123.183 Y129.953 E10.86774
G1 X122.933 Y129.983 E10.87283
G1 X122.423 Y130.003 E10.88314
G1 X121.913 Y129.983 E10.89345
G1 X121.663 Y129.953 E10.89854
G1 X121.163 Y129.863 E10.90880
G1 X120.673 Y129.733 E10.91905
G1 X119.963 Y129.463 E10.93439
G1 X119.303 Y129.093 E10.94968
G1 X118.883 Y128.803 E10.95999
G1 X118.693 Y128.643 E10.96501
G1 X118.313 Y128.303 E10.97531
G1 X26.513 Y36.503 E13.59835
G1 X26.183 Y36.113 E13.60867
G1 X25.763 Y35.483 E13.62397
G1 X25.523 Y35.033 E13.63427
G1 X25.333 Y34.563 E13.64452
G1 X25.183 Y34.073 E13.65487
G1 X25.073 Y33.583 E13.66502
G1 X25.003 Y33.083 E13.67522
G1 X24.983 Y32.573 E13.68553
G1 X25.003 Y32.063 E13.69584
G1 X25.073 Y31.563 E13.70604
G1 X25.183 Y31.073 E13.71619
G1 X25.333 Y30.583 E13.72654
G1 X25.523 Y30.113 E13.73679
G1 X25.893 Y29.453 E13.75207
G1 X26.183 Y29.033 E13.76239
G1 X26.473 Y28.689 E13.77148
G1 X26.513 Y28.643 E13.77271
G1 X26.803 Y28.923 F6000.000
G1 X33.923 Y21.803 F1350.000 E13.97615
G1 X34.303 Y21.493 E13.98606
G1 X34.693 Y21.213 E13.99576
G1 X35.123 Y20.973 E14.00571
G1 X35.563 Y20.773 E14.01547
G1 X36.023 Y20.613 E14.02531
G1 X36.723 Y20.453 E14.03982
G1 X37.453 Y20.393 E14.05462
G1 X37.933 Y20.403 E14.06432
G1 X38.423 Y20.453 E14.07427
G1 X39.123 Y20.613 E14.08878
G1 X39.583 Y20.773 E14.09862
G1 X40.023 Y20.973 E14.10839
G1 X40.453 Y21.213 E14.11833
G1 X40.843 Y21.493 E14.12803
G1 X41.223 Y21.803 E14.13794
G1 X133.183 Y113.773 E16.76569
G1 X133.493 Y114.153 E16.77560
G1 X133.773 Y114.543 E16.78530
G1 X134.013 Y114.973 E16.79525
G1 X134.213 Y115.413 E16.80502
G1 X134.373 Y115.873 E16.81486
G1 X134.493 Y116.343 E16.82466
G1 X134.563 Y116.823 E16.83446
G1 X134.593 Y117.303 E16.84418
G1 X134.583 Y117.783 E16.85388
G1 X134.533 Y118.273 E16.86383
G1 X134.433 Y118.743 E16.87354
G1 X134.293 Y119.213 E16.88344
G1 X134.113 Y119.663 E16.89324
G1 X133.893 Y120.093 E16.90300
G1 X133.773 Y120.303 E16.90788
G1 X133.343 Y120.883 E16.92247
G1 X133.183 Y121.073 E16.92749
G1 X126.073 Y128.183 E17.13065
G1 X125.693 Y128.493 E17.14055
G1 X125.303 Y128.773 E17.15025
G1 X124.873 Y129.013 E17.16020
G1 X124.433 Y129.213 E17.16997
G1 X123.973 Y129.373 E17.17981
G1 X123.273 Y129.533 E17.19432
G1 X122.543 Y129.593 E17.20912
G1 X122.063 Y129.583 E17.21882
G1 X121.573 Y129.533 E17.22877
G1 X120.873 Y129.373 E17.24328
G1 X120.413 Y129.213 E17.25312
G1 X119.973 Y129.013 E17.26288
G1 X119.543 Y128.773 E17.27283
G1 X119.153 Y128.493 E17.28253
G1 X118.773 Y128.183 E17.29244
G1 X26.803 Y36.223 E19.92019
G1 X26.493 Y35.843 E19.93010
G1 X26.213 Y35.453 E19.93980
G1 X25.973 Y35.023 E19.94975
G1 X25.773 Y34.583 E19.95951
G1 X25.613 Y34.123 E19.96935
G1 X25.493 Y33.653 E19.97915
G1 X25.423 Y33.183 E19.98876
G1 X25.393 Y32.693 E19.99867
G1 X25.423 Y31.963 E20.01344
G1 X25.493 Y31.493 E20.02304
G1 X25.613 Y31.023 E20.03284
G1 X25.773 Y30.563 E20.04268
G1 X25.973 Y30.123 E20.05244
G1 X26.213 Y29.693 E20.06239
G1 X26.493 Y29.303 E20.07209
G1 X26.763 Y28.969 E20.08077
G1 X26.803 Y28.923 E20.08200
G1 F4500.000 E19.08200
G92 E0
G1 X31.945 Y32.574 F6000.000
G1 F4500.000 E1.00000
G1 X37.574 Y26.945 F1350.000 E1.16083
G1 X128.055 Y117.426 E3.74619
G1 X122.426 Y123.055 E3.90702
G1 X31.988 Y32.617 E6.49115
G1 X31.945 Y32.574 E6.49238
G1 X31.372 Y32.574 F6000.000
G1 X37.574 Y26.372 F1350.000 E6.66957
G1 X128.628 Y117.426 E9.27130
G1 X122.426 Y123.628 E9.44849
G1 X31.415 Y32.617 E12.04899
G1 X31.372 Y32.574 E12.05022
G1 X30.800 Y32.574 F6000.000
G1 X37.574 Y25.800 F1350.000 E12.24377
G1 X129.200 Y117.426 E14.86186
G1 X122.426 Y124.200 E15.05542
G1 X30.842 Y32.617 E17.67228
G1 X30.800 Y32.574 E17.67351
G1 X30.691 Y32.167 F6000.000
G1 F4500.000 E16.67351
G92 E0
G1 X122.556 Y122.611 F6000.000
G1 F4500.000 E1.00000
G1 X32.389 Y32.445 F1350.000 E3.67574
G1 X32.686 Y32.147 E3.68457
G1 X122.853 Y122.314 E6.36031
G1 X123.150 Y122.017 E6.36913
G1 X32.984 Y31.850 E9.04488
G1 X33.281 Y31.552 E9.05370
G1 X123.448 Y121.719 E11.72944
G1 X123.745 Y121.422 E11.73827
G1 X33.578 Y31.255 E14.41401
G1 X33.876 Y30.958 E14.42284
G1 X124.043 Y121.124 E17.09858
G1 X124.340 Y120.827 E17.10740
G1 X34.173 Y30.660 E19.78315
G1 X34.471 Y30.363 E19.79197
G1 X124.637 Y120.530 E22.46771
G1 X124.935 Y120.232 E22.47654
G1 X34.768 Y30.065 E25.15228
G1 X35.065 Y29.768 E25.16111
G1 X125.232 Y119.935 E27.83685
G1 X125.530 Y119.637 E27.84567
G1 X35.363 Y29.471 E30.52141
G1 X35.660 Y29.173 E30.53024
G1 X125.827 Y119.340 E33.20598
G1 X126.124 Y119.043 E33.21481
G1 X35.958 Y28.876 E35.89055
G1 X36.255 Y28.578 E35.89937
G1 X126.422 Y118.745 E38.57512
G1 X126.719 Y118.448 E38.58394
G1 X36.553 Y28.281 E41.25968
G1 X36.850 Y27.984 E41.26851
G1 X127.017 Y118.150 E43.94425
G1 X127.314 Y117.853 E43.95307
G1 X37.147 Y27.686 E46.62882
G1 X37.445 Y27.389 E46.63764
G1 X127.611 Y117.556 E49.31338
M106 S89
G1 F4500.000 E48.31338
G92 E0
G1 Z0.450 F6000.000
G1 X133.583 Y113.033
G1 F4500.000 E1.00000
G1 X133.933 Y113.403 F1800.000 E1.02058
G1 X134.253 Y113.813 E1.04160
G1 X134.663 Y114.463 E1.07265
G1 X134.883 Y114.923 E1.09326
G1 X135.153 Y115.653 E1.12471
G1 X135.273 Y116.143 E1.14509
G1 X135.363 Y116.653 E1.16602
G1 X135.403 Y117.163 E1.18669
G1 X135.403 Y117.683 E1.20770
G1 X135.363 Y118.193 E1.22838
G1 X135.273 Y118.703 E1.24930
G1 X135.073 Y119.443 E1.28028
G1 X134.883 Y119.923 E1.30114
G1 X134.663 Y120.383 E1.32174
G1 X134.533 Y120.603 E1.33207
G1 X134.253 Y121.033 E1.35280
G1 X133.763 Y121.633 E1.38411
G1 X126.633 Y128.763 E1.79156
G1 X126.033 Y129.253 E1.82287
G1 X125.383 Y129.663 E1.85392
G1 X124.923 Y129.883 E1.87453
G1 X124.443 Y130.073 E1.89539
G1 X123.703 Y130.273 E1.92636
G1 X123.193 Y130.363 E1.94729
G1 X122.683 Y130.403 E1.96796
G1 X122.163 Y130.403 E1.98897
G1 X121.653 Y130.363 E2.00965
G1 X121.403 Y130.323 E2.01988
G1 X120.893 Y130.213 E2.04096
G1 X120.403 Y130.073 E2.06155
G1 X119.923 Y129.883 E2.08241
G1 X119.463 Y129.663 E2.10302
G1 X118.813 Y129.253 E2.13407
G1 X118.213 Y128.763 E2.16537
G1 X26.223 Y36.783 E7.42202
G1 X25.733 Y36.183 E7.45332
G1 X25.453 Y35.753 E7.47406
G1 X25.323 Y35.533 E7.48438
G1 X25.003 Y34.833 E7.51548
G1 X24.833 Y34.343 E7.53644
G1 X24.713 Y33.853 E7.55683
G1 X24.623 Y33.343 E7.57775
G1 X24.583 Y32.833 E7.59843
G1 X24.583 Y32.313 E7.61944
G1 X24.623 Y31.803 E7.64011
G1 X24.713 Y31.293 E7.66104
G1 X24.913 Y30.553 E7.69201
G1 X25.103 Y30.073 E7.71287
G1 X25.323 Y29.613 E7.73348
G1 X25.453 Y29.393 E7.74380
G1 X25.733 Y28.963 E7.76454
G1 X26.223 Y28.363 E7.79584
G1 X33.363 Y21.223 E8.20387
G1 X33.963 Y20.733 E8.23517
G1 X34.613 Y20.323 E8.26623
G1 X35.073 Y20.103 E8.28683
G1 X35.553 Y19.913 E8.30769
G1 X36.293 Y19.713 E8.33867
G1 X36.803 Y19.623 E8.35959
G1 X37.313 Y19.583 E8.38027
G1 X37.833 Y19.583 E8.40128
G1 X38.343 Y19.623 E8.42195
G1 X38.593 Y19.663 E8.43218
G1 X39.103 Y19.773 E8.45326
G1 X39.593 Y19.913 E8.47386
G1 X40.073 Y20.103 E8.49472
G1 X40.533 Y20.323 E8.51532
G1 X41.183 Y20.733 E8.54638
G1 X41.783 Y21.223 E8.57768
G1 X133.540 Y112.990 E13.82158
G1 X133.583 Y113.033 E13.82404
G1 X133.303 Y113.313 F6000.000
G1 X133.803 Y113.883 F1800.000 E13.85468
G1 X133.953 Y114.093 E13.86510
G1 X134.223 Y114.523 E13.88562
G1 X134.463 Y114.963 E13.90587
G1 X134.563 Y115.203 E13.91638
G1 X134.733 Y115.673 E13.93658
G1 X134.913 Y116.413 E13.96735
G1 X134.983 Y116.913 E13.98775
G1 X135.003 Y117.423 E14.00838
G1 X134.983 Y117.933 E14.02900
G1 X134.913 Y118.433 E14.04940
G1 X134.803 Y118.923 E14.06970
G1 X134.653 Y119.413 E14.09040
G1 X134.463 Y119.883 E14.11089
G1 X134.223 Y120.333 E14.13150
G1 X133.803 Y120.963 E14.16209
G1 X133.473 Y121.353 E14.18274
G1 X126.353 Y128.473 E14.58962
G1 X125.963 Y128.803 E14.61027
G1 X125.753 Y128.953 E14.62069
G1 X125.333 Y129.223 E14.64087
G1 X124.883 Y129.463 E14.66148
G1 X124.173 Y129.733 E14.69217
G1 X123.433 Y129.913 E14.72295
G1 X122.933 Y129.983 E14.74335
G1 X122.423 Y130.003 E14.76397
G1 X121.913 Y129.983 E14.78460
G1 X121.163 Y129.863 E14.81529
G1 X120.433 Y129.653 E14.84599
G1 X119.963 Y129.463 E14.86647
G1 X119.523 Y129.223 E14.88672
G1 X118.883 Y128.803 E14.91766
G1 X118.313 Y128.303 E14.94830
G1 X26.683 Y36.683 E20.18437
G1 X26.183 Y36.113 E20.21501
G1 X26.033 Y35.903 E20.22543
G1 X25.763 Y35.483 E20.24561
G1 X25.523 Y35.033 E20.26622
G1 X25.423 Y34.793 E20.27673
G1 X25.253 Y34.323 E20.29692
G1 X25.073 Y33.583 E20.32770
G1 X25.003 Y33.083 E20.34810
G1 X24.983 Y32.573 E20.36872
G1 X25.003 Y32.063 E20.38935
G1 X25.073 Y31.563 E20.40975
G1 X25.183 Y31.073 E20.43004
G1 X25.333 Y30.583 E20.45075
G1 X25.523 Y30.113 E20.47123
G1 X25.893 Y29.453 E20.50181
G1 X26.183 Y29.033 E20.52243
G1 X26.513 Y28.643 E20.54308
G1 X33.643 Y21.513 E20.95053
G1 X34.033 Y21.183 E20.97118
G1 X34.243 Y21.033 E20.98161
G1 X34.673 Y20.763 E21.00212
G1 X35.113 Y20.523 E21.02238
G1 X35.823 Y20.253 E21.05307
G1 X36.563 Y20.073 E21.08384
G1 X37.063 Y20.003 E21.10425
G1 X37.573 Y19.983 E21.12487
G1 X38.083 Y20.003 E21.14549
G1 X38.833 Y20.123 E21.17619
G1 X39.563 Y20.333 E21.20688
G1 X40.033 Y20.523 E21.22737
G1 X40.483 Y20.763 E21.24798
G1 X41.113 Y21.183 E21.27857
G1 X41.683 Y21.683 E21.30921
G1 X133.260 Y113.270 E26.54283
G1 X133.303 Y113.313 E26.54528
G1 X133.013 Y113.603 F6000.000
G1 X133.343 Y113.963 F1800.000 E26.56502
G1 X133.773 Y114.543 E26.59419
G1 X134.013 Y114.973 E26.61409
G1 X134.213 Y115.413 E26.63362
G1 X134.373 Y115.873 E26.65330
G1 X134.493 Y116.343 E26.67290
G1 X134.563 Y116.823 E26.69250
G1 X134.593 Y117.303 E26.71194
G1 X134.563 Y118.033 E26.74146
G1 X134.493 Y118.503 E26.76066
G1 X134.373 Y118.973 E26.78027
G1 X134.213 Y119.433 E26.79995
G1 X134.013 Y119.873 E26.81948
G1 X133.773 Y120.303 E26.83937
G1 X133.493 Y120.693 E26.85878
G1 X133.183 Y121.073 E26.87859
G1 X126.073 Y128.183 E27.28491
G1 X125.503 Y128.633 E27.31425
G1 X125.093 Y128.893 E27.33387
G1 X124.433 Y129.213 E27.36351
G1 X123.973 Y129.373 E27.38319
G1 X123.503 Y129.493 E27.40279
G1 X122.783 Y129.583 E27.43211
G1 X122.063 Y129.583 E27.46121
G1 X121.343 Y129.493 E27.49053
G1 X120.873 Y129.373 E27.51013
G1 X120.413 Y129.213 E27.52981
G1 X119.973 Y129.013 E27.54934
G1 X119.543 Y128.773 E27.56924
G1 X119.343 Y128.633 E27.57910
G1 X118.773 Y128.183 E27.60845
G1 X26.803 Y36.223 E32.86395
G1 X26.493 Y35.843 E32.88377
G1 X26.213 Y35.453 E32.90317
G1 X25.973 Y35.023 E32.92307
G1 X25.773 Y34.583 E32.94260
G1 X25.613 Y34.123 E32.96228
G1 X25.493 Y33.653 E32.98188
G1 X25.423 Y33.183 E33.00108
G1 X25.393 Y32.693 E33.02092
G1 X25.423 Y31.963 E33.05044
G1 X25.493 Y31.493 E33.06964
G1 X25.613 Y31.023 E33.08924
G1 X25.773 Y30.563 E33.10892
G1 X25.973 Y30.123 E33.12845
G1 X26.213 Y29.693 E33.14835
G1 X26.493 Y29.303 E33.16775
G1 X26.803 Y28.923 E33.18757
G1 X33.923 Y21.803 E33.59446
G1 X34.493 Y21.353 E33.62380
G1 X34.903 Y21.093 E33.64342
G1 X35.563 Y20.773 E33.67306
G1 X36.023 Y20.613 E33.69274
G1 X36.493 Y20.493 E33.71234
G1 X37.213 Y20.403 E33.74166
G1 X37.933 Y20.403 E33.77076
G1 X38.653 Y20.493 E33.80008
