; generated by Slic3r 0.9.7 on 2014-12-13 at 23:20:24

; layer_height = 0.3
; perimeters = 3
; top_solid_layers = 4
; bottom_solid_layers = 3
; fill_density = 0.2
; perimeter_speed = 30
; infill_speed = 30
; travel_speed = 100
; scale = 1
; nozzle_diameter = .35
; filament_diameter = 1.75
; extrusion_multiplier = 0.8
; perimeters extrusion width = 0.42mm
; infill extrusion width = 0.42mm
; first layer extrusion width = 0.42mm

M107
M190 S95 ; wait for bed temperature to be reached
M104 S195 ; set temperature
G21; set mm units
G28 ;home all axis
G90; set absolute coordinates
G92 E0; reset extruder distance
;M104 S195; set extruder temp and start heating
G1 Z5 F300 ;move platform down 5mm
G1 X145 Y145 F3000 ; move to back right corner
;M109 S195; wait for extruder temp to be reached
G1 Z50% F200 ;move platform close to nozzle
;G1 E7; extruder anchor
G1 F3000; Set Feed rate for first move
G92 E0; reset extrusion distance
G90 ; use absolute coordinates
G21 ; set units to millimeters
G92 E0
M82 ; use absolute distances for extrusion
G1 F4500.000 E-1.00000
G92 E0
G1 Z0.150 F6000.000
G1 X31.184 Y60.491
G1 F4500.000 E1.00000
G1 X128.816 Y60.491 F1350.000 E2.97260
G1 X134.509 Y66.184 E3.13528
G1 X134.509 Y83.816 E3.49152
G1 X128.816 Y89.509 E3.65420
G1 X31.184 Y89.509 E5.62680
G1 X25.491 Y83.816 E5.78948
G1 X25.491 Y66.184 E6.14573
G1 X31.141 Y60.533 E6.30718
G1 X31.184 Y60.491 E6.30841
G1 X31.352 Y60.896 F6000.000
G1 X128.648 Y60.896 F1350.000 E8.27423
G1 X134.104 Y66.352 E8.43013
G1 X134.104 Y83.648 E8.77960
G1 X128.648 Y89.104 E8.93550
G1 X31.352 Y89.104 E10.90132
G1 X25.896 Y83.648 E11.05722
G1 X25.896 Y66.352 E11.40669
G1 X31.309 Y60.938 E11.56136
G1 X31.352 Y60.896 E11.56259
G1 X31.520 Y61.300 F6000.000
G1 X128.480 Y61.300 F1350.000 E13.52163
G1 X133.700 Y66.520 E13.67076
G1 X133.700 Y83.480 E14.01344
G1 X128.480 Y88.700 E14.16257
G1 X31.520 Y88.700 E16.12161
G1 X26.300 Y83.480 E16.27073
G1 X26.300 Y66.520 E16.61342
G1 X31.477 Y61.343 E16.76132
G1 X31.520 Y61.300 E16.76255
G1 X31.687 Y61.705 F6000.000
G1 X128.313 Y61.705 F1350.000 E18.71481
G1 X133.295 Y66.687 E18.85715
G1 X133.295 Y83.313 E19.19306
G1 X128.313 Y88.295 E19.33541
G1 X31.687 Y88.295 E21.28767
G1 X26.705 Y83.313 E21.43002
G1 X26.705 Y66.687 E21.76592
G1 X31.644 Y61.748 E21.90704
G1 X31.687 Y61.705 E21.90827
G1 X31.855 Y62.110 F6000.000
G1 X128.145 Y62.110 F1350.000 E23.85375
G1 X132.890 Y66.855 E23.98932
G1 X132.890 Y83.145 E24.31845
G1 X128.145 Y87.890 E24.45402
G1 X31.855 Y87.890 E26.39950
G1 X27.110 Y83.145 E26.53507
G1 X27.110 Y66.855 E26.86420
G1 X31.812 Y62.153 E26.99854
G1 X31.855 Y62.110 E26.99977
G1 X32.023 Y62.515 F6000.000
G1 X127.977 Y62.515 F1350.000 E28.93847
G1 X132.485 Y67.023 E29.06727
G1 X132.485 Y82.977 E29.38961
G1 X127.977 Y87.485 E29.51841
G1 X32.023 Y87.485 E31.45711
G1 X27.515 Y82.977 E31.58590
G1 X27.515 Y67.023 E31.90825
G1 X31.980 Y62.558 E32.03581
G1 X32.023 Y62.515 E32.03704
G1 X32.191 Y62.920 F6000.000
G1 X127.809 Y62.920 F1350.000 E33.96897
G1 X132.080 Y67.191 E34.09098
G1 X132.080 Y82.809 E34.40655
G1 X127.809 Y87.080 E34.52856
G1 X32.191 Y87.080 E36.46049
G1 X27.920 Y82.809 E36.58250
G1 X27.920 Y67.191 E36.89807
G1 X32.148 Y62.963 E37.01886
G1 X32.191 Y62.920 E37.02008
G1 X32.358 Y63.325 F6000.000
G1 X127.642 Y63.325 F1350.000 E38.94523
G1 X131.675 Y67.358 E39.06046
G1 X131.675 Y82.642 E39.36926
G1 X127.642 Y86.675 E39.48449
G1 X32.358 Y86.675 E41.40964
G1 X28.325 Y82.642 E41.52487
G1 X28.325 Y67.358 E41.83366
G1 X32.315 Y63.368 E41.94767
G1 X32.358 Y63.325 E41.94890
G1 X32.526 Y63.730 F6000.000
G1 X127.474 Y63.730 F1350.000 E43.86727
G1 X131.270 Y67.526 E43.97572
G1 X131.270 Y82.474 E44.27774
G1 X127.474 Y86.270 E44.38619
G1 X32.526 Y86.270 E46.30456
G1 X28.730 Y82.474 E46.41302
G1 X28.730 Y67.526 E46.71503
G1 X32.483 Y63.773 E46.82226
G1 X32.526 Y63.730 E46.82349
G1 X32.694 Y64.135 F6000.000
G1 X127.306 Y64.135 F1350.000 E48.73508
G1 X130.865 Y67.694 E48.83675
G1 X130.865 Y82.306 E49.13199
G1 X127.306 Y85.865 E49.23367
G1 X32.694 Y85.865 E51.14526
G1 X29.135 Y82.306 E51.24693
G1 X29.135 Y67.694 E51.54217
G1 X32.651 Y64.178 E51.64262
G1 X32.694 Y64.135 E51.64385
G1 X32.862 Y64.540 F6000.000
G1 X127.138 Y64.540 F1350.000 E53.54866
G1 X130.460 Y67.862 E53.64356
G1 X130.460 Y82.138 E53.93201
G1 X127.138 Y85.460 E54.02691
G1 X32.862 Y85.460 E55.93172
G1 X29.540 Y82.138 E56.02662
G1 X29.540 Y67.862 E56.31508
G1 X32.819 Y64.583 E56.40875
G1 X32.862 Y64.540 E56.40998
G1 X33.029 Y64.945 F6000.000
G1 X126.971 Y64.945 F1350.000 E58.30801
G1 X130.055 Y68.029 E58.39613
G1 X130.055 Y81.971 E58.67781
G1 X126.971 Y85.055 E58.76593
G1 X33.029 Y85.055 E60.66396
G1 X29.945 Y81.971 E60.75208
G1 X29.945 Y68.029 E61.03376
G1 X32.986 Y64.988 E61.12065
G1 X33.029 Y64.945 E61.12188
G1 X33.197 Y65.350 F6000.000
G1 X126.803 Y65.350 F1350.000 E63.01313
G1 X129.650 Y68.197 E63.09448
G1 X129.650 Y81.803 E63.36938
G1 X126.803 Y84.650 E63.45072
G1 X33.197 Y84.650 E65.34197
G1 X30.350 Y81.803 E65.42331
G1 X30.350 Y68.197 E65.69821
G1 X33.154 Y65.393 E65.77833
G1 X33.197 Y65.350 E65.77956
G1 X33.365 Y65.755 F6000.000
G1 X126.635 Y65.755 F1350.000 E67.66403
G1 X129.245 Y68.365 E67.73860
G1 X129.245 Y81.635 E68.00672
G1 X126.635 Y84.245 E68.08128
G1 X33.365 Y84.245 E69.96576
G1 X30.755 Y81.635 E70.04032
G1 X30.755 Y68.365 E70.30844
G1 X33.322 Y65.798 E70.38178
G1 X33.365 Y65.755 E70.38300
G1 X33.533 Y66.160 F6000.000
G1 X126.467 Y66.160 F1350.000 E72.26070
G1 X128.840 Y68.533 E72.32849
G1 X128.840 Y81.467 E72.58983
G1 X126.467 Y83.840 E72.65761
G1 X33.533 Y83.840 E74.53531
G1 X31.160 Y81.467 E74.60310
G1 X31.160 Y68.533 E74.86444
G1 X33.490 Y66.203 E74.93100
G1 X33.533 Y66.160 E74.93222
G1 X33.700 Y66.565 F6000.000
G1 X126.300 Y66.565 F1350.000 E76.80314
G1 X128.435 Y68.700 E76.86415
G1 X128.435 Y81.300 E77.11871
G1 X126.300 Y83.435 E77.17972
G1 X33.700 Y83.435 E79.05064
G1 X31.565 Y81.300 E79.11165
G1 X31.565 Y68.700 E79.36621
G1 X33.657 Y66.608 E79.42599
G1 X33.700 Y66.565 E79.42722
G1 X33.868 Y66.970 F6000.000
G1 X126.132 Y66.970 F1350.000 E81.29136
G1 X128.030 Y68.868 E81.34558
G1 X128.030 Y81.132 E81.59337
G1 X126.132 Y83.030 E81.64760
G1 X33.868 Y83.030 E83.51174
G1 X31.970 Y81.132 E83.56597
G1 X31.970 Y68.868 E83.81375
G1 X33.825 Y67.013 E83.86675
G1 X33.868 Y66.970 E83.86798
G1 X34.036 Y67.375 F6000.000
G1 X125.964 Y67.375 F1350.000 E85.72534
G1 X127.625 Y69.036 E85.77279
G1 X127.625 Y80.964 E86.01380
G1 X125.964 Y82.625 E86.06125
G1 X34.036 Y82.625 E87.91861
G1 X32.375 Y80.964 E87.96606
G1 X32.375 Y69.036 E88.20707
G1 X33.993 Y67.418 E88.25329
G1 X34.036 Y67.375 E88.25452
G1 X34.204 Y67.780 F6000.000
G1 X125.796 Y67.780 F1350.000 E90.10510
G1 X127.220 Y69.204 E90.14577
G1 X127.220 Y80.796 E90.38000
G1 X125.796 Y82.220 E90.42067
G1 X34.204 Y82.220 E92.27126
G1 X32.780 Y80.796 E92.31193
G1 X32.780 Y69.204 E92.54616
G1 X34.161 Y67.823 E92.58560
G1 X34.204 Y67.780 E92.58683
G1 X34.371 Y68.185 F6000.000
G1 X125.629 Y68.185 F1350.000 E94.43063
G1 X126.815 Y69.371 E94.46452
G1 X126.815 Y80.629 E94.69198
G1 X125.629 Y81.815 E94.72587
G1 X34.371 Y81.815 E96.56967
G1 X33.185 Y80.629 E96.60356
G1 X33.185 Y69.371 E96.83102
G1 X34.328 Y68.228 E96.86368
G1 X34.371 Y68.185 E96.86491
G1 X34.539 Y68.590 F6000.000
G1 X125.461 Y68.590 F1350.000 E98.70193
G1 X126.410 Y69.539 E98.72905
G1 X126.410 Y80.461 E98.94972
G1 X125.461 Y81.410 E98.97683
G1 X34.539 Y81.410 E100.81386
G1 X33.590 Y80.461 E100.84098
G1 X33.590 Y69.539 E101.06165
G1 X34.496 Y68.633 E101.08753
G1 X34.539 Y68.590 E101.08876
G1 X34.707 Y68.995 F6000.000
G1 X125.293 Y68.995 F1350.000 E102.91901
G1 X126.005 Y69.707 E102.93934
G1 X126.005 Y80.293 E103.15324
G1 X125.293 Y81.005 E103.17357
G1 X34.707 Y81.005 E105.00382
G1 X33.995 Y80.293 E105.02416
G1 X33.995 Y69.707 E105.23805
G1 X34.664 Y69.038 E105.25716
G1 X34.707 Y68.995 E105.25839
G1 X34.875 Y69.400 F6000.000
G1 X125.125 Y69.400 F1350.000 E107.08186
G1 X125.600 Y69.875 E107.09541
G1 X125.600 Y80.125 E107.30253
G1 X125.125 Y80.600 E107.31609
G1 X34.875 Y80.600 E109.13956
G1 X34.400 Y80.125 E109.15311
G1 X34.400 Y69.875 E109.36023
G1 X34.832 Y69.443 E109.37256
G1 X34.875 Y69.400 E109.37378
G1 X35.042 Y69.805 F6000.000
G1 X124.958 Y69.805 F1350.000 E111.19048
G1 X125.195 Y70.042 E111.19725
G1 X125.195 Y79.958 E111.39759
G1 X124.958 Y80.195 E111.40437
G1 X35.042 Y80.195 E113.22106
G1 X34.805 Y79.958 E113.22784
G1 X34.805 Y70.042 E113.42818
G1 X34.999 Y69.848 E113.43373
G1 X35.042 Y69.805 E113.43495
G1 F4500.000 E112.43495
G92 E0
G1 X35.210 Y70.210 F6000.000
G1 F4500.000 E1.00000
G1 X124.790 Y70.210 F1350.000 E2.80991
G1 X124.790 Y79.790 E3.00347
G1 X35.210 Y79.790 E4.81338
G1 X35.210 Y70.271 E5.00571
G1 X35.210 Y70.210 E5.00694
G1 X35.615 Y70.615 F6000.000
G1 X124.385 Y70.615 F1350.000 E6.80049
G1 X124.385 Y79.385 E6.97768
G1 X35.615 Y79.385 E8.77123
G1 X35.615 Y70.676 E8.94720
G1 X35.615 Y70.615 E8.94843
G1 X36.020 Y71.020 F6000.000
G1 X123.980 Y71.020 F1350.000 E10.72561
G1 X123.980 Y78.980 E10.88644
G1 X36.020 Y78.980 E12.66362
G1 X36.020 Y71.081 E12.82322
G1 X36.020 Y71.020 E12.82445
G1 F4500.000 E11.82445
G92 E0
G1 X36.554 Y78.704 F6000.000
G1 F4500.000 E1.00000
G1 X36.296 Y78.446 F1350.000 E1.00740
G1 X36.296 Y77.871 E1.01906
G1 X37.129 Y78.704 E1.04296
G1 X37.704 Y78.704 E1.05462
G1 X36.296 Y77.296 E1.09501
G1 X36.296 Y76.721 E1.10667
G1 X38.279 Y78.704 E1.16356
G1 X38.854 Y78.704 E1.17522
G1 X36.296 Y76.146 E1.24860
G1 X36.296 Y75.571 E1.26027
G1 X39.429 Y78.704 E1.35014
G1 X40.004 Y78.704 E1.36180
G1 X36.296 Y74.996 E1.46817
G1 X36.296 Y74.421 E1.47984
G1 X40.579 Y78.704 E1.60270
G1 X41.154 Y78.704 E1.61437
G1 X36.296 Y73.846 E1.75373
G1 X36.296 Y73.271 E1.76539
G1 X41.729 Y78.704 E1.92125
G1 X42.304 Y78.704 E1.93291
G1 X36.296 Y72.696 E2.10526
G1 X36.296 Y72.121 E2.11692
G1 X42.879 Y78.704 E2.30577
G1 X43.454 Y78.704 E2.31743
G1 X36.296 Y71.546 E2.52277
G1 X36.621 Y71.296 E2.53109
G1 X44.029 Y78.704 E2.74361
G1 X44.604 Y78.704 E2.75527
G1 X37.196 Y71.296 E2.96779
G1 X37.771 Y71.296 E2.97945
G1 X45.179 Y78.704 E3.19197
G1 X45.754 Y78.704 E3.20363
G1 X38.346 Y71.296 E3.41614
G1 X38.921 Y71.296 E3.42781
G1 X46.329 Y78.704 E3.64032
G1 X46.904 Y78.704 E3.65199
G1 X39.496 Y71.296 E3.86451
G1 X40.071 Y71.296 E3.87617
G1 X47.479 Y78.704 E4.08869
G1 X48.054 Y78.704 E4.10035
G1 X40.646 Y71.296 E4.31286
G1 X41.221 Y71.296 E4.32453
G1 X48.629 Y78.704 E4.53704
G1 X49.204 Y78.704 E4.54871
G1 X41.796 Y71.296 E4.76122
G1 X42.371 Y71.296 E4.77289
G1 X49.779 Y78.704 E4.98540
G1 X50.354 Y78.704 E4.99707
G1 X42.946 Y71.296 E5.20958
G1 X43.521 Y71.296 E5.22125
G1 X50.929 Y78.704 E5.43376
G1 X51.504 Y78.704 E5.44542
G1 X44.096 Y71.296 E5.65794
G1 X44.671 Y71.296 E5.66960
G1 X52.079 Y78.704 E5.88212
G1 X52.654 Y78.704 E5.89378
G1 X45.246 Y71.296 E6.10630
G1 X45.821 Y71.296 E6.11796
G1 X53.229 Y78.704 E6.33048
G1 X53.804 Y78.704 E6.34214
G1 X46.396 Y71.296 E6.55466
G1 X46.971 Y71.296 E6.56632
G1 X54.379 Y78.704 E6.77884
G1 X54.954 Y78.704 E6.79050
G1 X47.546 Y71.296 E7.00302
G1 X48.121 Y71.296 E7.01468
G1 X55.529 Y78.704 E7.22720
G1 X56.104 Y78.704 E7.23886
G1 X48.696 Y71.296 E7.45138
G1 X49.271 Y71.296 E7.46304
G1 X56.679 Y78.704 E7.67556
G1 X57.254 Y78.704 E7.68722
G1 X49.846 Y71.296 E7.89974
G1 X50.421 Y71.296 E7.91140
G1 X57.829 Y78.704 E8.12392
G1 X58.404 Y78.704 E8.13558
G1 X50.996 Y71.296 E8.34810
G1 X51.571 Y71.296 E8.35976
G1 X58.979 Y78.704 E8.57228
G1 X59.554 Y78.704 E8.58394
G1 X52.146 Y71.296 E8.79646
G1 X52.721 Y71.296 E8.80812
G1 X60.129 Y78.704 E9.02064
G1 X60.704 Y78.704 E9.03230
G1 X53.296 Y71.296 E9.24482
G1 X53.871 Y71.296 E9.25648
G1 X61.279 Y78.704 E9.46900
G1 X61.854 Y78.704 E9.48066
G1 X54.446 Y71.296 E9.69318
G1 X55.021 Y71.296 E9.70484
G1 X62.429 Y78.704 E9.91736
G1 X63.004 Y78.704 E9.92902
G1 X55.596 Y71.296 E10.14154
G1 X56.171 Y71.296 E10.15320
G1 X63.579 Y78.704 E10.36572
G1 X64.154 Y78.704 E10.37738
G1 X56.746 Y71.296 E10.58990
G1 X57.321 Y71.296 E10.60156
G1 X64.729 Y78.704 E10.81408
G1 X65.304 Y78.704 E10.82574
G1 X57.896 Y71.296 E11.03826
G1 X58.471 Y71.296 E11.04992
G1 X65.879 Y78.704 E11.26243
G1 X66.454 Y78.704 E11.27410
G1 X59.046 Y71.296 E11.48661
G1 X59.621 Y71.296 E11.49828
G1 X67.029 Y78.704 E11.71079
G1 X67.604 Y78.704 E11.72246
G1 X60.196 Y71.296 E11.93497
G1 X60.771 Y71.296 E11.94664
G1 X68.179 Y78.704 E12.15915
G1 X68.754 Y78.704 E12.17082
G1 X61.346 Y71.296 E12.38333
G1 X61.921 Y71.296 E12.39500
G1 X69.329 Y78.704 E12.60751
G1 X69.904 Y78.704 E12.61918
G1 X62.496 Y71.296 E12.83169
G1 X63.071 Y71.296 E12.84336
G1 X70.479 Y78.704 E13.05587
G1 X71.054 Y78.704 E13.06754
G1 X63.646 Y71.296 E13.28005
G1 X64.221 Y71.296 E13.29172
G1 X71.629 Y78.704 E13.50423
G1 X72.204 Y78.704 E13.51590
G1 X64.796 Y71.296 E13.72841
G1 X65.371 Y71.296 E13.74007
G1 X72.779 Y78.704 E13.95259
G1 X73.354 Y78.704 E13.96425
G1 X65.946 Y71.296 E14.17677
G1 X66.521 Y71.296 E14.18843
G1 X73.929 Y78.704 E14.40095
G1 X74.504 Y78.704 E14.41261
G1 X67.096 Y71.296 E14.62513
G1 X67.671 Y71.296 E14.63679
G1 X75.079 Y78.704 E14.84931
G1 X75.654 Y78.704 E14.86097
G1 X68.246 Y71.296 E15.07349
G1 X68.821 Y71.296 E15.08515
G1 X76.229 Y78.704 E15.29767
G1 X76.804 Y78.704 E15.30933
G1 X69.396 Y71.296 E15.52185
G1 X69.971 Y71.296 E15.53351
G1 X77.379 Y78.704 E15.74603
G1 X77.954 Y78.704 E15.75769
G1 X70.546 Y71.296 E15.97020
G1 X71.121 Y71.296 E15.98187
G1 X78.529 Y78.704 E16.19438
G1 X79.104 Y78.704 E16.20605
G1 X71.696 Y71.296 E16.41856
G1 X72.271 Y71.296 E16.43023
G1 X79.679 Y78.704 E16.64274
G1 X80.254 Y78.704 E16.65441
G1 X72.846 Y71.296 E16.86692
G1 X73.421 Y71.296 E16.87859
G1 X80.829 Y78.704 E17.09110
G1 X81.404 Y78.704 E17.10277
G1 X73.996 Y71.296 E17.31528
G1 X74.571 Y71.296 E17.32695
G1 X81.979 Y78.704 E17.53946
G1 X82.554 Y78.704 E17.55113
G1 X75.146 Y71.296 E17.76364
G1 X75.721 Y71.296 E17.77531
G1 X83.129 Y78.704 E17.98782
G1 X83.704 Y78.704 E17.99949
G1 X76.296 Y71.296 E18.21200
G1 X76.871 Y71.296 E18.22367
G1 X84.279 Y78.704 E18.43618
G1 X84.854 Y78.704 E18.44784
G1 X77.446 Y71.296 E18.66036
G1 X78.021 Y71.296 E18.67202
G1 X85.429 Y78.704 E18.88454
G1 X86.004 Y78.704 E18.89620
G1 X78.596 Y71.296 E19.10872
G1 X79.171 Y71.296 E19.12038
G1 X86.579 Y78.704 E19.33290
G1 X87.154 Y78.704 E19.34456
G1 X79.746 Y71.296 E19.55708
G1 X80.321 Y71.296 E19.56874
G1 X87.729 Y78.704 E19.78126
G1 X88.304 Y78.704 E19.79292
G1 X80.896 Y71.296 E20.00544
G1 X81.471 Y71.296 E20.01710
G1 X88.879 Y78.704 E20.22962
G1 X89.454 Y78.704 E20.24128
G1 X82.046 Y71.296 E20.45380
G1 X82.621 Y71.296 E20.46546
G1 X90.029 Y78.704 E20.67798
G1 X90.604 Y78.704 E20.68964
G1 X83.196 Y71.296 E20.90216
G1 X83.771 Y71.296 E20.91382
G1 X91.179 Y78.704 E21.12634
G1 X91.754 Y78.704 E21.13800
G1 X84.346 Y71.296 E21.35052
G1 X84.921 Y71.296 E21.36218
G1 X92.329 Y78.704 E21.57470
G1 X92.904 Y78.704 E21.58636
G1 X85.496 Y71.296 E21.79888
G1 X86.071 Y71.296 E21.81054
G1 X93.479 Y78.704 E22.02306
G1 X94.054 Y78.704 E22.03472
G1 X86.646 Y71.296 E22.24724
G1 X87.221 Y71.296 E22.25890
G1 X94.629 Y78.704 E22.47142
G1 X95.204 Y78.704 E22.48308
G1 X87.796 Y71.296 E22.69560
G1 X88.371 Y71.296 E22.70726
G1 X95.779 Y78.704 E22.91978
G1 X96.354 Y78.704 E22.93144
G1 X88.946 Y71.296 E23.14395
G1 X89.521 Y71.296 E23.15562
G1 X96.929 Y78.704 E23.36813
G1 X97.504 Y78.704 E23.37980
G1 X90.096 Y71.296 E23.59232
G1 X90.671 Y71.296 E23.60398
G1 X98.079 Y78.704 E23.81649
G1 X98.654 Y78.704 E23.82816
G1 X91.246 Y71.296 E24.04067
G1 X91.821 Y71.296 E24.05234
G1 X99.229 Y78.704 E24.26485
G1 X99.804 Y78.704 E24.27652
G1 X92.396 Y71.296 E24.48903
G1 X92.971 Y71.296 E24.50070
